( Made using CamBam - http://www.cambam.co.uk )
( test1-B_Cu 6/22/2014 4:40:26 PM )
( T3 : 3.0 )
G21 G90 G64 G40
G0 Z3.0
( T3 : 3.0 )
T3 M6
( Pocket1 )
G17
M3 S1000
G0 X16.8 Y16.8
G0 Z1.0
G1 F100.0 Z-0.5
G1 F300.0 Y18.2
G1 X18.2
G1 Y16.8
G1 X16.8
G1 F100.0 Y15.9
G1 F300.0 X15.9
G1 Y19.1
G1 X19.1
G1 Y15.9
G1 X16.8
G1 F100.0 Y14.1
G1 F300.0 X14.1
G1 Y20.9
G1 X20.9
G1 Y14.1
G1 X16.8
G1 F100.0 Y12.3
G1 F300.0 X12.3
G1 Y22.7
G1 X22.7
G1 Y12.3
G1 X16.8
G1 F100.0 Y10.5
G1 F300.0 X10.5
G1 Y24.5
G1 X24.5
G1 Y10.5
G1 X16.8
G1 F100.0 Y8.7
G1 F300.0 X8.7
G1 Y26.3
G1 X26.3
G1 Y8.7
G1 X16.8
G1 F100.0 Y6.9
G1 F300.0 X6.9
G1 Y28.1
G1 X28.1
G1 Y6.9
G1 X16.8
G1 F100.0 Y5.1
G1 F300.0 X5.1
G1 Y29.9
G1 X29.9
G1 Y5.1
G1 X16.8
G1 F100.0 Y3.3
G1 F300.0 X3.3
G1 Y31.7
G1 X31.7
G1 Y3.3
G1 X16.8
G1 F100.0 Y1.5
G1 F300.0 X33.5
G1 Y33.5
G1 X1.5
G1 Y1.5
G1 X16.8
G0 Z3.0
M5
M30
