(------------------------------------------------------------------------------)
( Generated with: Simple Gcode Generator v1.2.0 )
(------------------------------------------------------------------------------)

G94     ( Millimeters per minute feed rate. )
G21     ( Units == Millimeters. )
G90     ( Absolute coordinates. )

(------------------------------------------------------------------------------)
( Start of object: Rectangular pocket )
( Class: ncMillPocketRectangular v0.1.1 )

F300.0000 T3 M6 G00 Z10.0000

g00 x0.0000 y0.0000
g00 z1.5000
g01 z-1.0000 f100.0000
g01 x-1.5000 y-1.5000 f300.0000
g01 x1.5000 y-1.5000 f300.0000
g01 x1.5000 y1.5000
g01 x-1.5000 y1.5000
g01 x-1.5000 y-1.5000
g01 x-3.0000 y-3.0000 f300.0000
g01 x3.0000 y-3.0000 f300.0000
g01 x3.0000 y3.0000
g01 x-3.0000 y3.0000
g01 x-3.0000 y-3.0000
g01 x-4.5000 y-4.5000 f300.0000
g01 x4.5000 y-4.5000 f300.0000
g01 x4.5000 y4.5000
g01 x-4.5000 y4.5000
g01 x-4.5000 y-4.5000
g01 x-6.0000 y-6.0000 f300.0000
g01 x6.0000 y-6.0000 f300.0000
g01 x6.0000 y6.0000
g01 x-6.0000 y6.0000
g01 x-6.0000 y-6.0000
g01 x-7.5000 y-7.5000 f300.0000
g01 x7.5000 y-7.5000 f300.0000
g01 x7.5000 y7.5000
g01 x-7.5000 y7.5000
g01 x-7.5000 y-7.5000
g01 x-9.0000 y-9.0000 f300.0000
g01 x9.0000 y-9.0000 f300.0000
g01 x9.0000 y9.0000
g01 x-9.0000 y9.0000
g01 x-9.0000 y-9.0000
g01 x-10.5000 y-10.5000 f300.0000
g01 x10.5000 y-10.5000 f300.0000
g01 x10.5000 y10.5000
g01 x-10.5000 y10.5000
g01 x-10.5000 y-10.5000
g01 x-12.0000 y-12.0000 f300.0000
g01 x12.0000 y-12.0000 f300.0000
g01 x12.0000 y12.0000
g01 x-12.0000 y12.0000
g01 x-12.0000 y-12.0000
g01 x-13.5000 y-13.5000 f300.0000
g01 x13.5000 y-13.5000 f300.0000
g01 x13.5000 y13.5000
g01 x-13.5000 y13.5000
g01 x-13.5000 y-13.5000
g01 x-15.0000 y-15.0000 f300.0000
g01 x15.0000 y-15.0000 f300.0000
g01 x15.0000 y15.0000
g01 x-15.0000 y15.0000
g01 x-15.0000 y-15.0000
g01 x-16.5000 y-16.5000 f300.0000
g01 x16.5000 y-16.5000 f300.0000
g01 x16.5000 y16.5000
g01 x-16.5000 y16.5000
g01 x-16.5000 y-16.5000
g01 x-18.0000 y-18.0000 f300.0000
g01 x18.0000 y-18.0000 f300.0000
g01 x18.0000 y18.0000
g01 x-18.0000 y18.0000
g01 x-18.0000 y-18.0000
g01 x-19.5000 y-19.5000 f300.0000
g01 x19.5000 y-19.5000 f300.0000
g01 x19.5000 y19.5000
g01 x-19.5000 y19.5000
g01 x-19.5000 y-19.5000
g01 x-21.0000 y-21.0000 f300.0000
g01 x21.0000 y-21.0000 f300.0000
g01 x21.0000 y21.0000
g01 x-21.0000 y21.0000
g01 x-21.0000 y-21.0000
g01 x-22.5000 y-22.5000 f300.0000
g01 x22.5000 y-22.5000 f300.0000
g01 x22.5000 y22.5000
g01 x-22.5000 y22.5000
g01 x-22.5000 y-22.5000
g01 x-23.9000 y-23.9000 f300.0000
g01 x23.9000 y-23.9000 f300.0000
g01 x23.9000 y23.9000
g01 x-23.9000 y23.9000
g01 x-23.9000 y-23.9000
g01 x0.0000 y-23.9000
g00 x0.0000 y0.0000 z0.0000

G00 Z10.0000

( End of object: Rectangular pocket )
(------------------------------------------------------------------------------)

M5 ( spindle off )
M9 ( coolant off )
M2 ( program end )
