(Generated By: Line Grinder Version: 01.04)
(Home Page: http://www.OfItselfSo.com/LineGrinder/LineGrinder.php)
(Generated from file: C:\Users\pc\Documents\blinds\ams-regulator3v3-Edge_Cuts.gbr)
(Date Generated: Wednesday, 18 June 2014 19:42)

(The Line Grinder software is released under the MIT License. There)
(is no warranty or guarantee that the GCode files it produces)
(are without error. You use it, and run its output code entirely)
(at your own risk. In particular: )

(THE LINE GRINDER SOFTWARE, AND THE OUTPUT CODE IT GENERATES, ARE )
(PROVIDED "AS IS", WITHOUT WARRANTY OF ANY KIND, EXPRESS OR )
(IMPLIED, INCLUDING BUT NOT LIMITED TO THE WARRANTIES OF )
(MERCHANTABILITY, FITNESS FOR A PARTICULAR PURPOSE AND )
(NONINFRINGEMENT. IN NO EVENT SHALL THE AUTHORS OR COPYRIGHT )
(HOLDERS BE LIABLE FOR ANY CLAIM, DAMAGES OR OTHER LIABILITY, )
(WHETHER IN AN ACTION OF CONTRACT, TORT OR OTHERWISE, ARISING )
(FROM, OUT OF OR IN CONNECTION WITH THE SOFTWARE OR ITS OUTPUT)
(OR FROM THE USE OR OTHER DEALINGS IN THE SOFTWARE. )

G20 (Use Inches)
G90 (Set Absolute Coordinates)
G17 (XY plane selection)
G00 Z0.5
G00 X0 Y0
M03 (Start spindle)
G04 P1 (Pause to let the spindle start)
(... start ...)
G00 X1.606 Y0.956
G01 Z-0.025 F5
G01 X1.606 Y-0.205
G01 X-0.205 Y-0.205
G01 X-0.205 Y0.956
G01 X1.606 Y0.956
(... pass ...)
G01 X1.546 Y0.896
G01 X1.546 Y-0.145
G01 X-0.145 Y-0.145
G01 X-0.145 Y0.896
G01 X1.546 Y0.896
(... pass ...)
G01 X1.486 Y0.836
G01 X1.486 Y-0.085
G01 X-0.085 Y-0.085
G01 X-0.085 Y0.836
G01 X1.486 Y0.836
(... pass ...)
G01 X1.426 Y0.776
G01 X1.426 Y-0.025
G01 X-0.025 Y-0.025
G01 X-0.025 Y0.776
G01 X1.426 Y0.776
(... pass ...)
G01 X1.366 Y0.716
G01 X1.366 Y0.035
G01 X0.035 Y0.035
G01 X0.035 Y0.716
G01 X1.366 Y0.716
(... pass ...)
G01 X1.306 Y0.656
G01 X1.306 Y0.095
G01 X0.095 Y0.095
G01 X0.095 Y0.656
G01 X1.306 Y0.656
(... pass ...)
G01 X1.246 Y0.596
G01 X1.246 Y0.155
G01 X0.155 Y0.155
G01 X0.155 Y0.596
G01 X1.246 Y0.596
(... pass ...)
G01 X1.186 Y0.536
G01 X1.186 Y0.215
G01 X0.215 Y0.215
G01 X0.215 Y0.536
G01 X1.186 Y0.536
(... pass ...)
G01 X1.126 Y0.476
G01 X1.126 Y0.275
G01 X0.275 Y0.275
G01 X0.275 Y0.476
G01 X1.126 Y0.476
(... pass ...)
G01 X1.066 Y0.416
G01 X1.066 Y0.335
G01 X0.335 Y0.335
G01 X0.335 Y0.416
G01 X1.066 Y0.416
G01 X1.006 Y0.356
G01 X0.395 Y0.356
(... end ...)
G00 Z0.5
G00 X0 Y0
M05 (Stop spindle)
M02 (Program End)

