(Generated By: Line Grinder Version: 01.04)
(Home Page: http://www.OfItselfSo.com/LineGrinder/LineGrinder.php)
(Generated from file: C:\Users\pc\Documents\blinds\ams-regulator3v3-F_Cu.gtl)
(Date Generated: Wednesday, 18 June 2014 22:48)

(The Line Grinder software is released under the MIT License. There)
(is no warranty or guarantee that the GCode files it produces)
(are without error. You use it, and run its output code entirely)
(at your own risk. In particular: )

(THE LINE GRINDER SOFTWARE, AND THE OUTPUT CODE IT GENERATES, ARE )
(PROVIDED "AS IS", WITHOUT WARRANTY OF ANY KIND, EXPRESS OR )
(IMPLIED, INCLUDING BUT NOT LIMITED TO THE WARRANTIES OF )
(MERCHANTABILITY, FITNESS FOR A PARTICULAR PURPOSE AND )
(NONINFRINGEMENT. IN NO EVENT SHALL THE AUTHORS OR COPYRIGHT )
(HOLDERS BE LIABLE FOR ANY CLAIM, DAMAGES OR OTHER LIABILITY, )
(WHETHER IN AN ACTION OF CONTRACT, TORT OR OTHERWISE, ARISING )
(FROM, OUT OF OR IN CONNECTION WITH THE SOFTWARE OR ITS OUTPUT)
(OR FROM THE USE OR OTHER DEALINGS IN THE SOFTWARE. )

G20 (Use Inches)
G90 (Set Absolute Coordinates)
G17 (XY plane selection)
G00 Z1
G00 X0 Y0
M03 (Start spindle)
G04 P1 (Pause to let the spindle start)
G00 X0.58 Y0.327
G01 Z-0.002 F4
G01 X0.695 Y0.327
G01 X0.785 Y0.327
G01 X0.876 Y0.327
G01 X0.876 Y0.288
G01 X0.885 Y0.297

G02 X0.904 Y0.313 I0.0599 J-0.0521
G01 X0.904 Y0.446
G01 X0.92 Y0.446
G01 X0.92 Y0.516
G01 X0.917 Y0.52
G01 X0.835 Y0.52
G01 X0.835 Y0.372
G01 X0.576 Y0.372

G02 X0.5791 Y0.35 I-0.0761 J-0.0221
G01 X0.579 Y0.35
G01 X0.58 Y0.35
G01 X0.58 Y0.327
G01 Z0.5000001
G00 X0.565 Y0.395
G01 Z-0.002
G01 X0.565 Y0.52
G01 X0.43 Y0.52
G01 X0.43 Y0.446
G01 X0.445 Y0.446
G01 X0.445 Y0.434
G01 X0.495 Y0.434

G02 X0.5537 Y0.4078 I-0.0001 J-0.0791
G01 X0.554 Y0.408

G02 X0.5652 Y0.3951 I-0.0541 J-0.0581
G01 X0.565 Y0.395
G01 Z0.5000001
G00 X0.203 Y0.429
G01 Z-0.002
G01 X0.203 Y0.44
G01 X-0.003 Y0.44
G01 X-0.003 Y0.335

G03 X0.026 Y0.1599 I0.0294 J-0.0851
G01 X0.026 Y0.16
G01 X0.173 Y0.16

G03 X0.2141 Y0.1698 I0.0004 J0.0899
G01 X0.214 Y0.17
G01 X0.254 Y0.17
G01 X0.254 Y0.153
G01 X0.27 Y0.153
G01 X0.27 Y0.15

G03 X0.2929 Y0.0939 I0.0799 J-0.0001
G01 X0.293 Y0.094
G01 Z0.5000001
G00 X1.303 Y0.335
G01 Z-0.002
G01 X1.303 Y0.44
G01 X1.097 Y0.44
G01 X1.097 Y0.429
G01 X1.095 Y0.429
G01 X1.095 Y0.446
G01 X1.08 Y0.446
G01 X1.08 Y0.55
G01 X1.079 Y0.55

G03 X1.0522 Y0.6092 I-0.0791 J-0.0001
G01 X1.052 Y0.609
G01 X1.009 Y0.652

G03 X0.95 Y0.6787 I-0.0591 J-0.0521
G01 X0.95 Y0.679
G01 X0.35 Y0.679

G03 X0.2708 Y0.6 I-0.0001 J-0.0791
G01 X0.27 Y0.6
G01 X0.27 Y0.446
G01 X0.254 Y0.446
G01 X0.254 Y0.429
G01 X0.203 Y0.429
G01 Z0.5000001
G00 X1.126 Y0.16
G01 Z-0.002
G01 X1.273 Y0.16

G03 X1.3633 Y0.25 I0.0004 J0.0899
G01 X1.363 Y0.25

G03 X1.3028 Y0.3345 I-0.0896 J-0.0001
G01 X1.303 Y0.335
G01 Z0.5000001
G00 X0.98 Y0.153
G01 Z-0.002
G01 X1.095 Y0.153
G01 X1.095 Y0.165

G03 X1.126 Y0.1594 I0.0314 J0.0849
G01 X1.126 Y0.16
G01 Z0.5000001
G00 X0.98 Y0.15
G01 Z-0.002
G01 X0.98 Y0.153
G01 Z0.5000001
G00 X0.979 Y0.15
G01 Z-0.002
G01 X0.98 Y0.15
G01 Z0.5000001
G00 X0.9 Y0.07
G01 Z-0.002
G01 X0.9 Y0.07

G03 X0.9798 Y0.15 I-0.0001 J0.0799
G01 X0.979 Y0.15
G01 Z0.5000001
G00 X0.8 Y0.07
G01 Z-0.002
G01 X0.9 Y0.07
G01 Z0.5000001
G00 X0.8 Y0.07
G01 Z-0.002
G01 X0.8 Y0.07

G02 X0.7509 Y0.0868 I-0.0001 J0.0799
G01 X0.751 Y0.087
G01 Z0.5000001
G00 X0.293 Y0.093
G01 Z-0.002
G01 X0.343 Y0.043
G01 Z0.5000001
G00 X0.4 Y0.02
G01 Z-0.002
G01 X0.4 Y0.02

G02 X0.3429 Y0.0439 I-0.0001 J0.0799
G01 X0.343 Y0.044
G01 Z0.5000001
G00 X0.4 Y0.02
G01 Z-0.002
G01 X0.65 Y0.02
G01 X0.65 Y0.02

G03 X0.7065 Y0.0435 I-0.0001 J0.0799
G01 X0.706 Y0.044
G01 Z0.5000001
G00 X0.706 Y0.043
G01 Z-0.002
G01 X0.75 Y0.087
(... pad touchdown start ...)
G00 Z1
G00 X0.609 Y0.232
G01 Z-0.01
G04 P0.25
G00 Z1
G00 X0.7 Y0.232
G01 Z-0.01
G04 P0.25
G00 Z1
G00 X0.791 Y0.232
G01 Z-0.01
G04 P0.25
G00 Z1
G00 X0.7 Y0.468
G01 Z-0.01
G04 P0.25
G00 Z1
G00 X0.1 Y0.35
G01 Z-0.01
G04 P0.25
G00 Z1
G00 X0.1 Y0.25
G01 Z-0.01
G04 P0.25
G00 Z1
G00 X1.2 Y0.35
G01 Z-0.01
G04 P0.25
G00 Z1
G00 X1.2 Y0.25
G01 Z-0.01
G04 P0.25
G00 Z1
G00 X0.35 Y0.355
G01 Z-0.01
G04 P0.25
G00 Z1
G00 X0.35 Y0.245
G01 Z-0.01
G04 P0.25
G00 Z1
G00 X1 Y0.355
G01 Z-0.01
G04 P0.25
G00 Z1
G00 X1 Y0.245
G01 Z-0.01
G04 P0.25
G00 Z1
(... pad touchdown end ...)
G00 Z1
G00 X0 Y0
M05 (Stop spindle)
M02 (Program End)

