( Made using CamBam - http://www.cambam.co.uk )
( ams-regulator3v3-F_Cu 6/19/2014 8:21:41 PM )
( T5 : 0.2 )
G21 G90 G64 G40
G0 Z5.0
( T5 : 0.2 )
T5 M6
( Engrave1 )
G17
M3 S1000
G0 X26.3017 Y6.85
G0 Z1.0
G1 F100.0 Z-0.2
G1 F300.0 Y7.0231
G1 X24.4983
G1 Y6.723
G1 X24.003
G3 X23.64945 Y6.57655 I0.0 J-0.5
G1 X22.50645 Y5.43355
G3 X22.36 Y5.08 I0.35355 J-0.35355
G1 Y4.31
G1 X20.58124
G1 Y4.98983
G1 X20.73148
G1 Y6.79069
G1 X19.431
G1 Y4.98983
G1 X19.58124
G1 Y4.04876
G3 X19.72769 Y3.69521 I0.5 J0.0
G1 X19.96645 Y3.45645
G3 X20.32 Y3.31 I0.35355 J0.35355
G1 X22.86
G3 X23.36 Y3.81 I0.0 J0.5
G1 Y4.87289
G1 X24.21011 Y5.723
G1 X24.4983
G1 Y5.4229
G1 X26.3017
G1 Y5.85
G1 X29.56716
G3 X30.14218 Y5.588 I0.57502 J0.5
G1 X30.81782
G3 X31.57982 Y6.35 I0.0 J0.762
G3 X30.81782 Y7.112 I-0.762 J0.0
G1 X30.14218
G3 X29.56716 Y6.85 I0.0 J-0.762
G1 X26.3017
G0 Z5.0
G0 Y8.2169
G0 Z1.0
G1 F100.0 Z-0.2
G1 F300.0 Y8.39
G1 X29.38018
G1 Y8.128
G1 X31.57982
G1 Y9.652
G1 X29.38018
G1 Y9.39
G1 X26.3017
G1 Y9.8171
G1 X25.9
G1 Y13.97
G3 X25.75355 Y14.32355 I-0.5 J0.0
G1 X24.48355 Y15.59355
G3 X24.13 Y15.74 I-0.35355 J-0.35355
G1 X8.89
G3 X8.39 Y15.24 I0.0 J-0.5
G1 Y9.8171
G1 X7.9883
G1 Y9.39
G1 X3.63982
G1 Y9.652
G1 X1.44018
G1 Y8.128
G1 X3.63982
G1 Y8.39
G1 X7.9883
G1 Y8.2169
G1 X9.7917
G1 Y8.517
G1 X12.2
G1 Y5.08
G3 X12.7 Y4.58 I0.5 J0.0
G1 X15.24
G3 X15.7318 Y4.98983 I0.0 J0.5
G1 X16.129
G1 Y6.79069
G1 X14.82852
G1 Y5.58
G1 X13.2
G1 Y8.89
G3 X12.9843 Y9.3013 I-0.5 J0.0
G3 X12.573 Y9.517 I-0.4113 J-0.2843
G1 X9.7917
G1 Y9.8171
G1 X9.39
G1 Y14.74
G1 X23.92289
G1 X24.9 Y13.76289
G1 Y9.8171
G1 X24.4983
G1 Y8.2169
G1 X26.3017
G0 Z5.0
G0 X19.67992 Y10.98931
G0 Z1.0
G1 F100.0 Z-0.2
G1 F300.0 Y12.79017
G1 X15.88008
G1 Y10.98931
G1 X19.67992
G0 Z5.0
G0 X18.43024 Y6.79069
G0 Z1.0
G1 F100.0 Z-0.2
G1 F300.0 X17.12976
G1 Y4.98983
G1 X17.28
G1 Y4.01711
G1 X16.30289 Y3.04
G1 X10.36711
G1 X9.39 Y4.01711
G1 Y5.4229
G1 X9.7917
G1 Y7.0231
G1 X7.9883
G1 Y6.85
G1 X3.45284
G3 X2.87782 Y7.112 I-0.57502 J-0.5
G1 X2.20218
G3 X1.44018 Y6.35 I0.0 J-0.762
G3 X2.20218 Y5.588 I0.762 J0.0
G1 X2.87782
G3 X3.45284 Y5.85 I0.0 J0.762
G1 X7.9883
G1 Y5.4229
G1 X8.39
G1 Y3.81
G3 X8.53645 Y3.45645 I0.5 J0.0
G1 X9.80645 Y2.18645
G3 X10.16 Y2.04 I0.35355 J0.35355
G1 X16.51
G3 X16.86355 Y2.18645 I0.0 J0.5
G1 X18.13355 Y3.45645
G3 X18.28 Y3.81 I-0.35355 J0.35355
G1 Y4.98983
G1 X18.43024
G1 Y6.79069
G0 Z5.0
M5
M30
