(Generated By: Line Grinder Version: 01.04)
(Home Page: http://www.OfItselfSo.com/LineGrinder/LineGrinder.php)
(Generated from file: C:\Users\pc\Documents\blinds\ams-regulator3v3-Edge_Cuts.gbr)
(Date Generated: Wednesday, 18 June 2014 19:42)

(The Line Grinder software is released under the MIT License. There)
(is no warranty or guarantee that the GCode files it produces)
(are without error. You use it, and run its output code entirely)
(at your own risk. In particular: )

(THE LINE GRINDER SOFTWARE, AND THE OUTPUT CODE IT GENERATES, ARE )
(PROVIDED "AS IS", WITHOUT WARRANTY OF ANY KIND, EXPRESS OR )
(IMPLIED, INCLUDING BUT NOT LIMITED TO THE WARRANTIES OF )
(MERCHANTABILITY, FITNESS FOR A PARTICULAR PURPOSE AND )
(NONINFRINGEMENT. IN NO EVENT SHALL THE AUTHORS OR COPYRIGHT )
(HOLDERS BE LIABLE FOR ANY CLAIM, DAMAGES OR OTHER LIABILITY, )
(WHETHER IN AN ACTION OF CONTRACT, TORT OR OTHERWISE, ARISING )
(FROM, OUT OF OR IN CONNECTION WITH THE SOFTWARE OR ITS OUTPUT)
(OR FROM THE USE OR OTHER DEALINGS IN THE SOFTWARE. )

G20 (Use Inches)
G90 (Set Absolute Coordinates)
G17 (XY plane selection)
G00 Z0.25
G00 X0 Y0
M03 (Start spindle)
G04 P1 (Pause to let the spindle start)
G00 X0 Y0.816
G01 Z-0.2 F10
G01 X0.575 Y0.816 F5
G01 Z0.1 F10
G00 X0.825 Y0.816
G01 Z-0.2
G01 X1.4 Y0.816 F5

G02 X1.466 Y0.75 I0.0001 J-0.0659
G01 X1.466 Y0.5
G01 Z0.1 F10
G00 X1.466 Y0.25
G01 Z-0.2
G01 X1.466 Y0 F5

G02 X1.4 Y-0.0658 I-0.0659 J0.0001
G01 X1.4 Y-0.065
G01 X0.825 Y-0.065
G01 Z0.1 F10
G00 X0.575 Y-0.065
G01 Z-0.2
G01 X0 Y-0.065 F5

G02 X-0.065 Y0 I0.0001 J0.0651
G01 X-0.065 Y0.25
G01 Z0.1 F10
G00 X-0.065 Y0.5
G01 Z-0.2
G01 X-0.065 Y0.75 F5

G02 X0 Y0.8152 I0.0651 J0.0001
G01 X0 Y0.816
G00 Z0.25
G00 X0 Y0
M05 (Stop spindle)
M02 (Program End)

