( Made using CamBam - http://www.cambam.co.uk )
( Untitled 6/18/2014 11:35:22 PM )
( T3 : 3.0 )
G21 G90 G64 G40
G0 Z3.0
( T3 : 3.0 )
T3 M6
( Pocket1 )
G17
M3 S1000
G0 X12.3 Y12.3
G0 Z1.0
G1 F100.0 Z-1.0
G1 F200.0 Y12.7
G1 X27.7
G1 Y12.3
G1 X12.3
G1 F100.0 X11.1
G1 F200.0 Y13.9
G1 X28.9
G1 Y11.1
G1 X11.1
G1 Y12.3
G1 F100.0 X9.9
G1 F200.0 Y15.1
G1 X30.1
G1 Y9.9
G1 X9.9
G1 Y12.3
G1 F100.0 X8.7
G1 F200.0 Y16.3
G1 X31.3
G1 Y8.7
G1 X8.7
G1 Y12.3
G1 F100.0 X7.5
G1 F200.0 Y17.5
G1 X32.5
G1 Y7.5
G1 X7.5
G1 Y12.3
G1 F100.0 X6.3
G1 F200.0 Y18.7
G1 X33.7
G1 Y6.3
G1 X6.3
G1 Y12.3
G1 F100.0 X5.1
G1 F200.0 Y19.9
G1 X34.9
G1 Y5.1
G1 X5.1
G1 Y12.3
G1 F100.0 X3.9
G1 F200.0 Y21.1
G1 X36.1
G1 Y3.9
G1 X3.9
G1 Y12.3
G1 F100.0 X2.7
G1 F200.0 Y22.3
G1 X37.3
G1 Y2.7
G1 X2.7
G1 Y12.3
G1 F100.0 X1.5
G1 F200.0 Y1.5
G1 X38.5
G1 Y23.5
G1 X1.5
G1 Y12.3
G0 Z3.0
G0 X12.3
G0 Z0.0
G1 F100.0 Z-2.0
G1 F200.0 Y12.7
G1 X27.7
G1 Y12.3
G1 X12.3
G1 F100.0 X11.1
G1 F200.0 Y13.9
G1 X28.9
G1 Y11.1
G1 X11.1
G1 Y12.3
G1 F100.0 X9.9
G1 F200.0 Y15.1
G1 X30.1
G1 Y9.9
G1 X9.9
G1 Y12.3
G1 F100.0 X8.7
G1 F200.0 Y16.3
G1 X31.3
G1 Y8.7
G1 X8.7
G1 Y12.3
G1 F100.0 X7.5
G1 F200.0 Y17.5
G1 X32.5
G1 Y7.5
G1 X7.5
G1 Y12.3
G1 F100.0 X6.3
G1 F200.0 Y18.7
G1 X33.7
G1 Y6.3
G1 X6.3
G1 Y12.3
G1 F100.0 X5.1
G1 F200.0 Y19.9
G1 X34.9
G1 Y5.1
G1 X5.1
G1 Y12.3
G1 F100.0 X3.9
G1 F200.0 Y21.1
G1 X36.1
G1 Y3.9
G1 X3.9
G1 Y12.3
G1 F100.0 X2.7
G1 F200.0 Y22.3
G1 X37.3
G1 Y2.7
G1 X2.7
G1 Y12.3
G1 F100.0 X1.5
G1 F200.0 Y1.5
G1 X38.5
G1 Y23.5
G1 X1.5
G1 Y12.3
G0 Z3.0
M5
M30
