( pcb2gcode 1.1.4 )
      
G94     ( Millimeters per minute feed rate. )
G21     ( Units == Millimeters. )

G90     ( Absolute coordinates.        )
S30000  ( RPM spindle speed.           )
F300.00000
M3      ( Spindle on clockwise.        )

G64 P0.01000 ( set maximum deviation from commanded toolpath )

G04 P0 ( dwell for no time -- G64 should not smooth over this point )
G00 Z5.00000 ( retract )

G00 X24.20620 Y15.74800 ( rapid move to begin. )
G01 Z-0.20000
G04 P0 ( dwell for no time -- G64 should not smooth over this point )
X24.20620 Y15.74800
X24.30780 Y15.74800
X24.30780 Y15.72260
X24.35860 Y15.72260
X24.35860 Y15.69720
X24.40940 Y15.69720
X24.40940 Y15.67180
X24.43480 Y15.67180
X24.43480 Y15.64640
X24.46020 Y15.64640
X24.46020 Y15.62100
X24.48560 Y15.62100
X24.48560 Y15.59560
X24.51100 Y15.59560
X24.51100 Y15.57020
X24.53640 Y15.57020
X24.53640 Y15.54480
X24.56180 Y15.54480
X24.56180 Y15.51940
X24.58720 Y15.51940
X24.58720 Y15.49400
X24.61260 Y15.49400
X24.61260 Y15.46860
X24.63800 Y15.46860
X24.63800 Y15.44320
X24.66340 Y15.44320
X24.66340 Y15.41780
X24.68880 Y15.41780
X24.68880 Y15.39240
X24.71420 Y15.39240
X24.71420 Y15.36700
X24.73960 Y15.36700
X24.73960 Y15.34160
X24.76500 Y15.34160
X24.76500 Y15.31620
X24.79040 Y15.31620
X24.79040 Y15.29080
X24.81580 Y15.29080
X24.81580 Y15.26540
X24.84120 Y15.26540
X24.84120 Y15.24000
X24.86660 Y15.24000
X24.86660 Y15.21460
X24.89200 Y15.21460
X24.89200 Y15.18920
X24.91740 Y15.18920
X24.91740 Y15.16380
X24.94280 Y15.16380
X24.94280 Y15.13840
X24.96820 Y15.13840
X24.96820 Y15.11300
X24.99360 Y15.11300
X24.99360 Y15.08760
X25.01900 Y15.08760
X25.01900 Y15.06220
X25.04440 Y15.06220
X25.04440 Y15.03680
X25.06980 Y15.03680
X25.06980 Y15.01140
X25.09520 Y15.01140
X25.09520 Y14.98600
X25.12060 Y14.98600
X25.12060 Y14.96060
X25.14600 Y14.96060
X25.14600 Y14.93520
X25.17140 Y14.93520
X25.17140 Y14.90980
X25.19680 Y14.90980
X25.19680 Y14.88440
X25.22220 Y14.88440
X25.22220 Y14.85900
X25.24760 Y14.85900
X25.24760 Y14.83360
X25.27300 Y14.83360
X25.27300 Y14.80820
X25.29840 Y14.80820
X25.29840 Y14.78280
X25.32380 Y14.78280
X25.32380 Y14.75740
X25.34920 Y14.75740
X25.34920 Y14.73200
X25.37460 Y14.73200
X25.37460 Y14.70660
X25.40000 Y14.70660
X25.40000 Y14.68120
X25.42540 Y14.68120
X25.42540 Y14.65580
X25.45080 Y14.65580
X25.45080 Y14.63040
X25.47620 Y14.63040
X25.47620 Y14.60500
X25.50160 Y14.60500
X25.50160 Y14.57960
X25.52700 Y14.57960
X25.52700 Y14.55420
X25.55240 Y14.55420
X25.55240 Y14.52880
X25.57780 Y14.52880
X25.57780 Y14.50340
X25.60320 Y14.50340
X25.60320 Y14.47800
X25.62860 Y14.47800
X25.62860 Y14.45260
X25.65400 Y14.45260
X25.65400 Y14.42720
X25.67940 Y14.42720
X25.67940 Y14.40180
X25.70480 Y14.40180
X25.70480 Y14.37640
X25.73020 Y14.37640
X25.73020 Y14.35100
X25.75560 Y14.35100
X25.75560 Y14.32560
X25.78100 Y14.32560
X25.78100 Y14.30020
X25.80640 Y14.30020
X25.80640 Y14.24940
X25.83180 Y14.24940
X25.83180 Y14.19860
X25.85720 Y14.19860
X25.85720 Y14.09700
X25.88260 Y14.09700
X25.88260 Y9.85520
X26.26360 Y9.85520
X26.26360 Y9.42340
X29.33700 Y9.42340
X29.33700 Y9.70280
X31.54680 Y9.70280
X31.54680 Y8.15340
X29.33700 Y8.15340
X29.33700 Y8.40740
X26.26360 Y8.40740
X26.26360 Y8.25500
X24.46020 Y8.25500
X24.46020 Y9.85520
X24.86660 Y9.85520
X24.86660 Y13.79220
X24.84120 Y13.79220
X24.84120 Y13.81760
X24.81580 Y13.81760
X24.81580 Y13.84300
X24.79040 Y13.84300
X24.79040 Y13.86840
X24.76500 Y13.86840
X24.76500 Y13.89380
X24.73960 Y13.89380
X24.73960 Y13.91920
X24.71420 Y13.91920
X24.71420 Y13.94460
X24.68880 Y13.94460
X24.68880 Y13.97000
X24.66340 Y13.97000
X24.66340 Y13.99540
X24.63800 Y13.99540
X24.63800 Y14.02080
X24.61260 Y14.02080
X24.61260 Y14.04620
X24.58720 Y14.04620
X24.58720 Y14.07160
X24.56180 Y14.07160
X24.56180 Y14.09700
X24.53640 Y14.09700
X24.53640 Y14.12240
X24.51100 Y14.12240
X24.51100 Y14.14780
X24.48560 Y14.14780
X24.48560 Y14.17320
X24.46020 Y14.17320
X24.46020 Y14.19860
X24.43480 Y14.19860
X24.43480 Y14.22400
X24.40940 Y14.22400
X24.40940 Y14.24940
X24.38400 Y14.24940
X24.38400 Y14.27480
X24.35860 Y14.27480
X24.35860 Y14.30020
X24.33320 Y14.30020
X24.33320 Y14.32560
X24.30780 Y14.32560
X24.30780 Y14.35100
X24.28240 Y14.35100
X24.28240 Y14.37640
X24.25700 Y14.37640
X24.25700 Y14.40180
X24.23160 Y14.40180
X24.23160 Y14.42720
X24.20620 Y14.42720
X24.20620 Y14.45260
X24.18080 Y14.45260
X24.18080 Y14.47800
X24.15540 Y14.47800
X24.15540 Y14.50340
X24.13000 Y14.50340
X24.13000 Y14.52880
X24.10460 Y14.52880
X24.10460 Y14.55420
X24.07920 Y14.55420
X24.07920 Y14.57960
X24.05380 Y14.57960
X24.05380 Y14.60500
X24.02840 Y14.60500
X24.02840 Y14.63040
X24.00300 Y14.63040
X24.00300 Y14.65580
X23.97760 Y14.65580
X23.97760 Y14.68120
X23.95220 Y14.68120
X23.95220 Y14.70660
X23.92680 Y14.70660
X23.92680 Y14.73200
X23.90140 Y14.73200
X23.90140 Y14.75740
X9.37260 Y14.75740
X9.37260 Y9.85520
X9.75360 Y9.85520
X9.75360 Y9.55040
X12.64920 Y9.55040
X12.64920 Y9.52500
X12.75080 Y9.52500
X12.75080 Y9.49960
X12.80160 Y9.49960
X12.80160 Y9.47420
X12.85240 Y9.47420
X12.85240 Y9.44880
X12.87780 Y9.44880
X12.87780 Y9.42340
X12.90320 Y9.42340
X12.90320 Y9.39800
X12.92860 Y9.39800
X12.92860 Y9.37260
X12.95400 Y9.37260
X12.95400 Y9.34720
X12.97940 Y9.34720
X12.97940 Y9.32180
X13.00480 Y9.32180
X13.00480 Y9.29640
X13.03020 Y9.29640
X13.03020 Y9.27100
X13.05560 Y9.27100
X13.05560 Y9.24560
X13.08100 Y9.24560
X13.08100 Y9.22020
X13.10640 Y9.22020
X13.10640 Y9.16940
X13.13180 Y9.16940
X13.13180 Y9.11860
X13.15720 Y9.11860
X13.15720 Y9.01700
X13.18260 Y9.01700
X13.18260 Y5.61340
X14.80820 Y5.61340
X14.80820 Y6.83260
X16.10360 Y6.83260
X16.10360 Y5.02920
X15.72260 Y5.02920
X15.72260 Y5.00380
X15.69720 Y5.00380
X15.69720 Y4.90220
X15.67180 Y4.90220
X15.67180 Y4.85140
X15.64640 Y4.85140
X15.64640 Y4.80060
X15.62100 Y4.80060
X15.62100 Y4.77520
X15.59560 Y4.77520
X15.59560 Y4.74980
X15.57020 Y4.74980
X15.57020 Y4.72440
X15.54480 Y4.72440
X15.54480 Y4.69900
X15.51940 Y4.69900
X15.51940 Y4.67360
X15.46860 Y4.67360
X15.46860 Y4.64820
X15.41780 Y4.64820
X15.41780 Y4.62280
X15.31620 Y4.62280
X15.31620 Y4.59740
X12.57300 Y4.59740
X12.57300 Y4.62280
X12.47140 Y4.62280
X12.47140 Y4.64820
X12.42060 Y4.64820
X12.42060 Y4.67360
X12.36980 Y4.67360
X12.36980 Y4.69900
X12.34440 Y4.69900
X12.34440 Y4.72440
X12.31900 Y4.72440
X12.31900 Y4.74980
X12.29360 Y4.74980
X12.29360 Y4.77520
X12.26820 Y4.77520
X12.26820 Y4.80060
X12.24280 Y4.80060
X12.24280 Y4.85140
X12.21740 Y4.85140
X12.21740 Y4.90220
X12.19200 Y4.90220
X12.19200 Y5.00380
X12.16660 Y5.00380
X12.16660 Y8.53440
X9.75360 Y8.53440
X9.75360 Y8.25500
X7.95020 Y8.25500
X7.95020 Y8.40740
X3.60680 Y8.40740
X3.60680 Y8.15340
X1.39700 Y8.15340
X1.39700 Y9.70280
X3.60680 Y9.70280
X3.60680 Y9.42340
X7.95020 Y9.42340
X7.95020 Y9.85520
X8.35660 Y9.85520
X8.35660 Y15.36700
X8.38200 Y15.36700
X8.38200 Y15.46860
X8.40740 Y15.46860
X8.40740 Y15.51940
X8.43280 Y15.51940
X8.43280 Y15.57020
X8.45820 Y15.57020
X8.45820 Y15.59560
X8.48360 Y15.59560
X8.48360 Y15.62100
X8.50900 Y15.62100
X8.50900 Y15.64640
X8.53440 Y15.64640
X8.53440 Y15.67180
X8.55980 Y15.67180
X8.55980 Y15.69720
X8.61060 Y15.69720
X8.61060 Y15.72260
X8.66140 Y15.72260
X8.66140 Y15.74800
X8.76300 Y15.74800
X8.76300 Y15.77340
X24.20620 Y15.77340
X24.20620 Y15.74800
G04 P0 ( dwell for no time -- G64 should not smooth over this point )
G00 Z5.00000 ( retract )

G00 X19.65960 Y12.80160 ( rapid move to begin. )
G01 Z-0.20000
G04 P0 ( dwell for no time -- G64 should not smooth over this point )
X19.65960 Y12.80160
X19.65960 Y11.02360
X15.82420 Y11.02360
X15.82420 Y12.82700
X19.65960 Y12.82700
X19.65960 Y12.80160
G04 P0 ( dwell for no time -- G64 should not smooth over this point )
G00 Z5.00000 ( retract )

G00 X2.92100 Y7.13740 ( rapid move to begin. )
G01 Z-0.20000
G04 P0 ( dwell for no time -- G64 should not smooth over this point )
X2.92100 Y7.13740
X3.04800 Y7.13740
X3.04800 Y7.11200
X3.17500 Y7.11200
X3.17500 Y7.08660
X3.22580 Y7.08660
X3.22580 Y7.06120
X3.25120 Y7.06120
X3.25120 Y7.03580
X3.27660 Y7.03580
X3.27660 Y7.01040
X3.32740 Y7.01040
X3.32740 Y6.98500
X3.35280 Y6.98500
X3.35280 Y6.95960
X3.40360 Y6.95960
X3.40360 Y6.93420
X3.42900 Y6.93420
X3.42900 Y6.88340
X7.95020 Y6.88340
X7.95020 Y7.06120
X9.75360 Y7.06120
X9.75360 Y5.46100
X9.37260 Y5.46100
X9.37260 Y4.03860
X9.39800 Y4.03860
X9.39800 Y4.01320
X9.42340 Y4.01320
X9.42340 Y3.98780
X9.44880 Y3.98780
X9.44880 Y3.96240
X9.47420 Y3.96240
X9.47420 Y3.93700
X9.49960 Y3.93700
X9.49960 Y3.91160
X9.52500 Y3.91160
X9.52500 Y3.88620
X9.55040 Y3.88620
X9.55040 Y3.86080
X9.57580 Y3.86080
X9.57580 Y3.83540
X9.60120 Y3.83540
X9.60120 Y3.81000
X9.62660 Y3.81000
X9.62660 Y3.78460
X9.65200 Y3.78460
X9.65200 Y3.75920
X9.67740 Y3.75920
X9.67740 Y3.73380
X9.70280 Y3.73380
X9.70280 Y3.70840
X9.72820 Y3.70840
X9.72820 Y3.68300
X9.75360 Y3.68300
X9.75360 Y3.65760
X9.77900 Y3.65760
X9.77900 Y3.63220
X9.80440 Y3.63220
X9.80440 Y3.60680
X9.82980 Y3.60680
X9.82980 Y3.58140
X9.85520 Y3.58140
X9.85520 Y3.55600
X9.88060 Y3.55600
X9.88060 Y3.53060
X9.90600 Y3.53060
X9.90600 Y3.50520
X9.93140 Y3.50520
X9.93140 Y3.47980
X9.95680 Y3.47980
X9.95680 Y3.45440
X9.98220 Y3.45440
X9.98220 Y3.42900
X10.00760 Y3.42900
X10.00760 Y3.40360
X10.03300 Y3.40360
X10.03300 Y3.37820
X10.05840 Y3.37820
X10.05840 Y3.35280
X10.08380 Y3.35280
X10.08380 Y3.32740
X10.10920 Y3.32740
X10.10920 Y3.30200
X10.13460 Y3.30200
X10.13460 Y3.27660
X10.16000 Y3.27660
X10.16000 Y3.25120
X10.18540 Y3.25120
X10.18540 Y3.22580
X10.21080 Y3.22580
X10.21080 Y3.20040
X10.23620 Y3.20040
X10.23620 Y3.17500
X10.26160 Y3.17500
X10.26160 Y3.14960
X10.28700 Y3.14960
X10.28700 Y3.12420
X10.31240 Y3.12420
X10.31240 Y3.09880
X10.33780 Y3.09880
X10.33780 Y3.07340
X16.28140 Y3.07340
X16.28140 Y3.09880
X16.30680 Y3.09880
X16.30680 Y3.12420
X16.33220 Y3.12420
X16.33220 Y3.14960
X16.35760 Y3.14960
X16.35760 Y3.17500
X16.38300 Y3.17500
X16.38300 Y3.20040
X16.40840 Y3.20040
X16.40840 Y3.22580
X16.43380 Y3.22580
X16.43380 Y3.25120
X16.45920 Y3.25120
X16.45920 Y3.27660
X16.48460 Y3.27660
X16.48460 Y3.30200
X16.51000 Y3.30200
X16.51000 Y3.32740
X16.53540 Y3.32740
X16.53540 Y3.35280
X16.56080 Y3.35280
X16.56080 Y3.37820
X16.58620 Y3.37820
X16.58620 Y3.40360
X16.61160 Y3.40360
X16.61160 Y3.42900
X16.63700 Y3.42900
X16.63700 Y3.45440
X16.66240 Y3.45440
X16.66240 Y3.47980
X16.68780 Y3.47980
X16.68780 Y3.50520
X16.71320 Y3.50520
X16.71320 Y3.53060
X16.73860 Y3.53060
X16.73860 Y3.55600
X16.76400 Y3.55600
X16.76400 Y3.58140
X16.78940 Y3.58140
X16.78940 Y3.60680
X16.81480 Y3.60680
X16.81480 Y3.63220
X16.84020 Y3.63220
X16.84020 Y3.65760
X16.86560 Y3.65760
X16.86560 Y3.68300
X16.89100 Y3.68300
X16.89100 Y3.70840
X16.91640 Y3.70840
X16.91640 Y3.73380
X16.94180 Y3.73380
X16.94180 Y3.75920
X16.96720 Y3.75920
X16.96720 Y3.78460
X16.99260 Y3.78460
X16.99260 Y3.81000
X17.01800 Y3.81000
X17.01800 Y3.83540
X17.04340 Y3.83540
X17.04340 Y3.86080
X17.06880 Y3.86080
X17.06880 Y3.88620
X17.09420 Y3.88620
X17.09420 Y3.91160
X17.11960 Y3.91160
X17.11960 Y3.93700
X17.14500 Y3.93700
X17.14500 Y3.96240
X17.17040 Y3.96240
X17.17040 Y3.98780
X17.19580 Y3.98780
X17.19580 Y4.01320
X17.22120 Y4.01320
X17.22120 Y4.03860
X17.24660 Y4.03860
X17.24660 Y5.02920
X17.09420 Y5.02920
X17.09420 Y6.83260
X18.38960 Y6.83260
X18.38960 Y5.02920
X18.26260 Y5.02920
X18.26260 Y3.73380
X18.23720 Y3.73380
X18.23720 Y3.63220
X18.21180 Y3.63220
X18.21180 Y3.58140
X18.18640 Y3.58140
X18.18640 Y3.53060
X18.16100 Y3.53060
X18.16100 Y3.50520
X18.13560 Y3.50520
X18.13560 Y3.47980
X18.11020 Y3.47980
X18.11020 Y3.45440
X18.08480 Y3.45440
X18.08480 Y3.42900
X18.05940 Y3.42900
X18.05940 Y3.40360
X18.03400 Y3.40360
X18.03400 Y3.37820
X18.00860 Y3.37820
X18.00860 Y3.35280
X17.98320 Y3.35280
X17.98320 Y3.32740
X17.95780 Y3.32740
X17.95780 Y3.30200
X17.93240 Y3.30200
X17.93240 Y3.27660
X17.90700 Y3.27660
X17.90700 Y3.25120
X17.88160 Y3.25120
X17.88160 Y3.22580
X17.85620 Y3.22580
X17.85620 Y3.20040
X17.83080 Y3.20040
X17.83080 Y3.17500
X17.80540 Y3.17500
X17.80540 Y3.14960
X17.78000 Y3.14960
X17.78000 Y3.12420
X17.75460 Y3.12420
X17.75460 Y3.09880
X17.72920 Y3.09880
X17.72920 Y3.07340
X17.70380 Y3.07340
X17.70380 Y3.04800
X17.67840 Y3.04800
X17.67840 Y3.02260
X17.65300 Y3.02260
X17.65300 Y2.99720
X17.62760 Y2.99720
X17.62760 Y2.97180
X17.60220 Y2.97180
X17.60220 Y2.94640
X17.57680 Y2.94640
X17.57680 Y2.92100
X17.55140 Y2.92100
X17.55140 Y2.89560
X17.52600 Y2.89560
X17.52600 Y2.87020
X17.50060 Y2.87020
X17.50060 Y2.84480
X17.47520 Y2.84480
X17.47520 Y2.81940
X17.44980 Y2.81940
X17.44980 Y2.79400
X17.42440 Y2.79400
X17.42440 Y2.76860
X17.39900 Y2.76860
X17.39900 Y2.74320
X17.37360 Y2.74320
X17.37360 Y2.71780
X17.34820 Y2.71780
X17.34820 Y2.69240
X17.32280 Y2.69240
X17.32280 Y2.66700
X17.29740 Y2.66700
X17.29740 Y2.64160
X17.27200 Y2.64160
X17.27200 Y2.61620
X17.24660 Y2.61620
X17.24660 Y2.59080
X17.22120 Y2.59080
X17.22120 Y2.56540
X17.19580 Y2.56540
X17.19580 Y2.54000
X17.17040 Y2.54000
X17.17040 Y2.51460
X17.14500 Y2.51460
X17.14500 Y2.48920
X17.11960 Y2.48920
X17.11960 Y2.46380
X17.09420 Y2.46380
X17.09420 Y2.43840
X17.06880 Y2.43840
X17.06880 Y2.41300
X17.04340 Y2.41300
X17.04340 Y2.38760
X17.01800 Y2.38760
X17.01800 Y2.36220
X16.99260 Y2.36220
X16.99260 Y2.33680
X16.96720 Y2.33680
X16.96720 Y2.31140
X16.94180 Y2.31140
X16.94180 Y2.28600
X16.91640 Y2.28600
X16.91640 Y2.26060
X16.89100 Y2.26060
X16.89100 Y2.23520
X16.86560 Y2.23520
X16.86560 Y2.20980
X16.84020 Y2.20980
X16.84020 Y2.18440
X16.81480 Y2.18440
X16.81480 Y2.15900
X16.78940 Y2.15900
X16.78940 Y2.13360
X16.73860 Y2.13360
X16.73860 Y2.10820
X16.68780 Y2.10820
X16.68780 Y2.08280
X16.58620 Y2.08280
X16.58620 Y2.05740
X10.03300 Y2.05740
X10.03300 Y2.08280
X9.93140 Y2.08280
X9.93140 Y2.10820
X9.88060 Y2.10820
X9.88060 Y2.13360
X9.82980 Y2.13360
X9.82980 Y2.15900
X9.80440 Y2.15900
X9.80440 Y2.18440
X9.77900 Y2.18440
X9.77900 Y2.20980
X9.75360 Y2.20980
X9.75360 Y2.23520
X9.72820 Y2.23520
X9.72820 Y2.26060
X9.70280 Y2.26060
X9.70280 Y2.28600
X9.67740 Y2.28600
X9.67740 Y2.31140
X9.65200 Y2.31140
X9.65200 Y2.33680
X9.62660 Y2.33680
X9.62660 Y2.36220
X9.60120 Y2.36220
X9.60120 Y2.38760
X9.57580 Y2.38760
X9.57580 Y2.41300
X9.55040 Y2.41300
X9.55040 Y2.43840
X9.52500 Y2.43840
X9.52500 Y2.46380
X9.49960 Y2.46380
X9.49960 Y2.48920
X9.47420 Y2.48920
X9.47420 Y2.51460
X9.44880 Y2.51460
X9.44880 Y2.54000
X9.42340 Y2.54000
X9.42340 Y2.56540
X9.39800 Y2.56540
X9.39800 Y2.59080
X9.37260 Y2.59080
X9.37260 Y2.61620
X9.34720 Y2.61620
X9.34720 Y2.64160
X9.32180 Y2.64160
X9.32180 Y2.66700
X9.29640 Y2.66700
X9.29640 Y2.69240
X9.27100 Y2.69240
X9.27100 Y2.71780
X9.24560 Y2.71780
X9.24560 Y2.74320
X9.22020 Y2.74320
X9.22020 Y2.76860
X9.19480 Y2.76860
X9.19480 Y2.79400
X9.16940 Y2.79400
X9.16940 Y2.81940
X9.14400 Y2.81940
X9.14400 Y2.84480
X9.11860 Y2.84480
X9.11860 Y2.87020
X9.09320 Y2.87020
X9.09320 Y2.89560
X9.06780 Y2.89560
X9.06780 Y2.92100
X9.04240 Y2.92100
X9.04240 Y2.94640
X9.01700 Y2.94640
X9.01700 Y2.97180
X8.99160 Y2.97180
X8.99160 Y2.99720
X8.96620 Y2.99720
X8.96620 Y3.02260
X8.94080 Y3.02260
X8.94080 Y3.04800
X8.91540 Y3.04800
X8.91540 Y3.07340
X8.89000 Y3.07340
X8.89000 Y3.09880
X8.86460 Y3.09880
X8.86460 Y3.12420
X8.83920 Y3.12420
X8.83920 Y3.14960
X8.81380 Y3.14960
X8.81380 Y3.17500
X8.78840 Y3.17500
X8.78840 Y3.20040
X8.76300 Y3.20040
X8.76300 Y3.22580
X8.73760 Y3.22580
X8.73760 Y3.25120
X8.71220 Y3.25120
X8.71220 Y3.27660
X8.68680 Y3.27660
X8.68680 Y3.30200
X8.66140 Y3.30200
X8.66140 Y3.32740
X8.63600 Y3.32740
X8.63600 Y3.35280
X8.61060 Y3.35280
X8.61060 Y3.37820
X8.58520 Y3.37820
X8.58520 Y3.40360
X8.55980 Y3.40360
X8.55980 Y3.42900
X8.53440 Y3.42900
X8.53440 Y3.45440
X8.50900 Y3.45440
X8.50900 Y3.47980
X8.48360 Y3.47980
X8.48360 Y3.50520
X8.45820 Y3.50520
X8.45820 Y3.53060
X8.43280 Y3.53060
X8.43280 Y3.58140
X8.40740 Y3.58140
X8.40740 Y3.63220
X8.38200 Y3.63220
X8.38200 Y3.73380
X8.35660 Y3.73380
X8.35660 Y5.46100
X7.95020 Y5.46100
X7.95020 Y5.86740
X3.42900 Y5.86740
X3.42900 Y5.84200
X3.40360 Y5.84200
X3.40360 Y5.81660
X3.35280 Y5.81660
X3.35280 Y5.79120
X3.32740 Y5.79120
X3.32740 Y5.76580
X3.27660 Y5.76580
X3.27660 Y5.74040
X3.25120 Y5.74040
X3.25120 Y5.71500
X3.22580 Y5.71500
X3.22580 Y5.68960
X3.17500 Y5.68960
X3.17500 Y5.66420
X3.04800 Y5.66420
X3.04800 Y5.63880
X2.92100 Y5.63880
X2.92100 Y5.61340
X2.08280 Y5.61340
X2.08280 Y5.63880
X1.95580 Y5.63880
X1.95580 Y5.66420
X1.82880 Y5.66420
X1.82880 Y5.68960
X1.77800 Y5.68960
X1.77800 Y5.71500
X1.75260 Y5.71500
X1.75260 Y5.74040
X1.72720 Y5.74040
X1.72720 Y5.76580
X1.67640 Y5.76580
X1.67640 Y5.79120
X1.65100 Y5.79120
X1.65100 Y5.81660
X1.60020 Y5.81660
X1.60020 Y5.84200
X1.57480 Y5.84200
X1.57480 Y5.89280
X1.54940 Y5.89280
X1.54940 Y5.91820
X1.52400 Y5.91820
X1.52400 Y5.96900
X1.49860 Y5.96900
X1.49860 Y6.01980
X1.47320 Y6.01980
X1.47320 Y6.04520
X1.44780 Y6.04520
X1.44780 Y6.09600
X1.42240 Y6.09600
X1.42240 Y6.24840
X1.39700 Y6.24840
X1.39700 Y6.52780
X1.42240 Y6.52780
X1.42240 Y6.68020
X1.44780 Y6.68020
X1.44780 Y6.73100
X1.47320 Y6.73100
X1.47320 Y6.75640
X1.49860 Y6.75640
X1.49860 Y6.80720
X1.52400 Y6.80720
X1.52400 Y6.85800
X1.54940 Y6.85800
X1.54940 Y6.88340
X1.57480 Y6.88340
X1.57480 Y6.93420
X1.60020 Y6.93420
X1.60020 Y6.95960
X1.65100 Y6.95960
X1.65100 Y6.98500
X1.67640 Y6.98500
X1.67640 Y7.01040
X1.72720 Y7.01040
X1.72720 Y7.03580
X1.75260 Y7.03580
X1.75260 Y7.06120
X1.77800 Y7.06120
X1.77800 Y7.08660
X1.82880 Y7.08660
X1.82880 Y7.11200
X1.95580 Y7.11200
X1.95580 Y7.13740
X2.08280 Y7.13740
X2.08280 Y7.16280
X2.92100 Y7.16280
X2.92100 Y7.13740
G04 P0 ( dwell for no time -- G64 should not smooth over this point )
G00 Z5.00000 ( retract )

G00 X30.86100 Y7.13740 ( rapid move to begin. )
G01 Z-0.20000
G04 P0 ( dwell for no time -- G64 should not smooth over this point )
X30.86100 Y7.13740
X30.98800 Y7.13740
X30.98800 Y7.11200
X31.11500 Y7.11200
X31.11500 Y7.08660
X31.16580 Y7.08660
X31.16580 Y7.06120
X31.19120 Y7.06120
X31.19120 Y7.03580
X31.21660 Y7.03580
X31.21660 Y7.01040
X31.26740 Y7.01040
X31.26740 Y6.98500
X31.29280 Y6.98500
X31.29280 Y6.95960
X31.34360 Y6.95960
X31.34360 Y6.93420
X31.36900 Y6.93420
X31.36900 Y6.88340
X31.39440 Y6.88340
X31.39440 Y6.85800
X31.41980 Y6.85800
X31.41980 Y6.80720
X31.44520 Y6.80720
X31.44520 Y6.75640
X31.47060 Y6.75640
X31.47060 Y6.73100
X31.49600 Y6.73100
X31.49600 Y6.68020
X31.52140 Y6.68020
X31.52140 Y6.52780
X31.54680 Y6.52780
X31.54680 Y6.24840
X31.52140 Y6.24840
X31.52140 Y6.09600
X31.49600 Y6.09600
X31.49600 Y6.04520
X31.47060 Y6.04520
X31.47060 Y6.01980
X31.44520 Y6.01980
X31.44520 Y5.96900
X31.41980 Y5.96900
X31.41980 Y5.91820
X31.39440 Y5.91820
X31.39440 Y5.89280
X31.36900 Y5.89280
X31.36900 Y5.84200
X31.34360 Y5.84200
X31.34360 Y5.81660
X31.29280 Y5.81660
X31.29280 Y5.79120
X31.26740 Y5.79120
X31.26740 Y5.76580
X31.21660 Y5.76580
X31.21660 Y5.74040
X31.19120 Y5.74040
X31.19120 Y5.71500
X31.16580 Y5.71500
X31.16580 Y5.68960
X31.11500 Y5.68960
X31.11500 Y5.66420
X30.98800 Y5.66420
X30.98800 Y5.63880
X30.86100 Y5.63880
X30.86100 Y5.61340
X30.02280 Y5.61340
X30.02280 Y5.63880
X29.89580 Y5.63880
X29.89580 Y5.66420
X29.76880 Y5.66420
X29.76880 Y5.68960
X29.71800 Y5.68960
X29.71800 Y5.71500
X29.69260 Y5.71500
X29.69260 Y5.74040
X29.66720 Y5.74040
X29.66720 Y5.76580
X29.61640 Y5.76580
X29.61640 Y5.79120
X29.59100 Y5.79120
X29.59100 Y5.81660
X29.54020 Y5.81660
X29.54020 Y5.84200
X29.51480 Y5.84200
X29.51480 Y5.86740
X26.26360 Y5.86740
X26.26360 Y5.46100
X24.46020 Y5.46100
X24.46020 Y5.74040
X24.18080 Y5.74040
X24.18080 Y5.71500
X24.15540 Y5.71500
X24.15540 Y5.68960
X24.13000 Y5.68960
X24.13000 Y5.66420
X24.10460 Y5.66420
X24.10460 Y5.63880
X24.07920 Y5.63880
X24.07920 Y5.61340
X24.05380 Y5.61340
X24.05380 Y5.58800
X24.02840 Y5.58800
X24.02840 Y5.56260
X24.00300 Y5.56260
X24.00300 Y5.53720
X23.97760 Y5.53720
X23.97760 Y5.51180
X23.95220 Y5.51180
X23.95220 Y5.48640
X23.92680 Y5.48640
X23.92680 Y5.46100
X23.90140 Y5.46100
X23.90140 Y5.43560
X23.87600 Y5.43560
X23.87600 Y5.41020
X23.85060 Y5.41020
X23.85060 Y5.38480
X23.82520 Y5.38480
X23.82520 Y5.35940
X23.79980 Y5.35940
X23.79980 Y5.33400
X23.77440 Y5.33400
X23.77440 Y5.30860
X23.74900 Y5.30860
X23.74900 Y5.28320
X23.72360 Y5.28320
X23.72360 Y5.25780
X23.69820 Y5.25780
X23.69820 Y5.23240
X23.67280 Y5.23240
X23.67280 Y5.20700
X23.64740 Y5.20700
X23.64740 Y5.18160
X23.62200 Y5.18160
X23.62200 Y5.15620
X23.59660 Y5.15620
X23.59660 Y5.13080
X23.57120 Y5.13080
X23.57120 Y5.10540
X23.54580 Y5.10540
X23.54580 Y5.08000
X23.52040 Y5.08000
X23.52040 Y5.05460
X23.49500 Y5.05460
X23.49500 Y5.02920
X23.46960 Y5.02920
X23.46960 Y5.00380
X23.44420 Y5.00380
X23.44420 Y4.97840
X23.41880 Y4.97840
X23.41880 Y4.95300
X23.39340 Y4.95300
X23.39340 Y4.92760
X23.36800 Y4.92760
X23.36800 Y4.90220
X23.34260 Y4.90220
X23.34260 Y3.73380
X23.31720 Y3.73380
X23.31720 Y3.63220
X23.29180 Y3.63220
X23.29180 Y3.58140
X23.26640 Y3.58140
X23.26640 Y3.53060
X23.24100 Y3.53060
X23.24100 Y3.50520
X23.21560 Y3.50520
X23.21560 Y3.47980
X23.19020 Y3.47980
X23.19020 Y3.45440
X23.16480 Y3.45440
X23.16480 Y3.42900
X23.13940 Y3.42900
X23.13940 Y3.40360
X23.08860 Y3.40360
X23.08860 Y3.37820
X23.03780 Y3.37820
X23.03780 Y3.35280
X22.93620 Y3.35280
X22.93620 Y3.32740
X20.19300 Y3.32740
X20.19300 Y3.35280
X20.09140 Y3.35280
X20.09140 Y3.37820
X20.04060 Y3.37820
X20.04060 Y3.40360
X19.98980 Y3.40360
X19.98980 Y3.42900
X19.96440 Y3.42900
X19.96440 Y3.45440
X19.93900 Y3.45440
X19.93900 Y3.47980
X19.91360 Y3.47980
X19.91360 Y3.50520
X19.88820 Y3.50520
X19.88820 Y3.53060
X19.86280 Y3.53060
X19.86280 Y3.55600
X19.83740 Y3.55600
X19.83740 Y3.58140
X19.81200 Y3.58140
X19.81200 Y3.60680
X19.78660 Y3.60680
X19.78660 Y3.63220
X19.76120 Y3.63220
X19.76120 Y3.65760
X19.73580 Y3.65760
X19.73580 Y3.68300
X19.71040 Y3.68300
X19.71040 Y3.70840
X19.68500 Y3.70840
X19.68500 Y3.73380
X19.65960 Y3.73380
X19.65960 Y3.75920
X19.63420 Y3.75920
X19.63420 Y3.81000
X19.60880 Y3.81000
X19.60880 Y3.86080
X19.58340 Y3.86080
X19.58340 Y3.96240
X19.55800 Y3.96240
X19.55800 Y5.02920
X19.40560 Y5.02920
X19.40560 Y6.83260
X20.70100 Y6.83260
X20.70100 Y5.02920
X20.57400 Y5.02920
X20.57400 Y4.34340
X22.32660 Y4.34340
X22.32660 Y5.20700
X22.35200 Y5.20700
X22.35200 Y5.30860
X22.37740 Y5.30860
X22.37740 Y5.35940
X22.40280 Y5.35940
X22.40280 Y5.41020
X22.42820 Y5.41020
X22.42820 Y5.43560
X22.45360 Y5.43560
X22.45360 Y5.46100
X22.47900 Y5.46100
X22.47900 Y5.48640
X22.50440 Y5.48640
X22.50440 Y5.51180
X22.52980 Y5.51180
X22.52980 Y5.53720
X22.55520 Y5.53720
X22.55520 Y5.56260
X22.58060 Y5.56260
X22.58060 Y5.58800
X22.60600 Y5.58800
X22.60600 Y5.61340
X22.63140 Y5.61340
X22.63140 Y5.63880
X22.65680 Y5.63880
X22.65680 Y5.66420
X22.68220 Y5.66420
X22.68220 Y5.68960
X22.70760 Y5.68960
X22.70760 Y5.71500
X22.73300 Y5.71500
X22.73300 Y5.74040
X22.75840 Y5.74040
X22.75840 Y5.76580
X22.78380 Y5.76580
X22.78380 Y5.79120
X22.80920 Y5.79120
X22.80920 Y5.81660
X22.83460 Y5.81660
X22.83460 Y5.84200
X22.86000 Y5.84200
X22.86000 Y5.86740
X22.88540 Y5.86740
X22.88540 Y5.89280
X22.91080 Y5.89280
X22.91080 Y5.91820
X22.93620 Y5.91820
X22.93620 Y5.94360
X22.96160 Y5.94360
X22.96160 Y5.96900
X22.98700 Y5.96900
X22.98700 Y5.99440
X23.01240 Y5.99440
X23.01240 Y6.01980
X23.03780 Y6.01980
X23.03780 Y6.04520
X23.06320 Y6.04520
X23.06320 Y6.07060
X23.08860 Y6.07060
X23.08860 Y6.09600
X23.11400 Y6.09600
X23.11400 Y6.12140
X23.13940 Y6.12140
X23.13940 Y6.14680
X23.16480 Y6.14680
X23.16480 Y6.17220
X23.19020 Y6.17220
X23.19020 Y6.19760
X23.21560 Y6.19760
X23.21560 Y6.22300
X23.24100 Y6.22300
X23.24100 Y6.24840
X23.26640 Y6.24840
X23.26640 Y6.27380
X23.29180 Y6.27380
X23.29180 Y6.29920
X23.31720 Y6.29920
X23.31720 Y6.32460
X23.34260 Y6.32460
X23.34260 Y6.35000
X23.36800 Y6.35000
X23.36800 Y6.37540
X23.39340 Y6.37540
X23.39340 Y6.40080
X23.41880 Y6.40080
X23.41880 Y6.42620
X23.44420 Y6.42620
X23.44420 Y6.45160
X23.46960 Y6.45160
X23.46960 Y6.47700
X23.49500 Y6.47700
X23.49500 Y6.50240
X23.52040 Y6.50240
X23.52040 Y6.52780
X23.54580 Y6.52780
X23.54580 Y6.55320
X23.57120 Y6.55320
X23.57120 Y6.57860
X23.59660 Y6.57860
X23.59660 Y6.60400
X23.62200 Y6.60400
X23.62200 Y6.62940
X23.64740 Y6.62940
X23.64740 Y6.65480
X23.67280 Y6.65480
X23.67280 Y6.68020
X23.72360 Y6.68020
X23.72360 Y6.70560
X23.77440 Y6.70560
X23.77440 Y6.73100
X23.87600 Y6.73100
X23.87600 Y6.75640
X24.46020 Y6.75640
X24.46020 Y7.06120
X26.26360 Y7.06120
X26.26360 Y6.88340
X29.51480 Y6.88340
X29.51480 Y6.93420
X29.54020 Y6.93420
X29.54020 Y6.95960
X29.59100 Y6.95960
X29.59100 Y6.98500
X29.61640 Y6.98500
X29.61640 Y7.01040
X29.66720 Y7.01040
X29.66720 Y7.03580
X29.69260 Y7.03580
X29.69260 Y7.06120
X29.71800 Y7.06120
X29.71800 Y7.08660
X29.76880 Y7.08660
X29.76880 Y7.11200
X29.89580 Y7.11200
X29.89580 Y7.13740
X30.02280 Y7.13740
X30.02280 Y7.16280
X30.86100 Y7.16280
X30.86100 Y7.13740

G04 P0 ( dwell for no time -- G64 should not smooth over this point )
G00 Z5.00000 ( retract )

M9 ( Coolant off. )
M2 ( Program end. )
