( Made using CamBam - http://www.cambam.co.uk )
( combined-pcb-F_Cu 6/23/2014 12:13:23 AM )
( T5 : 0.2 )
G21 G90 G64 G40
G0 Z3.0
( T5 : 0.2 )
T5 M6
( Engrave1 )
G17
M3 S1000
G0 X24.81897 Y20.27584
G0 Z1.0
G1 F100.0 Z-0.2
G3 F300.0 X24.67118 Y20.29818 I-0.14778 J-0.47766
G1 X22.42963
G1 Y20.39762
G1 X20.73037
G1 Y19.19874
G1 X22.42963
G1 Y19.29819
G1 X24.5956
G1 X26.01014 Y18.86054
G1 Y16.68923
G3 X26.09412 Y16.41188 I0.5 J0.0
G1 X28.63412 Y12.60187
G3 X29.05014 Y12.37923 I0.41602 J0.27735
G1 X32.36014
G1 Y7.02922
G1 X28.5759
G3 X27.31024 Y7.34312 I-0.79575 J-0.5
G3 Y5.71533 I0.4699 J-0.81389
G3 X28.5759 Y6.02923 I0.4699 J0.81389
G1 X32.86014
G3 X33.36014 Y6.52922 I0.0 J0.5
G1 Y12.87922
G3 X32.86014 Y13.37922 I-0.5 J0.0
G1 X29.31773
G1 X27.01014 Y16.84061
G1 Y19.22922
G3 X26.65793 Y19.70688 I-0.5 J0.0
G1 X24.81897 Y20.27584
G0 Z3.0
G0 X23.88757 Y18.728
G0 Z1.0
G1 F100.0 Z-0.2
G3 F300.0 X23.62978 Y18.79958 I-0.25779 J-0.42842
G1 X22.42963
G1 Y18.89902
G1 X20.73037
G1 Y17.70014
G1 X22.42963
G1 Y17.79959
G1 X23.42267
G1 X23.47014 Y17.75212
G1 Y15.41923
G3 X23.61659 Y15.06567 I0.5 J0.0
G1 X24.74014 Y13.94212
G1 Y12.87923
G3 X24.88659 Y12.52567 I0.5 J0.0
G1 X27.28014 Y10.13212
G1 Y9.86498
G3 X27.31024 Y8.25533 I0.5 J-0.79575
G3 X28.71994 Y9.06922 I0.4699 J0.81389
G3 X28.28014 Y9.86498 I-0.9398 J0.0
G1 Y10.33922
G3 X28.13369 Y10.69278 I-0.5 J0.0
G1 X25.74014 Y13.08633
G1 Y14.14922
G3 X25.59369 Y14.50278 I-0.5 J0.0
G1 X24.47014 Y15.62633
G1 Y17.95922
G3 X24.32369 Y18.31278 I-0.5 J0.0
G1 X23.98333 Y18.65314
G3 X23.88757 Y18.728 I-0.35355 J-0.35355
G0 Z3.0
G0 X22.42963 Y17.39788
G0 Z1.0
G1 F100.0 Z-0.2
G1 F300.0 X20.73037
G1 Y16.199
G1 X22.42963
G1 Y17.39788
G0 Z3.0
G0 Y15.89928
G0 Z1.0
G1 F100.0 Z-0.2
G1 F300.0 X20.73037
G1 Y14.7004
G1 X22.42963
G1 Y15.89928
G0 Z3.0
G0 Y14.39814
G0 Z1.0
G1 F100.0 Z-0.2
G1 F300.0 X20.73037
G1 Y13.19926
G1 X22.42963
G1 Y14.39814
G0 Z3.0
G0 Y12.89954
G0 Z1.0
G1 F100.0 Z-0.2
G1 F300.0 X20.73037
G1 Y11.70066
G1 X22.42963
G1 Y12.89954
G0 Z3.0
G0 Y11.3984
G0 Z1.0
G1 F100.0 Z-0.2
G1 F300.0 X20.73037
G1 Y10.19952
G1 X22.42963
G1 Y11.3984
G0 Z3.0
G0 Y9.8998
G0 Z1.0
G1 F100.0 Z-0.2
G1 F300.0 X20.73037
G1 Y8.70092
G1 X22.42963
G1 Y9.8998
G0 Z3.0
G0 Y8.39866
G0 Z1.0
G1 F100.0 Z-0.2
G1 F300.0 X20.73037
G1 Y7.19978
G1 X22.42963
G1 Y8.39866
G0 Z3.0
G0 Y6.89752
G0 Z1.0
G1 F100.0 Z-0.2
G1 F300.0 X20.73037
G1 Y5.69864
G1 X22.42963
G1 Y6.89752
G0 Z3.0
G0 Y5.39892
G0 Z1.0
G1 F100.0 Z-0.2
G1 F300.0 X20.73037
G1 Y4.20004
G1 X22.42963
G1 Y5.39892
G0 Z3.0
G0 Y3.89778
G0 Z1.0
G1 F100.0 Z-0.2
G1 F300.0 X20.73037
G1 Y2.6989
G1 X22.42963
G1 Y3.04835
G1 X28.45573
G1 X28.65488 Y3.02389
G3 X28.82789 Y2.84228 I0.39527 J0.20334
G3 X29.49464 Y3.22722 I0.22225 J0.38495
G3 X28.82789 Y3.61217 I-0.4445 J0.0
G3 X28.71582 Y3.52016 I0.22225 J-0.38495
G1 X28.50149 Y3.54648
G3 X28.47102 Y3.54834 I-0.03047 J-0.24814
G1 X22.42963
G1 Y3.89778
G0 Z3.0
G0 Y2.39918
G0 Z1.0
G1 F100.0 Z-0.2
G1 F300.0 X20.73037
G1 Y1.2003
G1 X22.42963
G1 Y1.54975
G1 X35.24266
G3 X35.41944 Y1.62297 I0.0 J0.25
G1 X35.57103 Y1.77456
G3 X36.09864 Y2.21122 I0.08311 J0.43666
G3 X35.43189 Y2.59617 I-0.4445 J0.0
G3 X35.21748 Y2.12812 I0.22225 J-0.38495
G1 X35.13911 Y2.04974
G1 X22.42963
G1 Y2.39918
G0 Z3.0
G0 X9.42991
G0 Z1.0
G1 F100.0 Z-0.2
G1 F300.0 X7.73065
G1 Y1.2003
G1 X9.42991
G1 Y2.39918
G0 Z3.0
G0 Y2.6989
G0 Z1.0
G1 F100.0 Z-0.2
G1 F300.0 Y3.89778
G1 X7.73065
G1 Y2.6989
G1 X9.42991
G0 Z3.0
G0 Y4.20004
G0 Z1.0
G1 F100.0 Z-0.2
G1 F300.0 Y5.39892
G1 X7.73065
G1 Y4.20004
G1 X9.42991
G0 Z3.0
G0 Y5.69864
G0 Z1.0
G1 F100.0 Z-0.2
G1 F300.0 Y6.89752
G1 X7.73065
G1 Y5.69864
G1 X9.42991
G0 Z3.0
G0 Y7.19978
G0 Z1.0
G1 F100.0 Z-0.2
G1 F300.0 Y8.39866
G1 X7.73065
G1 Y7.19978
G1 X9.42991
G0 Z3.0
G0 Y8.70092
G0 Z1.0
G1 F100.0 Z-0.2
G1 F300.0 Y9.8998
G1 X7.73065
G1 Y8.70092
G1 X9.42991
G0 Z3.0
G0 Y10.19952
G0 Z1.0
G1 F100.0 Z-0.2
G1 F300.0 Y11.3984
G1 X7.73065
G1 Y10.19952
G1 X9.42991
G0 Z3.0
G0 Y11.70066
G0 Z1.0
G1 F100.0 Z-0.2
G1 F300.0 Y12.89954
G1 X7.73065
G1 Y11.70066
G1 X9.42991
G0 Z3.0
G0 Y13.19926
G0 Z1.0
G1 F100.0 Z-0.2
G1 F300.0 Y14.39814
G1 X7.73065
G1 Y13.19926
G1 X9.42991
G0 Z3.0
G0 Y14.7004
G0 Z1.0
G1 F100.0 Z-0.2
G1 F300.0 Y15.89928
G1 X7.73065
G1 Y14.7004
G1 X9.42991
G0 Z3.0
G0 Y16.19646
G0 Z1.0
G1 F100.0 Z-0.2
G1 F300.0 Y17.39534
G1 X7.73065
G1 Y16.19646
G1 X9.42991
G0 Z3.0
G0 Y17.70014
G0 Z1.0
G1 F100.0 Z-0.2
G1 F300.0 Y18.89902
G1 X7.73065
G1 Y17.70014
G1 X9.42991
G0 Z3.0
G0 Y19.19874
G0 Z1.0
G1 F100.0 Z-0.2
G1 F300.0 Y20.39762
G1 X7.73065
G1 Y19.19874
G1 X9.42991
G0 Z3.0
G0 Y20.69861
G0 Z1.0
G1 F100.0 Z-0.2
G1 F300.0 X10.43448
G1 Y22.29627
G1 X9.2356
G1 Y20.69861
G1 X9.42991
G0 Z3.0
G0 X10.7342
G0 Z1.0
G1 F100.0 Z-0.2
G1 F300.0 Y20.59955
G1 X11.93308
G1 Y22.29881
G1 X10.7342
G1 Y20.69861
G0 Z3.0
G0 X12.2328
G0 Z1.0
G1 F100.0 Z-0.2
G1 F300.0 Y20.59955
G1 X13.43168
G1 Y22.29881
G1 X12.2328
G1 Y20.69861
G0 Z3.0
G0 X13.7314
G0 Z1.0
G1 F100.0 Z-0.2
G1 F300.0 Y20.59955
G1 X14.93028
G1 Y22.29881
G1 X13.7314
G1 Y20.69861
G0 Z3.0
G0 X15.23
G0 Z1.0
G1 F100.0 Z-0.2
G1 F300.0 Y20.59955
G1 X16.42888
G1 Y22.29881
G1 X15.23
G1 Y20.69861
G0 Z3.0
G0 X16.7286
G0 Z1.0
G1 F100.0 Z-0.2
G1 F300.0 Y20.59955
G1 X17.92748
G1 Y22.29881
G1 X16.7286
G1 Y20.69861
G0 Z3.0
G0 X18.2272
G0 Z1.0
G1 F100.0 Z-0.2
G1 F300.0 Y20.59955
G1 X19.42608
G1 Y22.29881
G1 X18.2272
G1 Y20.69861
G0 Z3.0
G0 X19.73088
G0 Z1.0
G1 F100.0 Z-0.2
G1 F300.0 Y20.69607
G1 X20.92976
G1 Y22.29373
G1 X19.73088
G1 Y20.69861
G0 Z3.0
G0 X20.11247 Y27.2951
G0 Z1.0
G1 F100.0 Z-0.2
G3 F300.0 X20.98564 Y28.11922 I0.04767 J0.82412
G3 X19.74739 Y28.83413 I-0.8255 J0.0
G3 X19.50329 Y28.61922 I0.41275 J-0.7149
G1 X3.65014
G3 X3.15014 Y28.11922 I0.0 J-0.5
G1 Y24.96607
G3 X3.23739 Y23.59432 I0.5 J-0.65685
G3 X4.47564 Y24.30922 I0.41275 J0.7149
G3 X4.15014 Y24.96607 I-0.8255 J0.0
G1 Y27.61923
G1 X19.50329
G3 X19.74739 Y27.40432 I0.65685 J0.5
G3 X20.11247 Y27.2951 I0.41275 J0.7149
G0 Z3.0
G0 X20.15047 Y30.98947
G0 Z1.0
G1 F100.0 Z-0.2
G3 F300.0 X20.9559 Y31.42923 I0.00967 J0.93975
G1 X22.70014
G3 X23.05369 Y31.57567 I0.0 J0.5
G1 X23.93849 Y32.46047
G1 X27.08037
G1 Y31.80984
G1 X28.47991
G1 Y34.11108
G1 X27.08037
G1 Y33.46046
G1 X23.73138
G3 X23.37783 Y33.31402 I0.0 J-0.5
G1 X22.49303 Y32.42922
G1 X20.9559
G3 X19.69024 Y32.74312 I-0.79575 J-0.5
G3 Y31.11533 I0.4699 J-0.81389
G3 X20.15047 Y30.98947 I0.4699 J0.81389
G0 Z3.0
G0 X20.15753 Y33.52943
G0 Z1.0
G1 F100.0 Z-0.2
G3 F300.0 X21.09994 Y34.46922 I0.00261 J0.9398
G3 X19.69024 Y35.28312 I-0.9398 J0.0
G3 Y33.65533 I0.4699 J-0.81389
G3 X20.15753 Y33.52943 I0.4699 J0.81389
G0 Z3.0
G0 X20.15944 Y36.06943
G0 Z1.0
G1 F100.0 Z-0.2
G3 F300.0 X20.9559 Y36.50923 I0.00071 J0.9398
G1 X25.24014
G3 X25.74014 Y37.00922 I0.0 J0.5
G1 Y41.17736
G1 X25.93991
G1 Y43.4786
G1 X24.54037
G1 Y41.17736
G1 X24.74014
G1 Y37.50922
G1 X20.9559
G3 X19.69024 Y37.82312 I-0.79575 J-0.5
G3 Y36.19533 I0.4699 J-0.81389
G3 X20.15944 Y36.06943 I0.4699 J0.81389
G0 Z3.0
G0 X20.15995 Y38.60942
G0 Z1.0
G1 F100.0 Z-0.2
G3 F300.0 X21.09994 Y39.54922 I0.00019 J0.9398
G3 X19.69024 Y40.36312 I-0.9398 J0.0
G3 Y38.73533 I0.4699 J-0.81389
G3 X20.15995 Y38.60942 I0.4699 J0.81389
G0 Z3.0
G0 X20.16009 Y41.14942
G0 Z1.0
G1 F100.0 Z-0.2
G3 F300.0 X21.09994 Y42.08922 I0.00005 J0.9398
G3 X19.69024 Y42.90312 I-0.9398 J0.0
G3 Y41.27533 I0.4699 J-0.81389
G3 X20.16009 Y41.14942 I0.4699 J0.81389
G0 Z3.0
G0 X20.16013 Y43.68942
G0 Z1.0
G1 F100.0 Z-0.2
G3 F300.0 X21.09994 Y44.62922 I0.00001 J0.9398
G3 X19.69024 Y45.44312 I-0.9398 J0.0
G3 Y43.81533 I0.4699 J-0.81389
G3 X20.16013 Y43.68942 I0.4699 J0.81389
G0 Z3.0
G0 X20.16014 Y46.22942
G0 Z1.0
G1 F100.0 Z-0.2
G3 F300.0 X21.09994 Y47.16922 I0.0 J0.9398
G3 X19.69024 Y47.98312 I-0.9398 J0.0
G3 Y46.35533 I0.4699 J-0.81389
G3 X20.16014 Y46.22942 I0.4699 J0.81389
G0 Z3.0
G0 Y48.76942
G0 Z1.0
G1 F100.0 Z-0.2
G3 F300.0 X21.09994 Y49.70922 I0.0 J0.9398
G3 X19.69024 Y50.52312 I-0.9398 J0.0
G3 Y48.89533 I0.4699 J-0.81389
G3 X20.16014 Y48.76942 I0.4699 J0.81389
G0 Z3.0
G0 Y51.30942
G0 Z1.0
G1 F100.0 Z-0.2
G3 F300.0 X21.09994 Y52.24922 I0.0 J0.9398
G3 X19.69024 Y53.06312 I-0.9398 J0.0
G3 Y51.43533 I0.4699 J-0.81389
G3 X20.16014 Y51.30942 I0.4699 J0.81389
G0 Z3.0
G0 Y53.84942
G0 Z1.0
G1 F100.0 Z-0.2
G3 F300.0 X21.09994 Y54.78922 I0.0 J0.9398
G3 X19.69024 Y55.60312 I-0.9398 J0.0
G3 Y53.97533 I0.4699 J-0.81389
G3 X20.16014 Y53.84942 I0.4699 J0.81389
G0 Z3.0
G0 Y56.38942
G0 Z1.0
G1 F100.0 Z-0.2
G3 F300.0 X20.9559 Y56.82923 I0.0 J0.9398
G1 X32.36014
G1 Y56.26633
G1 X31.58154 Y55.48772
G1 X30.89164
G1 Y54.09072
G1 X32.28864
G1 Y54.78062
G1 X33.21369 Y55.70567
G3 X33.36014 Y56.05922 I-0.35355 J0.35355
G1 Y57.32922
G3 X32.86014 Y57.82922 I-0.5 J0.0
G1 X20.9559
G3 X19.69024 Y58.14312 I-0.79575 J-0.5
G3 Y56.51533 I0.4699 J-0.81389
G3 X20.16014 Y56.38942 I0.4699 J0.81389
G0 Z3.0
G0 Y58.92942
G0 Z1.0
G1 F100.0 Z-0.2
G3 F300.0 X21.09994 Y59.86922 I0.0 J0.9398
G3 X19.69024 Y60.68312 I-0.9398 J0.0
G3 Y59.05533 I0.4699 J-0.81389
G3 X20.16014 Y58.92942 I0.4699 J0.81389
G0 Z3.0
G0 X24.85256 Y55.1051
G0 Z1.0
G1 F100.0 Z-0.2
G3 F300.0 X24.74014 Y54.78922 I0.38758 J-0.31588
G1 Y48.08108
G1 X24.54037
G1 Y45.77984
G1 X25.93991
G1 Y48.08108
G1 X25.74014
G1 Y54.28923
G1 X28.56239
G3 X28.70089 Y54.18431 I0.48775 J0.5
G3 X29.74864 Y54.78922 I0.34925 J0.60492
G3 X28.70089 Y55.39414 I-0.6985 J0.0
G3 X28.56239 Y55.28922 I0.34925 J-0.60492
G1 X25.24014
G3 X24.85256 Y55.1051 I0.0 J-0.5
G0 Z3.0
G0 X28.47263 Y52.64214
G0 Z1.0
G1 F100.0 Z-0.2
G3 F300.0 X28.70089 Y51.64431 I0.57751 J-0.39292
G3 X29.04148 Y51.55078 I0.34925 J0.60492
G1 X31.23659 Y49.35567
G1 X32.36014 Y48.23212
G1 Y43.35923
G3 X32.41293 Y43.13562 I0.5 J0.0
G1 X33.63014 Y40.70119
G1 Y23.57804
G3 X32.39024 Y23.85312 I-0.77 J-0.53882
G3 Y22.22533 I0.4699 J-0.81389
G3 X32.44416 Y22.1965 I0.4699 J0.81389
G3 X32.41293 Y21.69548 I0.41598 J-0.27742
G1 X33.22971 Y20.06191
G1 Y18.58025
G1 X35.03057
G1 Y20.17791
G1 X34.28974
G1 X33.47941 Y21.79858
G1 X34.46088 Y22.66424
G3 X34.63014 Y23.03922 I-0.33074 J0.37498
G1 Y40.81922
G3 X34.57735 Y41.04283 I-0.5 J0.0
G1 X33.36014 Y43.47726
G1 Y48.43922
G3 X33.21369 Y48.79278 I-0.5 J0.0
G1 X31.94369 Y50.06278
G1 X29.74859 Y52.25788
G3 X28.70089 Y52.85414 I-0.69845 J-0.00866
G3 X28.47263 Y52.64214 I0.34925 J-0.60492
G0 Z3.0
G0 X29.00873 Y40.48811
G0 Z1.0
G1 F100.0 Z-0.2
G3 F300.0 X28.58024 Y40.36312 I0.04141 J-0.93889
G3 X28.55014 Y38.75347 I0.4699 J-0.81389
G1 Y37.00922
G3 X28.69659 Y36.65567 I0.5 J0.0
G1 X29.82014 Y35.53212
G1 Y23.83498
G3 Y22.24347 I0.5 J-0.79575
G1 Y17.95922
G3 X29.96659 Y17.60567 I0.5 J0.0
G1 X31.38645 Y16.18581
G3 X31.74 Y16.03937 I0.35355 J0.35355
G1 X33.22971
G1 Y15.74053
G1 X35.03057
G1 Y17.33819
G1 X33.22971
G1 Y17.03936
G1 X31.94711
G1 X30.82014 Y18.16633
G1 Y22.24347
G3 X31.25994 Y23.03922 I-0.5 J0.79575
G3 X30.82014 Y23.83498 I-0.9398 J0.0
G1 Y35.73922
G3 X30.67369 Y36.09278 I-0.5 J0.0
G1 X29.55014 Y37.21633
G1 Y38.75347
G3 X29.98994 Y39.54922 I-0.5 J0.79575
G3 X29.00873 Y40.48811 I-0.9398 J0.0
G0 Z3.0
G0 X30.70694 Y39.87045
G0 Z1.0
G1 F100.0 Z-0.2
G3 F300.0 X31.12024 Y38.73533 I0.8832 J-0.32123
G3 X32.52994 Y39.54922 I0.4699 J0.81389
G3 X31.12024 Y40.36312 I-0.9398 J0.0
G3 X30.70694 Y39.87045 I0.4699 J-0.81389
G0 Z3.0
G0 X28.47991 Y29.5086
G0 Z1.0
G1 F100.0 Z-0.2
G1 F300.0 X27.08037
G1 Y27.20736
G1 X27.28014
G1 Y23.83498
G3 X27.31024 Y22.22533 I0.5 J-0.79575
G3 X28.71994 Y23.03922 I0.4699 J0.81389
G3 X28.28014 Y23.83498 I-0.9398 J0.0
G1 Y27.20736
G1 X28.47991
G1 Y29.5086
G0 Z3.0
G0 X5.85502 Y31.83317
G0 Z1.0
G1 F100.0 Z-0.2
G3 F300.0 X5.85994 Y31.92922 I-0.93488 J0.09605
G3 X4.45024 Y32.74312 I-0.9398 J0.0
G3 Y31.11533 I0.4699 J-0.81389
G3 X5.85502 Y31.83317 I0.4699 J0.81389
G0 Z3.0
G0 X5.23427 Y33.58348
G0 Z1.0
G1 F100.0 Z-0.2
G3 F300.0 X5.85994 Y34.46922 I-0.31413 J0.88575
G3 X4.45024 Y35.28312 I-0.9398 J0.0
G3 Y33.65533 I0.4699 J-0.81389
G3 X5.23427 Y33.58348 I0.4699 J0.81389
G0 Z3.0
G0 X5.00596 Y36.07335
G0 Z1.0
G1 F100.0 Z-0.2
G3 F300.0 X5.85994 Y37.00922 I-0.08582 J0.93587
G3 X4.45024 Y37.82312 I-0.9398 J0.0
G3 Y36.19533 I0.4699 J-0.81389
G3 X5.00596 Y36.07335 I0.4699 J0.81389
G0 Z3.0
G0 X4.94334 Y38.60971
G0 Z1.0
G1 F100.0 Z-0.2
G3 F300.0 X5.85994 Y39.54922 I-0.0232 J0.93951
G3 X4.45024 Y40.36312 I-0.9398 J0.0
G3 Y38.73533 I0.4699 J-0.81389
G3 X4.94334 Y38.60971 I0.4699 J0.81389
G0 Z3.0
G0 X4.92641 Y41.14945
G0 Z1.0
G1 F100.0 Z-0.2
G3 F300.0 X5.85994 Y42.08922 I-0.00626 J0.93978
G3 X4.45024 Y42.90312 I-0.9398 J0.0
G3 Y41.27533 I0.4699 J-0.81389
G3 X4.92641 Y41.14945 I0.4699 J0.81389
G0 Z3.0
G0 X4.92183 Y43.68943
G0 Z1.0
G1 F100.0 Z-0.2
G3 F300.0 X5.85994 Y44.62922 I-0.00169 J0.9398
G3 X4.45024 Y45.44312 I-0.9398 J0.0
G3 Y43.81533 I0.4699 J-0.81389
G3 X4.92183 Y43.68943 I0.4699 J0.81389
G0 Z3.0
G0 X4.9206 Y46.22943
G0 Z1.0
G1 F100.0 Z-0.2
G3 F300.0 X5.85994 Y47.16922 I-0.00046 J0.9398
G3 X4.45024 Y47.98312 I-0.9398 J0.0
G3 Y46.35533 I0.4699 J-0.81389
G3 X4.9206 Y46.22943 I0.4699 J0.81389
G0 Z3.0
G0 X4.92026 Y48.76942
G0 Z1.0
G1 F100.0 Z-0.2
G3 F300.0 X5.85994 Y49.70922 I-0.00012 J0.9398
G3 X4.45024 Y50.52312 I-0.9398 J0.0
G3 Y48.89533 I0.4699 J-0.81389
G3 X4.92026 Y48.76942 I0.4699 J0.81389
G0 Z3.0
G0 X4.92017 Y51.30942
G0 Z1.0
G1 F100.0 Z-0.2
G3 F300.0 X5.85994 Y52.24922 I-0.00003 J0.9398
G3 X4.45024 Y53.06312 I-0.9398 J0.0
G3 Y51.43533 I0.4699 J-0.81389
G3 X4.92017 Y51.30942 I0.4699 J0.81389
G0 Z3.0
G0 X4.92015 Y53.84942
G0 Z1.0
G1 F100.0 Z-0.2
G3 F300.0 X5.85994 Y54.78922 I-0.00001 J0.9398
G3 X4.45024 Y55.60312 I-0.9398 J0.0
G3 Y53.97533 I0.4699 J-0.81389
G3 X4.92015 Y53.84942 I0.4699 J0.81389
G0 Z3.0
G0 X4.92014 Y56.38942
G0 Z1.0
G1 F100.0 Z-0.2
G3 F300.0 X5.85994 Y57.32922 I0.0 J0.9398
G3 X4.45024 Y58.14312 I-0.9398 J0.0
G3 Y56.51533 I0.4699 J-0.81389
G3 X4.92014 Y56.38942 I0.4699 J0.81389
G0 Z3.0
G0 X3.44423 Y58.30811
G0 Z1.0
G1 F100.0 Z-0.2
G1 F300.0 X4.4307 Y59.06693
G3 X4.45024 Y59.05533 I0.48944 J0.80229
G3 X5.85994 Y59.86922 I0.4699 J0.81389
G3 X4.45024 Y60.68312 I-0.9398 J0.0
G3 X4.08738 Y59.43365 I0.4699 J-0.81389
G1 X1.82385 Y57.69248
G3 X1.72629 Y57.49604 I0.15243 J-0.19816
G1 X1.36815 Y5.26094
G3 X1.46571 Y5.06107 I0.24999 J-0.00171
G1 X4.4764 Y2.74516
G3 X4.69789 Y2.33428 I0.44374 J-0.02593
G3 X5.36464 Y2.71922 I0.22225 J0.38495
G3 X4.78125 Y3.14147 I-0.4445 J0.0
G1 X1.86899 Y5.38167
G1 X2.22544 Y57.37058
G1 X3.44423 Y58.30811
G0 Z3.0
M5
M30
