( Made using CamBam - http://www.cambam.co.uk )
( combined-pcb-Edge_Cuts 6/23/2014 12:00:29 AM )
( T2 : 2.0 )
G21 G90 G64 G40
G0 Z3.0
( T2 : 2.0 )
T2 M6
( Profile1 )
G17
M3 S1000
G0 X37.73 Y0.0
G0 Z1.0
G1 F100.0 Z-1.0
G1 F300.0 Y65.94
G3 X36.73 Y66.94 I-1.0 J0.0
G1 X0.0
G3 X-1.0 Y65.94 I0.0 J-1.0
G1 Y0.0
G3 X0.0 Y-1.0 I1.0 J0.0
G1 X36.73
G3 X37.73 Y0.0 I0.0 J1.0
G1 F100.0 Z-2.0
G1 F300.0 Y65.94
G3 X36.73 Y66.94 I-1.0 J0.0
G1 X0.0
G3 X-1.0 Y65.94 I0.0 J-1.0
G1 Y0.0
G3 X0.0 Y-1.0 I1.0 J0.0
G1 X36.73
G3 X37.73 Y0.0 I0.0 J1.0
G0 Z3.0
M5
M30
