( Made using CamBam - http://www.cambam.co.uk )
( combined-pcb-B_Cu 6/23/2014 12:11:56 AM )
( T5 : 0.0 )
G21 G90 G64 G40
G0 Z3.0
( T5 : 0.0 )
T5 M6
( Engrave1 )
G17
M3 S1000
G0 X30.7336 Y16.26641
G0 Z1.0
G1 F100.0 Z-0.2
G3 F300.0 X30.88004 Y16.61996 I-0.35355 J0.35355
G1 Y22.17421
G3 X31.31985 Y22.96996 I-0.5 J0.79575
G3 X29.91015 Y23.78385 I-0.9398 J0.0
G3 X29.88005 Y22.17421 I0.4699 J-0.81389
G1 Y16.82707
G1 X28.90294 Y15.84996
G1 X22.96715
G1 X20.72004 Y18.09707
G1 Y25.50996
G3 X20.22005 Y26.00996 I-0.5 J0.0
G1 X15.39405
G1 Y26.01796
G1 X14.37805
G1 Y23.98596
G1 X15.39405
G1 Y24.80286
G1 X15.60115 Y25.00996
G1 X19.72005
G1 Y17.88996
G3 X19.86649 Y17.53641 I0.5 J0.0
G1 X22.40649 Y14.99641
G3 X22.76005 Y14.84996 I0.35355 J0.35355
G1 X29.11005
G3 X29.4636 Y14.99641 I0.0 J0.5
G1 X30.7336 Y16.26641
G0 Z3.0
G0 X35.46405
G0 Z1.0
G1 F100.0 Z-0.2
G1 F300.0 Y2.50949
G3 X35.4918 Y1.75701 I0.25 J-0.36753
G3 X36.15855 Y2.14196 I0.22225 J0.38495
G3 X35.96404 Y2.50949 I-0.4445 J0.0
G1 Y62.08596
G3 X35.89082 Y62.26274 I-0.25 J0.0
G1 X34.87482 Y63.27874
G3 X34.69805 Y63.35196 I-0.17678 J-0.17678
G1 X18.95005
G3 X18.77327 Y63.27874 I0.0 J-0.25
G1 X17.24927 Y61.75474
G1 X13.00449 Y57.50996
G1 X5.88598
G3 X4.51015 Y58.07385 I-0.90594 J-0.25
G3 Y56.44607 I0.4699 J-0.81389
G3 X5.88598 Y57.00996 I0.4699 J0.81389
G1 X13.10805
G3 X13.28482 Y57.08319 I0.0 J0.25
G1 X17.60282 Y61.40119
G1 X19.0536 Y62.85196
G1 X34.59449
G1 X35.46405 Y61.98241
G1 Y16.26641
G0 Z3.0
G0 X33.2535 Y22.09131
G0 Z1.0
G1 F100.0 Z-0.2
G3 F300.0 X33.85985 Y22.96996 I-0.33345 J0.87866
G3 X32.45015 Y23.78385 I-0.9398 J0.0
G3 Y22.15607 I0.4699 J-0.81389
G3 X33.2535 Y22.09131 I0.4699 J0.81389
G0 Z3.0
G0 X28.76771 Y22.81939
G0 Z1.0
G1 F100.0 Z-0.2
G3 F300.0 X28.77985 Y22.96996 I-0.92766 J0.15057
G3 X27.37015 Y23.78385 I-0.9398 J0.0
G3 Y22.15607 I0.4699 J-0.81389
G3 X28.76771 Y22.81939 I0.4699 J0.81389
G0 Z3.0
G0 Y27.54996
G0 Z1.0
G1 F100.0 Z-0.2
G1 F300.0 X31.65005
G3 X32.15004 Y28.04996 I0.0 J0.5
G1 Y38.68421
G3 X32.58985 Y39.47996 I-0.5 J0.79575
G3 X32.15004 Y40.27572 I-0.9398 J0.0
G1 Y54.02146
G1 X32.34855
G1 Y55.41846
G1 X30.95155
G1 Y54.02146
G1 X31.15005
G1 Y40.27572
G3 Y38.68421 I0.5 J-0.79575
G1 Y28.54996
G1 X20.87689
G3 X19.8073 Y28.76487 I-0.65685 J-0.5
G3 Y27.33506 I0.41275 J-0.7149
G3 X20.87689 Y27.54996 I0.41275 J0.7149
G1 X28.76771
G0 Z3.0
G0 X21.0592 Y31.43683
G0 Z1.0
G1 F100.0 Z-0.2
G3 F300.0 X21.15985 Y31.85996 I-0.83916 J0.42313
G3 X19.75015 Y32.67385 I-0.9398 J0.0
G3 Y31.04607 I0.4699 J-0.81389
G3 X21.0592 Y31.43683 I0.4699 J0.81389
G0 Z3.0
G0 X20.47613 Y33.49572
G0 Z1.0
G1 F100.0 Z-0.2
G3 F300.0 X21.15985 Y34.39996 I-0.25608 J0.90424
G3 X19.75015 Y35.21385 I-0.9398 J0.0
G3 Y33.58607 I0.4699 J-0.81389
G3 X20.47613 Y33.49572 I0.4699 J0.81389
G0 Z3.0
G0 X20.28973 Y36.00275
G0 Z1.0
G1 F100.0 Z-0.2
G3 F300.0 X21.15985 Y36.93996 I-0.06968 J0.93721
G3 X19.75015 Y37.75385 I-0.9398 J0.0
G3 Y36.12607 I0.4699 J-0.81389
G3 X20.28973 Y36.00275 I0.4699 J0.81389
G0 Z3.0
G0 X20.23887 Y38.54035
G0 Z1.0
G1 F100.0 Z-0.2
G3 F300.0 X21.15985 Y39.47996 I-0.01883 J0.93961
G3 X19.75015 Y40.29385 I-0.9398 J0.0
G3 Y38.66607 I0.4699 J-0.81389
G3 X20.23887 Y38.54035 I0.4699 J0.81389
G0 Z3.0
G0 X20.22513 Y41.08018
G0 Z1.0
G1 F100.0 Z-0.2
G3 F300.0 X21.15985 Y42.01996 I-0.00509 J0.93979
G3 X19.75015 Y42.83385 I-0.9398 J0.0
G3 Y41.20607 I0.4699 J-0.81389
G3 X20.22513 Y41.08018 I0.4699 J0.81389
G0 Z3.0
G0 X20.22142 Y43.62016
G0 Z1.0
G1 F100.0 Z-0.2
G3 F300.0 X21.15985 Y44.55996 I-0.00137 J0.9398
G3 X19.75015 Y45.37385 I-0.9398 J0.0
G3 Y43.74607 I0.4699 J-0.81389
G3 X20.22142 Y43.62016 I0.4699 J0.81389
G0 Z3.0
G0 X20.22042 Y46.16016
G0 Z1.0
G1 F100.0 Z-0.2
G3 F300.0 X21.15985 Y47.09996 I-0.00037 J0.9398
G3 X19.75015 Y47.91385 I-0.9398 J0.0
G3 Y46.28607 I0.4699 J-0.81389
G3 X20.22042 Y46.16016 I0.4699 J0.81389
G0 Z3.0
G0 X20.22015 Y48.70016
G0 Z1.0
G1 F100.0 Z-0.2
G3 F300.0 X21.15985 Y49.63996 I-0.0001 J0.9398
G3 X19.75015 Y50.45385 I-0.9398 J0.0
G3 Y48.82607 I0.4699 J-0.81389
G3 X20.22015 Y48.70016 I0.4699 J0.81389
G0 Z3.0
G0 X20.22007 Y51.24016
G0 Z1.0
G1 F100.0 Z-0.2
G3 F300.0 X21.15985 Y52.17996 I-0.00003 J0.9398
G3 X19.75015 Y52.99385 I-0.9398 J0.0
G3 X19.42429 Y52.67996 I0.4699 J-0.81389
G1 X15.14005
G3 X14.78649 Y52.53351 I0.0 J-0.5
G1 X12.24649 Y49.99351
G3 X12.10005 Y49.63996 I0.35355 J-0.35355
G1 Y28.54996
G1 X3.71004
G3 X3.21005 Y28.04996 I0.0 J-0.5
G1 Y26.77996
G3 X4.21004 I0.5 J0.0
G1 Y27.54996
G1 X12.10005
G1 Y26.01796
G1 X12.09205
G1 Y23.98596
G1 X13.10805
G1 Y26.01796
G1 X13.10004
G1 Y28.04996
G1 Y49.43286
G1 X15.34715 Y51.67996
G1 X19.42429
G3 X19.75015 Y51.36607 I0.79575 J0.5
G3 X20.22007 Y51.24016 I0.4699 J0.81389
G0 Z3.0
G0 X20.22005 Y53.78016
G0 Z1.0
G1 F100.0 Z-0.2
G3 F300.0 X21.15985 Y54.71996 I-0.00001 J0.9398
G3 X19.75015 Y55.53385 I-0.9398 J0.0
G3 Y53.90607 I0.4699 J-0.81389
G3 X20.22005 Y53.78016 I0.4699 J0.81389
G0 Z3.0
G0 Y56.32016
G0 Z1.0
G1 F100.0 Z-0.2
G3 F300.0 X21.15985 Y57.25996 I0.0 J0.9398
G3 X19.75015 Y58.07385 I-0.9398 J0.0
G3 Y56.44607 I0.4699 J-0.81389
G3 X20.22005 Y56.32016 I0.4699 J0.81389
G0 Z3.0
G0 Y58.86016
G0 Z1.0
G1 F100.0 Z-0.2
G3 F300.0 X21.15985 Y59.79996 I0.0 J0.9398
G3 X19.75015 Y60.61385 I-0.9398 J0.0
G3 Y58.98607 I0.4699 J-0.81389
G3 X20.22005 Y58.86016 I0.4699 J0.81389
G0 Z3.0
G0 X28.47685 Y55.01485
G0 Z1.0
G1 F100.0 Z-0.2
G3 F300.0 X28.7608 Y54.11504 I0.6332 J-0.29489
G3 X29.80855 Y54.71996 I0.34925 J0.60492
G3 X28.7608 Y55.32488 I-0.6985 J0.0
G3 X28.47685 Y55.01485 I0.34925 J-0.60492
G0 Z3.0
G0 X28.95778 Y52.86166
G0 Z1.0
G1 F100.0 Z-0.2
G3 F300.0 X28.7608 Y52.78488 I0.15226 J-0.6817
G3 Y51.57504 I0.34925 J-0.60492
G3 X29.80855 Y52.17996 I0.34925 J0.60492
G3 X28.95778 Y52.86166 I-0.6985 J0.0
G0 Z3.0
G0 X29.09935 Y40.4197
G0 Z1.0
G1 F100.0 Z-0.2
G3 F300.0 X28.64015 Y40.29385 I0.01069 J-0.93974
G3 Y38.66607 I0.4699 J-0.81389
G3 X30.04985 Y39.47996 I0.4699 J0.81389
G3 X29.09935 Y40.4197 I-0.9398 J0.0
G0 Z3.0
G0 X5.91913 Y39.51655
G0 Z1.0
G1 F100.0 Z-0.2
G3 F300.0 X4.51015 Y40.29385 I-0.93909 J-0.03659
G3 Y38.66607 I0.4699 J-0.81389
G3 X5.91985 Y39.47996 I0.4699 J0.81389
G3 X5.91913 Y39.51655 I-0.9398 J0.0
G0 Z3.0
G0 X5.31013 Y41.14004
G0 Z1.0
G1 F100.0 Z-0.2
G3 F300.0 X5.91985 Y42.01996 I-0.33008 J0.87993
G3 X4.51015 Y42.83385 I-0.9398 J0.0
G3 Y41.20607 I0.4699 J-0.81389
G3 X5.31013 Y41.14004 I0.4699 J0.81389
G0 Z3.0
G0 X5.07033 Y43.62451
G0 Z1.0
G1 F100.0 Z-0.2
G3 F300.0 X5.91985 Y44.55996 I-0.09029 J0.93545
G3 X4.51015 Y45.37385 I-0.9398 J0.0
G3 Y43.74607 I0.4699 J-0.81389
G3 X5.07033 Y43.62451 I0.4699 J0.81389
G0 Z3.0
G0 X5.00445 Y46.16048
G0 Z1.0
G1 F100.0 Z-0.2
G3 F300.0 X5.91985 Y47.09996 I-0.02441 J0.93948
G3 X4.51015 Y47.91385 I-0.9398 J0.0
G3 Y46.28607 I0.4699 J-0.81389
G3 X5.00445 Y46.16048 I0.4699 J0.81389
G0 Z3.0
G0 X4.98664 Y48.70018
G0 Z1.0
G1 F100.0 Z-0.2
G3 F300.0 X5.91985 Y49.63996 I-0.00659 J0.93978
G3 X4.51015 Y50.45385 I-0.9398 J0.0
G3 Y48.82607 I0.4699 J-0.81389
G3 X4.98664 Y48.70018 I0.4699 J0.81389
G0 Z3.0
G0 X4.98183 Y51.24016
G0 Z1.0
G1 F100.0 Z-0.2
G3 F300.0 X5.91985 Y52.17996 I-0.00178 J0.9398
G3 X4.51015 Y52.99385 I-0.9398 J0.0
G3 Y51.36607 I0.4699 J-0.81389
G3 X4.98183 Y51.24016 I0.4699 J0.81389
G0 Z3.0
G0 X4.98053 Y53.78016
G0 Z1.0
G1 F100.0 Z-0.2
G3 F300.0 X5.91985 Y54.71996 I-0.00048 J0.9398
G3 X4.51015 Y55.53385 I-0.9398 J0.0
G3 Y53.90607 I0.4699 J-0.81389
G3 X4.98053 Y53.78016 I0.4699 J0.81389
G0 Z3.0
G0 X4.98012 Y58.86016
G0 Z1.0
G1 F100.0 Z-0.2
G3 F300.0 X5.91985 Y59.79996 I-0.00008 J0.9398
G3 X4.51015 Y60.61385 I-0.9398 J0.0
G3 Y58.98607 I0.4699 J-0.81389
G3 X4.98012 Y58.86016 I0.4699 J0.81389
G0 Z3.0
G0 X4.98005 Y37.87976
G0 Z1.0
G1 F100.0 Z-0.2
G3 F300.0 X4.51015 Y37.75385 I0.0 J-0.9398
G3 Y36.12607 I0.4699 J-0.81389
G3 X5.91985 Y36.93996 I0.4699 J0.81389
G3 X4.98005 Y37.87976 I-0.9398 J0.0
G0 Z3.0
G0 Y35.33976
G0 Z1.0
G1 F100.0 Z-0.2
G3 F300.0 X4.51015 Y35.21385 I0.0 J-0.9398
G3 Y33.58607 I0.4699 J-0.81389
G3 X5.91985 Y34.39996 I0.4699 J0.81389
G3 X4.98005 Y35.33976 I-0.9398 J0.0
G0 Z3.0
G0 Y32.79976
G0 Z1.0
G1 F100.0 Z-0.2
G3 F300.0 X4.51015 Y32.67385 I0.0 J-0.9398
G3 Y31.04607 I0.4699 J-0.81389
G3 X5.91985 Y31.85996 I0.4699 J0.81389
G3 X4.98005 Y32.79976 I-0.9398 J0.0
G0 Z3.0
G0 X7.35553 Y25.98212
G0 Z1.0
G1 F100.0 Z-0.2
G3 F300.0 X7.02005 Y25.50996 I0.16452 J-0.47216
G1 Y24.73996
G1 X4.36689
G3 X3.2973 Y24.95487 I-0.65685 J-0.5
G3 X3.21005 Y23.58311 I0.41275 J-0.7149
G1 Y7.72996
G3 X3.4327 Y7.31394 I0.5 J0.0
G1 X7.2427 Y4.77394
G3 X7.52005 Y4.68996 I0.27735 J0.41602
G1 X25.30005
G3 X25.52365 Y4.74275 I0.0 J0.5
G1 X27.35191 Y5.65688
G3 X27.37015 Y5.64607 I0.48814 J0.80308
G3 X28.77985 Y6.45996 I0.4699 J0.81389
G3 X27.37015 Y7.27385 I-0.9398 J0.0
G3 X26.90469 Y6.5513 I0.4699 J-0.81389
G1 X25.18201 Y5.68996
G1 X7.67143
G1 X4.21004 Y7.99755
G1 Y23.58311
G3 X4.36689 Y23.73996 I-0.5 J0.65685
G1 X7.52005
G3 X8.02004 Y24.23996 I0.0 J0.5
G1 Y24.50203
G3 X8.02805 Y24.50196 I0.008 J0.49993
G1 X9.80605
G1 Y23.98596
G1 X10.82205
G1 Y26.01796
G1 X9.80605
G1 Y25.50196
G1 X8.23515
G1 X7.8736 Y25.86351
G3 X7.35553 Y25.98212 I-0.35355 J-0.35355
G0 Z3.0
G0 X10.77125 Y19.41396
G0 Z1.0
G1 F100.0 Z-0.2
G1 F300.0 Y17.38196
G1 X12.10005
G1 Y7.72996
G3 X12.60005 Y7.22996 I0.5 J0.0
G1 X25.30005
G3 X25.6536 Y7.37641 I0.0 J0.5
G1 X26.77715 Y8.49996
G1 X27.04429
G3 X27.37015 Y8.18607 I0.79575 J0.5
G3 X28.77985 Y8.99996 I0.4699 J0.81389
G3 X27.37015 Y9.81385 I-0.9398 J0.0
G3 X27.04429 Y9.49996 I0.4699 J-0.81389
G1 X26.57005
G3 X26.21649 Y9.35351 I0.0 J-0.5
G1 X25.09294 Y8.22996
G1 X13.10004
G1 Y17.38196
G1 X14.42885
G1 Y19.41396
G1 X10.77125
G0 Z3.0
G0 X11.11619 Y3.0292
G0 Z1.0
G1 F100.0 Z-0.2
G1 F300.0 X5.34223 Y2.90764
G3 X4.7578 Y3.03491 I-0.36219 J-0.25768
G3 Y2.26501 I0.22225 J-0.38495
G3 X5.35276 Y2.40775 I0.22225 J0.38495
G1 X28.74786 Y2.90028
G3 X28.8878 Y2.77301 I0.36219 J0.25768
G3 X29.55455 Y3.15796 I0.22225 J0.38495
G3 X28.8878 Y3.54291 I-0.4445 J0.0
G3 X28.73733 Y3.40017 I0.22225 J-0.38495
G1 X11.11619 Y3.0292
G0 Z3.0
M5
M30
