(Generated By: Line Grinder Version: 01.04)
(Home Page: http://www.OfItselfSo.com/LineGrinder/LineGrinder.php)
(Generated from file: C:\Users\pc\Documents\blinds\ams-regulator3v3-F_Cu.gtl)
(Date Generated: Wednesday, 18 June 2014 23:04)

(The Line Grinder software is released under the MIT License. There)
(is no warranty or guarantee that the GCode files it produces)
(are without error. You use it, and run its output code entirely)
(at your own risk. In particular: )

(THE LINE GRINDER SOFTWARE, AND THE OUTPUT CODE IT GENERATES, ARE )
(PROVIDED "AS IS", WITHOUT WARRANTY OF ANY KIND, EXPRESS OR )
(IMPLIED, INCLUDING BUT NOT LIMITED TO THE WARRANTIES OF )
(MERCHANTABILITY, FITNESS FOR A PARTICULAR PURPOSE AND )
(NONINFRINGEMENT. IN NO EVENT SHALL THE AUTHORS OR COPYRIGHT )
(HOLDERS BE LIABLE FOR ANY CLAIM, DAMAGES OR OTHER LIABILITY, )
(WHETHER IN AN ACTION OF CONTRACT, TORT OR OTHERWISE, ARISING )
(FROM, OUT OF OR IN CONNECTION WITH THE SOFTWARE OR ITS OUTPUT)
(OR FROM THE USE OR OTHER DEALINGS IN THE SOFTWARE. )

G20 (Use Inches)
G90 (Set Absolute Coordinates)
G17 (XY plane selection)
G00 Z0.5
G00 X0 Y0
M03 (Start spindle)
G04 P1 (Pause to let the spindle start)
G00 X0.622 Y0.193
G01 Z-0.008 F4
G01 X0.639 Y0.193
G01 X0.639 Y0.271
G01 X0.58 Y0.271
G01 X0.58 Y0.223
G01 X0.524 Y0.223
G01 X0.524 Y0.35
G01 X0.523 Y0.35

G03 X0.5158 Y0.3668 I-0.0231 J-0.0001
G01 X0.516 Y0.367

G03 X0.495 Y0.379 I-0.0207 J-0.0117
G01 X0.39 Y0.379
G01 X0.39 Y0.391
G01 X0.374 Y0.391
G01 X0.374 Y0.576
G01 X0.941 Y0.576
G01 X0.977 Y0.54
G01 X0.977 Y0.391
G01 X0.961 Y0.391
G01 X0.961 Y0.32
G01 X1.04 Y0.32
G01 X1.04 Y0.326
G01 X1.153 Y0.326
G01 X1.153 Y0.316
G01 X1.247 Y0.316
G01 X1.247 Y0.384
G01 X1.153 Y0.384
G01 X1.153 Y0.373
G01 X1.04 Y0.373
G01 X1.04 Y0.391
G01 X1.024 Y0.391
G01 X1.024 Y0.55
G01 X1.023 Y0.55

G03 X1.0168 Y0.5658 I-0.0231 J-0.0001
G01 X1.017 Y0.566
G01 Z0.1
G00 X0.671 Y0.193
G01 Z-0.008
G01 X0.677 Y0.193
G01 X0.677 Y0.16
G01 X0.64 Y0.123
G01 X0.41 Y0.123
G01 X0.374 Y0.159
G01 X0.374 Y0.21
G01 X0.39 Y0.21
G01 X0.39 Y0.281
G01 X0.311 Y0.281
G01 X0.311 Y0.273
G01 X0.142 Y0.273

G03 X0.117 Y0.2838 I-0.0247 J-0.0231
G01 X0.117 Y0.284
G01 X0.083 Y0.284

G03 X0.083 Y0.2158 I-0.0004 J-0.0341
G01 X0.083 Y0.216
G01 X0.117 Y0.216

G03 X0.1411 Y0.2259 I0.0003 J0.0339
G01 X0.141 Y0.226
G01 X0.311 Y0.226
G01 X0.311 Y0.21
G01 X0.327 Y0.21
G01 X0.327 Y0.15

G03 X0.3333 Y0.1342 I0.0229 J-0.0001
G01 X0.333 Y0.134
G01 Z0.1
G00 X0.724 Y0.193
G01 Z-0.008
G01 X0.73 Y0.193
G01 X0.73 Y0.271
G01 X0.671 Y0.271
G01 X0.671 Y0.193
G01 Z0.1
G00 X0.761 Y0.193
G01 Z-0.008
G01 X0.767 Y0.193
G01 X0.767 Y0.159

G03 X0.7738 Y0.1427 I0.0236 J0.0003
G01 X0.774 Y0.143
G01 Z0.1
G00 X0.815 Y0.193
G01 Z-0.008
G01 X0.821 Y0.193
G01 X0.821 Y0.271
G01 X0.761 Y0.271
G01 X0.761 Y0.193
G01 Z0.1
G00 X0.621 Y0.429
G01 Z-0.008
G01 X0.779 Y0.429
G01 X0.779 Y0.507
G01 X0.621 Y0.507
G01 X0.621 Y0.429
G01 Z0.1
G00 X0.053 Y0.316
G01 Z-0.008
G01 X0.147 Y0.316
G01 X0.147 Y0.326
G01 X0.311 Y0.326
G01 X0.311 Y0.32
G01 X0.39 Y0.32
G01 X0.39 Y0.331
G01 X0.477 Y0.331
G01 X0.477 Y0.2

G03 X0.5 Y0.177 I0.0229 J-0.0001
G01 X0.5 Y0.176
G01 X0.6 Y0.176
G01 X0.6 Y0.177

G03 X0.6218 Y0.1931 I-0.0001 J0.0229
G01 X0.622 Y0.193
G01 Z0.1
G00 X0.147 Y0.373
G01 Z-0.008
G01 X0.147 Y0.384
G01 X0.053 Y0.384
G01 X0.053 Y0.316
G01 Z0.1
G00 X1.183 Y0.216
G01 Z-0.008
G01 X1.217 Y0.216

G03 X1.2512 Y0.25 I0.0003 J0.0339
G01 X1.251 Y0.25

G03 X1.217 Y0.2836 I-0.0337 J-0.0001
G01 X1.217 Y0.284
G01 X1.183 Y0.284

G03 X1.1577 Y0.2733 I-0.0004 J-0.0341
G01 X1.158 Y0.273
G01 X1.04 Y0.273
G01 X1.04 Y0.281
G01 X0.961 Y0.281
G01 X0.961 Y0.269
G01 X0.945 Y0.269

G03 X0.9282 Y0.2617 I0.0003 J-0.0237
G01 X0.929 Y0.261
G01 Z0.1
G00 X0.311 Y0.391
G01 Z-0.008
G01 X0.327 Y0.391
G01 X0.327 Y0.6

G02 X0.35 Y0.6228 I0.0229 J-0.0001
G01 X0.35 Y0.623
G01 X0.95 Y0.623

G02 X0.9668 Y0.6158 I-0.0001 J-0.0231
G01 X0.967 Y0.616
G01 Z0.1
G00 X0.311 Y0.373
G01 Z-0.008
G01 X0.311 Y0.391
G01 Z0.1
G00 X0.961 Y0.21
G01 Z-0.008
G01 X1.04 Y0.21
G01 X1.04 Y0.226
G01 X1.159 Y0.226

G03 X1.183 Y0.2163 I0.0236 J0.0239
G01 X1.183 Y0.216
G01 Z0.1
G00 X0.961 Y0.21
G01 Z-0.008
G01 X0.961 Y0.221
G01 X0.955 Y0.221
G01 X0.924 Y0.191
G01 X0.924 Y0.15
G01 X0.923 Y0.15

G02 X0.9 Y0.1268 I-0.0231 J-0.0001
G01 X0.9 Y0.127
G01 X0.9 Y0.126
G01 X0.8 Y0.126
G01 X0.8 Y0.127

G02 X0.7833 Y0.1342 I-0.0001 J0.0229
G01 X0.783 Y0.134
G01 Z0.1
G00 X0.883 Y0.217
G01 Z-0.008
G01 X0.929 Y0.262
G01 Z0.1
G00 X0.877 Y0.173
G01 Z-0.008
G01 X0.877 Y0.2

G02 X0.8834 Y0.2157 I0.0229 J-0.0001
G01 X0.883 Y0.216
G01 Z0.1
G00 X0.815 Y0.173
G01 Z-0.008
G01 X0.877 Y0.173
G01 Z0.1
G00 X0.774 Y0.143
G01 Z-0.008
G01 X0.783 Y0.133
G01 Z0.1
G00 X0.815 Y0.173
G01 Z-0.008
G01 X0.815 Y0.193
G01 Z0.1
G00 X0.967 Y0.617
G01 Z-0.008
G01 X1.017 Y0.567
G01 Z0.1
G00 X0.333 Y0.133
G01 Z-0.008
G01 X0.383 Y0.083
G01 Z0.1
G00 X0.4 Y0.076
G01 Z-0.008
G01 X0.4 Y0.077

G02 X0.3833 Y0.0842 I-0.0001 J0.0229
G01 X0.383 Y0.084
G01 Z0.1
G00 X0.4 Y0.076
G01 Z-0.008
G01 X0.65 Y0.076
G01 X0.65 Y0.077

G03 X0.6667 Y0.0843 I-0.0001 J0.0229
G01 X0.667 Y0.084
G01 Z0.1
G00 X0.667 Y0.083
G01 Z-0.008
G01 X0.717 Y0.133
G01 Z0.1
G00 X0.723 Y0.15
G01 Z-0.008
G01 X0.724 Y0.15
G01 X0.724 Y0.193
G01 Z0.1
G00 X0.147 Y0.373
G01 Z-0.008
G01 X0.311 Y0.373

G01 Z0.1
G00 X0.717 Y0.134
G01 Z-0.008
G03 X0.7233 Y0.15 I-0.0171 J0.0159
G01 X0.723 Y0.15
(... pad touchdown start ...)
G00 Z0.5
G00 X0.609 Y0.232
G01 Z-0.0003937008
G04 P0.25
G00 Z0.5
G00 X0.7 Y0.232
G01 Z-0.0003937008
G04 P0.25
G00 Z0.5
G00 X0.791 Y0.232
G01 Z-0.0003937008
G04 P0.25
G00 Z0.5
G00 X0.7 Y0.468
G01 Z-0.0003937008
G04 P0.25
G00 Z0.5
G00 X0.1 Y0.35
G01 Z-0.0003937008
G04 P0.25
G00 Z0.5
G00 X0.1 Y0.25
G01 Z-0.0003937008
G04 P0.25
G00 Z0.5
G00 X1.2 Y0.35
G01 Z-0.0003937008
G04 P0.25
G00 Z0.5
G00 X1.2 Y0.25
G01 Z-0.0003937008
G04 P0.25
G00 Z0.5
G00 X0.35 Y0.355
G01 Z-0.0003937008
G04 P0.25
G00 Z0.5
G00 X0.35 Y0.245
G01 Z-0.0003937008
G04 P0.25
G00 Z0.5
G00 X1 Y0.355
G01 Z-0.0003937008
G04 P0.25
G00 Z0.5
G00 X1 Y0.245
G01 Z-0.0003937008
G04 P0.25
G00 Z0.5
(... pad touchdown end ...)
G00 Z0.5
G00 X0 Y0
M05 (Stop spindle)
M02 (Program End)

