(GENERATED BY: LINE GRINDER VERSION: 01.04)
(HOME PAGE: HTTP://WWW.OFITSELFSO.COM/LINEGRINDER/LINEGRINDER.PHP)
(GENERATED FROM FILE: C:\USERS\PC\DOCUMENTS\BLINDS\AMS-REGULATOR3V3-F_CU.GTL)
(DATE GENERATED: WEDNESDAY, 18 JUNE 2014 23:04)

(THE LINE GRINDER SOFTWARE IS RELEASED UNDER THE MIT LICENSE. THERE)
(IS NO WARRANTY OR GUARANTEE THAT THE GCODE FILES IT PRODUCES)
(ARE WITHOUT ERROR. YOU USE IT, AND RUN ITS OUTPUT CODE ENTIRELY)
(AT YOUR OWN RISK. IN PARTICULAR: )

(THE LINE GRINDER SOFTWARE, AND THE OUTPUT CODE IT GENERATES, ARE )
(PROVIDED "AS IS", WITHOUT WARRANTY OF ANY KIND, EXPRESS OR )
(IMPLIED, INCLUDING BUT NOT LIMITED TO THE WARRANTIES OF )
(MERCHANTABILITY, FITNESS FOR A PARTICULAR PURPOSE AND )
(NONINFRINGEMENT. IN NO EVENT SHALL THE AUTHORS OR COPYRIGHT )
(HOLDERS BE LIABLE FOR ANY CLAIM, DAMAGES OR OTHER LIABILITY, )
(WHETHER IN AN ACTION OF CONTRACT, TORT OR OTHERWISE, ARISING )
(FROM, OUT OF OR IN CONNECTION WITH THE SOFTWARE OR ITS OUTPUT)
(OR FROM THE USE OR OTHER DEALINGS IN THE SOFTWARE. )

G21(USE INCHES)
G90(SET ABSOLUTE COORDINATES)
G17(XY PLANE SELECTION)
G00Z12.7
G00X0Y0
M03(START SPINDLE)
G04P1(PAUSE TO LET THE SPINDLE START)
G00X15.7988Y4.9022
G01Z-.2032F101.6
G01X16.2306Y4.9022
G01X16.2306Y6.8834
G01X14.732Y6.8834
G01X14.732Y5.6642
G01X13.3096Y5.6642
G01X13.3096Y8.89
G01X13.2842Y8.89

G03X13.1013Y9.3167I-.5867J-.0025
G01X13.1064Y9.3218

G03X12.573Y9.6266I-.5258J-.2972
G01X9.906Y9.6266
G01X9.906Y9.9314
G01X9.4996Y9.9314
G01X9.4996Y14.6304
G01X23.9014Y14.6304
G01X24.8158Y13.716
G01X24.8158Y9.9314
G01X24.4094Y9.9314
G01X24.4094Y8.128
G01X26.416Y8.128
G01X26.416Y8.2804
G01X29.2862Y8.2804
G01X29.2862Y8.0264
G01X31.6738Y8.0264
G01X31.6738Y9.7536
G01X29.2862Y9.7536
G01X29.2862Y9.4742
G01X26.416Y9.4742
G01X26.416Y9.9314
G01X26.0096Y9.9314
G01X26.0096Y13.97
G01X25.9842Y13.97

G03X25.8267Y14.3713I-.5867J-.0025
G01X25.8318Y14.3764
G01Z2.54
G00X17.0434Y4.9022
G01Z-.2032
G01X17.1958Y4.9022
G01X17.1958Y4.064
G01X16.256Y3.1242
G01X10.414Y3.1242
G01X9.4996Y4.0386
G01X9.4996Y5.334
G01X9.906Y5.334
G01X9.906Y7.1374
G01X7.8994Y7.1374
G01X7.8994Y6.9342
G01X3.6068Y6.9342

G03X2.9718Y7.2085I-.6274J-.5867
G01X2.9718Y7.2136
G01X2.1082Y7.2136

G03X2.1082Y5.4813I-.0102J-.8661
G01X2.1082Y5.4864
G01X2.9718Y5.4864

G03X3.5839Y5.7379I.0076J.8611
G01X3.5814Y5.7404
G01X7.8994Y5.7404
G01X7.8994Y5.334
G01X8.3058Y5.334
G01X8.3058Y3.81

G03X8.4658Y3.4087I.5817J-.0025
G01X8.4582Y3.4036
G01Z2.54
G00X18.3896Y4.9022
G01Z-.2032
G01X18.542Y4.9022
G01X18.542Y6.8834
G01X17.0434Y6.8834
G01X17.0434Y4.9022
G01Z2.54
G00X19.3294Y4.9022
G01Z-.2032
G01X19.4818Y4.9022
G01X19.4818Y4.0386

G03X19.6545Y3.6246I.5994J.0076
G01X19.6596Y3.6322
G01Z2.54
G00X20.701Y4.9022
G01Z-.2032
G01X20.8534Y4.9022
G01X20.8534Y6.8834
G01X19.3294Y6.8834
G01X19.3294Y4.9022
G01Z2.54
G00X15.7734Y10.8966
G01Z-.2032
G01X19.7866Y10.8966
G01X19.7866Y12.8778
G01X15.7734Y12.8778
G01X15.7734Y10.8966
G01Z2.54
G00X1.3462Y8.0264
G01Z-.2032
G01X3.7338Y8.0264
G01X3.7338Y8.2804
G01X7.8994Y8.2804
G01X7.8994Y8.128
G01X9.906Y8.128
G01X9.906Y8.4074
G01X12.1158Y8.4074
G01X12.1158Y5.08

G03X12.7Y4.4958I.5817J-.0025
G01X12.7Y4.4704
G01X15.24Y4.4704
G01X15.24Y4.4958

G03X15.7937Y4.9047I-.0025J.5817
G01X15.7988Y4.9022
G01Z2.54
G00X3.7338Y9.4742
G01Z-.2032
G01X3.7338Y9.7536
G01X1.3462Y9.7536
G01X1.3462Y8.0264
G01Z2.54
G00X30.0482Y5.4864
G01Z-.2032
G01X30.9118Y5.4864

G03X31.7805Y6.35I.0076J.8611
G01X31.7754Y6.35

G03X30.9118Y7.2034I-.856J-.0025
G01X30.9118Y7.2136
G01X30.0482Y7.2136

G03X29.4056Y6.9418I-.0102J-.8661
G01X29.4132Y6.9342
G01X26.416Y6.9342
G01X26.416Y7.1374
G01X24.4094Y7.1374
G01X24.4094Y6.8326
G01X24.003Y6.8326

G03X23.5763Y6.6472I.0076J-.602
G01X23.5966Y6.6294
G01Z2.54
G00X7.8994Y9.9314
G01Z-.2032
G01X8.3058Y9.9314
G01X8.3058Y15.24

G02X8.89Y15.8191I.5817J-.0025
G01X8.89Y15.8242
G01X24.13Y15.8242

G02X24.5567Y15.6413I-.0025J-.5867
G01X24.5618Y15.6464
G01Z2.54
G00X7.8994Y9.4742
G01Z-.2032
G01X7.8994Y9.9314
G01Z2.54
G00X24.4094Y5.334
G01Z-.2032
G01X26.416Y5.334
G01X26.416Y5.7404
G01X29.4386Y5.7404

G03X30.0482Y5.494I.5994J.6071
G01X30.0482Y5.4864
G01Z2.54
G00X24.4094Y5.334
G01Z-.2032
G01X24.4094Y5.6134
G01X24.257Y5.6134
G01X23.4696Y4.8514
G01X23.4696Y3.81
G01X23.4442Y3.81

G02X22.86Y3.2207I-.5867J-.0025
G01X22.86Y3.2258
G01X22.86Y3.2004
G01X20.32Y3.2004
G01X20.32Y3.2258

G02X19.8958Y3.4087I-.0025J.5817
G01X19.8882Y3.4036
G01Z2.54
G00X22.4282Y5.5118
G01Z-.2032
G01X23.5966Y6.6548
G01Z2.54
G00X22.2758Y4.3942
G01Z-.2032
G01X22.2758Y5.08

G02X22.4384Y5.4788I.5817J-.0025
G01X22.4282Y5.4864
G01Z2.54
G00X20.701Y4.3942
G01Z-.2032
G01X22.2758Y4.3942
G01Z2.54
G00X19.6596Y3.6322
G01Z-.2032
G01X19.8882Y3.3782
G01Z2.54
G00X20.701Y4.3942
G01Z-.2032
G01X20.701Y4.9022
G01Z2.54
G00X24.5618Y15.6718
G01Z-.2032
G01X25.8318Y14.4018
G01Z2.54
G00X8.4582Y3.3782
G01Z-.2032
G01X9.7282Y2.1082
G01Z2.54
G00X10.16Y1.9304
G01Z-.2032
G01X10.16Y1.9558

G02X9.7358Y2.1387I-.0025J.5817
G01X9.7282Y2.1336
G01Z2.54
G00X10.16Y1.9304
G01Z-.2032
G01X16.51Y1.9304
G01X16.51Y1.9558

G03X16.9342Y2.1412I-.0025J.5817
G01X16.9418Y2.1336
G01Z2.54
G00X16.9418Y2.1082
G01Z-.2032
G01X18.2118Y3.3782
G01Z2.54
G00X18.3642Y3.81
G01Z-.2032
G01X18.3896Y3.81
G01X18.3896Y4.9022
G01Z2.54
G00X3.7338Y9.4742
G01Z-.2032
G01X7.8994Y9.4742

G01Z2.54
G00X18.2118Y3.4036
G01Z-.2032
G03X18.3718Y3.81I-.4343J.4039
G01X18.3642Y3.81
(... PAD TOUCHDOWN START ...)
G00Z12.7
G00X15.4686Y5.8928
G01Z-.01
G04P0.25
G00Z12.7
G00X17.78Y5.8928
G01Z-.01
G04P0.25
G00Z12.7
G00X20.0914Y5.8928
G01Z-.01
G04P0.25
G00Z12.7
G00X17.78Y11.8872
G01Z-.01
G04P0.25
G00Z12.7
G00X2.54Y8.89
G01Z-.01
G04P0.25
G00Z12.7
G00X2.54Y6.35
G01Z-.01
G04P0.25
G00Z12.7
G00X30.48Y8.89
G01Z-.01
G04P0.25
G00Z12.7
G00X30.48Y6.35
G01Z-.01
G04P0.25
G00Z12.7
G00X8.89Y9.017
G01Z-.01
G04P0.25
G00Z12.7
G00X8.89Y6.223
G01Z-.01
G04P0.25
G00Z12.7
G00X25.4Y9.017
G01Z-.01
G04P0.25
G00Z12.7
G00X25.4Y6.223
G01Z-.01
G04P0.25
G00Z12.7
(... PAD TOUCHDOWN END ...)
G00Z12.7
G00X0Y0
M05(STOP SPINDLE)
M02(PROGRAM END)

