(Generated By: Line Grinder Version: 01.04)
(Home Page: http://www.OfItselfSo.com/LineGrinder/LineGrinder.php)
(Generated from file: C:\Users\pc\Documents\blinds\pcb1-F_Cu.gtl)
(Date Generated: Tuesday, 17 June 2014 23:35)

(The Line Grinder software is released under the MIT License. There)
(is no warranty or guarantee that the GCode files it produces)
(are without error. You use it, and run its output code entirely)
(at your own risk. In particular: )

(THE LINE GRINDER SOFTWARE, AND THE OUTPUT CODE IT GENERATES, ARE )
(PROVIDED "AS IS", WITHOUT WARRANTY OF ANY KIND, EXPRESS OR )
(IMPLIED, INCLUDING BUT NOT LIMITED TO THE WARRANTIES OF )
(MERCHANTABILITY, FITNESS FOR A PARTICULAR PURPOSE AND )
(NONINFRINGEMENT. IN NO EVENT SHALL THE AUTHORS OR COPYRIGHT )
(HOLDERS BE LIABLE FOR ANY CLAIM, DAMAGES OR OTHER LIABILITY, )
(WHETHER IN AN ACTION OF CONTRACT, TORT OR OTHERWISE, ARISING )
(FROM, OUT OF OR IN CONNECTION WITH THE SOFTWARE OR ITS OUTPUT)
(OR FROM THE USE OR OTHER DEALINGS IN THE SOFTWARE. )

G20 (Use Inches)
G90 (Set Absolute Coordinates)
G17 (XY plane selection)
G00 Z0.25
G00 X0 Y0
M03 (Start spindle)
G04 P1 (Pause to let the spindle start)
G00 X1.755 Y-1.533
G01 Z-0.002 F20
G01 X1.832 Y-1.533 F15
G01 X1.832 Y-1.476
G01 X1.755 Y-1.476
G01 X1.755 Y-1.533
G01 Z0.1 F20
G00 X1.755 Y-1.592
G01 Z-0.002
G01 X1.832 Y-1.592 F15
G01 X1.832 Y-1.535
G01 X1.755 Y-1.535
G01 X1.755 Y-1.549
G01 X1.613 Y-1.549

G03 X1.5996 Y-1.5589 I0.0004 J-0.0146
G01 X1.6 Y-1.559
G01 Z0.1 F20
G00 X1.755 Y-1.592
G01 Z-0.002
G01 X1.755 Y-1.579 F15
G01 X1.624 Y-1.579
G01 X1.615 Y-1.602
G01 X1.615 Y-1.81
G01 X1.631 Y-1.81
G01 X1.631 Y-1.891
G01 X1.615 Y-1.891
G01 X1.615 Y-1.994
G01 X1.706 Y-2.086
G01 X1.841 Y-2.086
G01 X1.841 Y-2.07
G01 X1.922 Y-2.07
G01 X1.922 Y-2.131
G01 X1.841 Y-2.131
G01 X1.841 Y-2.115
G01 X1.7 Y-2.115
G01 X1.7 Y-2.115

G02 X1.6889 Y-2.1101 I-0.0001 J0.0149
G01 X1.689 Y-2.11
G01 Z0.1 F20
G00 X1.755 Y-1.651
G01 Z-0.002
G01 X1.832 Y-1.651 F15
G01 X1.832 Y-1.594
G01 X1.755 Y-1.594
G01 X1.755 Y-1.608
G01 X1.727 Y-1.608

G03 X1.7167 Y-1.6127 I0.0004 J-0.0146
G01 X1.717 Y-1.613
G01 Z0.1 F20
G00 X1.755 Y-1.651
G01 Z-0.002
G01 X1.755 Y-1.638 F15
G01 X1.733 Y-1.638
G01 X1.715 Y-1.656
G01 X1.715 Y-1.81
G01 X1.741 Y-1.81
G01 X1.741 Y-1.891
G01 X1.715 Y-1.891
G01 X1.715 Y-1.944
G01 X1.766 Y-1.995
G01 X1.835 Y-1.995
G01 X1.835 Y-1.9

G02 X1.85 Y-1.8852 I0.0149 J-0.0001
G01 X1.85 Y-1.886
G01 X2.25 Y-1.886

G02 X2.264 Y-1.9 I-0.0001 J-0.0141
G01 X2.265 Y-1.9
G01 X2.265 Y-2.3
G01 X2.264 Y-2.3

G02 X2.26 Y-2.31 I-0.0141 J-0.0001
G01 Z0.1 F20
G00 X1.755 Y-1.474
G01 Z-0.002
G01 X1.832 Y-1.474 F15
G01 X1.832 Y-1.417
G01 X1.755 Y-1.417
G01 X1.755 Y-1.474
G01 Z0.1 F20
G00 X1.755 Y-1.415
G01 Z-0.002
G01 X1.832 Y-1.415 F15
G01 X1.832 Y-1.358
G01 X1.755 Y-1.358
G01 X1.755 Y-1.415
G01 Z0.1 F20
G00 X1.755 Y-1.356
G01 Z-0.002
G01 X1.832 Y-1.356 F15
G01 X1.832 Y-1.299
G01 X1.755 Y-1.299
G01 X1.755 Y-1.356
G01 Z0.1 F20
G00 X1.755 Y-1.297
G01 Z-0.002
G01 X1.832 Y-1.297 F15
G01 X1.832 Y-1.24
G01 X1.755 Y-1.24
G01 X1.755 Y-1.297
G01 Z0.1 F20
G00 X1.755 Y-1.238
G01 Z-0.002
G01 X1.832 Y-1.238 F15
G01 X1.832 Y-1.181
G01 X1.755 Y-1.181
G01 X1.755 Y-1.238
G01 Z0.1 F20
G00 X1.755 Y-1.179
G01 Z-0.002
G01 X1.832 Y-1.179 F15
G01 X1.832 Y-1.122
G01 X1.755 Y-1.122
G01 X1.755 Y-1.179
G01 Z0.1 F20
G00 X1.755 Y-1.12
G01 Z-0.002
G01 X1.832 Y-1.12 F15
G01 X1.832 Y-1.063
G01 X1.755 Y-1.063
G01 X1.755 Y-1.12
G01 Z0.1 F20
G00 X1.755 Y-1.061
G01 Z-0.002
G01 X1.832 Y-1.061 F15
G01 X1.832 Y-1.004
G01 X1.755 Y-1.004
G01 X1.755 Y-1.061
G01 Z0.1 F20
G00 X1.755 Y-1.001
G01 Z-0.002
G01 X1.832 Y-1.001 F15
G01 X1.832 Y-0.944
G01 X1.755 Y-0.944
G01 X1.755 Y-0.958
G01 X1.527 Y-0.958

G03 X1.5167 Y-0.9627 I0.0004 J-0.0146
G01 X1.517 Y-0.963
G01 Z0.1 F20
G00 X1.755 Y-1.001
G01 Z-0.002
G01 X1.755 Y-0.988 F15
G01 X1.533 Y-0.988
G01 X1.515 Y-1.006
G01 X1.515 Y-2.744
G01 X1.556 Y-2.786
G01 X1.893 Y-2.786
G01 X1.935 Y-2.744
G01 X1.935 Y-2.701

G02 X1.9142 Y-2.669 I0.0149 J0.0324
G01 X1.915 Y-2.669
G01 X1.915 Y-2.632

G02 X1.9848 Y-2.632 I0.0349 J0.0004
G01 X1.985 Y-2.632
G01 X1.985 Y-2.669

G02 X1.9651 Y-2.7002 I-0.0351 J0.0004
G01 X1.965 Y-2.7
G01 X1.965 Y-2.75
G01 X1.964 Y-2.75

G02 X1.96 Y-2.76 I-0.0141 J-0.0001
G01 Z0.1 F20
G00 X1.755 Y-0.942
G01 Z-0.002
G01 X1.832 Y-0.942 F15
G01 X1.832 Y-0.885
G01 X1.755 Y-0.885
G01 X1.755 Y-0.899
G01 X1.486 Y-0.899

G03 X1.4757 Y-0.9037 I0.0004 J-0.0146
G01 X1.476 Y-0.904
G01 Z0.1 F20
G00 X1.755 Y-0.942
G01 Z-0.002
G01 X1.755 Y-0.929 F15
G01 X1.492 Y-0.929
G01 X1.465 Y-0.956
G01 X1.465 Y-2.794
G01 X1.506 Y-2.836
G01 X2.035 Y-2.836
G01 X2.035 Y-2.701

G02 X2.0142 Y-2.669 I0.0149 J0.0324
G01 X2.015 Y-2.669
G01 X2.015 Y-2.632

G02 X2.0848 Y-2.632 I0.0349 J0.0004
G01 X2.085 Y-2.632
G01 X2.085 Y-2.669

G02 X2.0651 Y-2.7002 I-0.0351 J0.0004
G01 X2.065 Y-2.7
G01 X2.065 Y-2.85
G01 X2.064 Y-2.85

G02 X2.05 Y-2.8642 I-0.0141 J-0.0001
G01 X2.05 Y-2.865
G01 X2.05 Y-2.865
G01 X1.5 Y-2.865
G01 X1.5 Y-2.865

G02 X1.4889 Y-2.8601 I-0.0001 J0.0149
G01 X1.489 Y-2.86
G01 Z0.1 F20
G00 X1.815 Y-1.726
G01 Z-0.002
G01 X1.872 Y-1.726 F15
G01 X1.872 Y-1.653
G01 X1.815 Y-1.653
G01 X1.815 Y-1.726
G01 Z0.1 F20
G00 X1.874 Y-1.726
G01 Z-0.002
G01 X1.931 Y-1.726 F15
G01 X1.931 Y-1.649
G01 X1.874 Y-1.649
G01 X1.874 Y-1.726
G01 Z0.1 F20
G00 X1.933 Y-1.726
G01 Z-0.002
G01 X1.99 Y-1.726 F15
G01 X1.99 Y-1.649
G01 X1.933 Y-1.649
G01 X1.933 Y-1.726
G01 Z0.1 F20
G00 X1.992 Y-1.726
G01 Z-0.002
G01 X2.049 Y-1.726 F15
G01 X2.049 Y-1.649
G01 X1.992 Y-1.649
G01 X1.992 Y-1.726
G01 Z0.1 F20
G00 X2.051 Y-1.726
G01 Z-0.002
G01 X2.108 Y-1.726 F15
G01 X2.108 Y-1.649
G01 X2.051 Y-1.649
G01 X2.051 Y-1.726
G01 Z0.1 F20
G00 X2.11 Y-1.726
G01 Z-0.002
G01 X2.167 Y-1.726 F15
G01 X2.167 Y-1.649
G01 X2.11 Y-1.649
G01 X2.11 Y-1.726
G01 Z0.1 F20
G00 X2.169 Y-1.726
G01 Z-0.002
G01 X2.226 Y-1.726 F15
G01 X2.226 Y-1.649
G01 X2.169 Y-1.649
G01 X2.169 Y-1.726
G01 Z0.1 F20
G00 X2.228 Y-1.726
G01 Z-0.002
G01 X2.285 Y-1.726 F15
G01 X2.285 Y-1.653
G01 X2.228 Y-1.653
G01 X2.228 Y-1.726
G01 Z0.1 F20
G00 X2.267 Y-1.651
G01 Z-0.002
G01 X2.344 Y-1.651 F15
G01 X2.344 Y-1.594
G01 X2.267 Y-1.594
G01 X2.267 Y-1.651
G01 Z0.1 F20
G00 X2.267 Y-1.592
G01 Z-0.002
G01 X2.344 Y-1.592 F15
G01 X2.344 Y-1.535
G01 X2.267 Y-1.535
G01 X2.267 Y-1.592
G01 Z0.1 F20
G00 X2.267 Y-1.533
G01 Z-0.002
G01 X2.344 Y-1.533 F15
G01 X2.344 Y-1.476
G01 X2.267 Y-1.476
G01 X2.267 Y-1.533
G01 Z0.1 F20
G00 X2.267 Y-1.474
G01 Z-0.002
G01 X2.344 Y-1.474 F15
G01 X2.344 Y-1.417
G01 X2.267 Y-1.417
G01 X2.267 Y-1.474
G01 Z0.1 F20
G00 X2.267 Y-1.415
G01 Z-0.002
G01 X2.344 Y-1.415 F15
G01 X2.344 Y-1.358
G01 X2.267 Y-1.358
G01 X2.267 Y-1.415
G01 Z0.1 F20
G00 X2.267 Y-1.356
G01 Z-0.002
G01 X2.344 Y-1.356 F15
G01 X2.344 Y-1.299
G01 X2.267 Y-1.299
G01 X2.267 Y-1.356
G01 Z0.1 F20
G00 X2.267 Y-1.297
G01 Z-0.002
G01 X2.344 Y-1.297 F15
G01 X2.344 Y-1.24
G01 X2.267 Y-1.24
G01 X2.267 Y-1.297
G01 Z0.1 F20
G00 X2.267 Y-1.238
G01 Z-0.002
G01 X2.344 Y-1.238 F15
G01 X2.344 Y-1.181
G01 X2.267 Y-1.181
G01 X2.267 Y-1.238
G01 Z0.1 F20
G00 X2.267 Y-1.179
G01 Z-0.002
G01 X2.344 Y-1.179 F15
G01 X2.344 Y-1.122
G01 X2.267 Y-1.122
G01 X2.267 Y-1.179
G01 Z0.1 F20
G00 X2.267 Y-1.12
G01 Z-0.002
G01 X2.344 Y-1.12 F15
G01 X2.344 Y-1.063
G01 X2.267 Y-1.063
G01 X2.267 Y-1.12
G01 Z0.1 F20
G00 X2.267 Y-1.061
G01 Z-0.002
G01 X2.344 Y-1.061 F15
G01 X2.344 Y-1.004
G01 X2.267 Y-1.004
G01 X2.267 Y-1.061
G01 Z0.1 F20
G00 X2.267 Y-1.001
G01 Z-0.002
G01 X2.344 Y-1.001 F15
G01 X2.344 Y-0.944
G01 X2.267 Y-0.944
G01 X2.267 Y-1.001
G01 Z0.1 F20
G00 X2.267 Y-0.942
G01 Z-0.002
G01 X2.344 Y-0.942 F15
G01 X2.344 Y-0.885
G01 X2.267 Y-0.885
G01 X2.267 Y-0.942
G01 Z0.1 F20
G00 X1.608 Y-2.491
G01 Z-0.002
G01 X1.635 Y-2.491 F15
G01 X1.635 Y-2.75

G03 X1.65 Y-2.765 I0.0149 J-0.0001
G01 X1.65 Y-2.765
G01 X1.7 Y-2.765
G01 X1.7 Y-2.765
G01 Z0.1 F20
G00 X1.665 Y-2.491
G01 Z-0.002
G01 X1.681 Y-2.491 F15
G01 X1.681 Y-2.41
G01 X1.665 Y-2.41
G01 X1.665 Y-2.206
G01 X1.665 Y-2.206
G01 X1.841 Y-2.206
G01 X1.841 Y-2.221
G01 X1.922 Y-2.221
G01 X1.922 Y-2.16
G01 X1.841 Y-2.16
G01 X1.841 Y-2.176
G01 X1.659 Y-2.176

G03 X1.6487 Y-2.1807 I0.0004 J-0.0146
G01 X1.649 Y-2.181
G01 Z0.1 F20
G00 X1.608 Y-2.41
G01 Z-0.002
G01 X1.635 Y-2.41 F15
G01 X1.635 Y-2.2

G02 X1.639 Y-2.19 I0.0149 J-0.0001
G01 Z0.1 F20
G00 X1.608 Y-2.491
G01 Z-0.002
G01 X1.608 Y-2.41 F15
G01 Z0.1 F20
G00 X1.718 Y-2.491
G01 Z-0.002
G01 X1.739 Y-2.491 F15
G01 X1.735 Y-2.595
G01 Z0.1 F20
G00 X1.768 Y-2.491
G01 Z-0.002
G01 X1.791 Y-2.491 F15
G01 X1.791 Y-2.41
G01 X1.77 Y-2.41
G01 X1.77 Y-2.401
G01 X1.806 Y-2.365
G01 X2.2 Y-2.365
G01 X2.2 Y-2.365

G03 X2.2105 Y-2.3605 I-0.0001 J0.0149
G01 X2.21 Y-2.36
G01 Z0.1 F20
G00 X1.718 Y-2.41
G01 Z-0.002
G01 X1.74 Y-2.41 F15
G01 X1.74 Y-2.395

G02 X1.744 Y-2.385 I0.0149 J-0.0001
G01 Z0.1 F20
G00 X1.718 Y-2.491
G01 Z-0.002
G01 X1.718 Y-2.41 F15
G01 Z0.1 F20
G00 X1.558 Y-1.891
G01 Z-0.002
G01 X1.585 Y-1.891 F15
G01 X1.585 Y-2

G03 X1.5889 Y-2.0101 I0.0149 J-0.0001
G01 X1.589 Y-2.01
G01 Z0.1 F20
G00 X1.558 Y-1.81
G01 Z-0.002
G01 X1.585 Y-1.81 F15
G01 X1.585 Y-1.6

G02 X1.5859 Y-1.595 I0.0149 J-0.0001
G01 X1.586 Y-1.595
G01 X1.599 Y-1.56

G02 X1.5993 Y-1.5591 I0.0144 J-0.0036
G01 X1.599 Y-1.559
G01 Z0.1 F20
G00 X1.558 Y-1.891
G01 Z-0.002
G01 X1.558 Y-1.81 F15
G01 Z0.1 F20
G00 X1.668 Y-1.891
G01 Z-0.002
G01 X1.685 Y-1.891 F15
G01 X1.685 Y-1.95

G03 X1.6889 Y-1.9601 I0.0149 J-0.0001
G01 X1.689 Y-1.96
G01 Z0.1 F20
G00 X1.668 Y-1.81
G01 Z-0.002
G01 X1.685 Y-1.81 F15
G01 X1.685 Y-1.65

G02 X1.689 Y-1.64 I0.0149 J-0.0001
G01 Z0.1 F20
G00 X1.668 Y-1.891
G01 Z-0.002
G01 X1.668 Y-1.81 F15
G01 Z0.1 F20
G00 X1.841 Y-2.04
G01 Z-0.002
G01 X1.922 Y-2.04 F15
G01 X1.922 Y-1.979
G01 X1.865 Y-1.979
G01 X1.865 Y-1.915
G01 X2.235 Y-1.915
G01 X2.235 Y-2.294
G01 X2.193 Y-2.336
G01 X1.8 Y-2.336

G03 X1.7896 Y-2.3405 I-0.0001 J-0.0141
G01 X1.789 Y-2.34
G01 Z0.1 F20
G00 X1.841 Y-2.04
G01 Z-0.002
G01 X1.841 Y-2.025 F15
G01 X1.759 Y-2.025
G01 X1.759 Y-2.024

G02 X1.7492 Y-2.0198 I0.0004 J0.0144
G01 X1.749 Y-2.02
G01 Z0.1 F20
G00 X2.077 Y-2.18
G01 Z-0.002
G01 X2.158 Y-2.18 F15
G01 X2.158 Y-2.02
G01 X2.077 Y-2.02
G01 X2.077 Y-2.18
G01 Z0.1 F20
G00 X1.715 Y-2.699
G01 Z-0.002
G01 X1.785 Y-2.699 F15
G01 X1.785 Y-2.602
G01 X1.765 Y-2.602
G01 X1.765 Y-2.595
G01 X1.768 Y-2.491
G01 Z0.1 F20
G00 X1.715 Y-2.602
G01 Z-0.002
G01 X1.735 Y-2.602 F15
G01 X1.735 Y-2.595
G01 Z0.1 F20
G00 X1.715 Y-2.699
G01 Z-0.002
G01 X1.715 Y-2.602 F15
G01 Z0.1 F20
G00 X1.885 Y-2.669
G01 Z-0.002
G01 X1.885 Y-2.632 F15

G03 X1.8148 Y-2.632 I-0.0351 J0.0004
G01 X1.815 Y-2.632
G01 X1.815 Y-2.669

G03 X1.8353 Y-2.7003 I0.0349 J0.0004
G01 X1.835 Y-2.701
G01 X1.835 Y-2.736
G01 X1.7 Y-2.736
G01 X1.665 Y-2.736
G01 X1.665 Y-2.491
G01 Z0.1 F20
G00 X2.185 Y-2.669
G01 Z-0.002
G01 X2.185 Y-2.632 F15

G03 X2.1148 Y-2.632 I-0.0351 J0.0004
G01 X2.115 Y-2.632
G01 X2.115 Y-2.669

G03 X2.1848 Y-2.669 I0.0349 J0.0004
G01 X2.185 Y-2.669
G01 Z0.1 F20
G00 X2.285 Y-2.669
G01 Z-0.002
G01 X2.285 Y-2.632 F15

G03 X2.2148 Y-2.632 I-0.0351 J0.0004
G01 X2.215 Y-2.632
G01 X2.215 Y-2.669

G03 X2.2848 Y-2.669 I0.0349 J0.0004
G01 X2.285 Y-2.669
G01 Z0.1 F20
G00 X1.485 Y-2.75
G01 Z-0.002
G01 X1.485 Y-1 F15

G02 X1.489 Y-0.99 I0.0149 J-0.0001
G01 X1.517 Y-0.962
G01 Z0.1 F20
G00 X1.91 Y-2.811
G01 Z-0.002
G01 X1.96 Y-2.761 F15
G01 Z0.1 F20
G00 X1.55 Y-2.815
G01 Z-0.002
G01 X1.55 Y-2.815 F15

G02 X1.5389 Y-2.8101 I-0.0001 J0.0149
G01 X1.539 Y-2.81
G01 Z0.1 F20
G00 X1.55 Y-2.815
G01 Z-0.002
G01 X1.9 Y-2.815 F15
G01 X1.9 Y-2.815

G03 X1.9105 Y-2.8105 I-0.0001 J0.0149
G01 X1.91 Y-2.81
G01 Z0.1 F20
G00 X1.489 Y-2.761
G01 Z-0.002
G01 X1.539 Y-2.811 F15
G01 Z0.1 F20
G00 X1.439 Y-0.94
G01 Z-0.002
G01 X1.476 Y-0.903 F15
G01 Z0.1 F20
G00 X1.435 Y-2.8
G01 Z-0.002
G01 X1.435 Y-0.95 F15

G02 X1.439 Y-0.94 I0.0149 J-0.0001
G01 Z0.1 F20
G00 X1.439 Y-2.811
G01 Z-0.002
G01 X1.489 Y-2.861 F15
G01 Z0.1 F20
G00 X1.864 Y-2.75
G01 Z-0.002
G01 X1.865 Y-2.75 F15
G01 X1.865 Y-2.7

G03 X1.8847 Y-2.669 I-0.0151 J0.0314
G01 X1.885 Y-2.669
G01 Z0.1 F20
G00 X1.744 Y-2.385
G01 Z-0.002
G01 X1.789 Y-2.34 F15
G01 Z0.1 F20
G00 X2.21 Y-2.361
G01 Z-0.002
G01 X2.26 Y-2.311 F15
G01 Z0.1 F20
G00 X1.639 Y-2.19
G01 Z-0.002
G01 X1.649 Y-2.18 F15
G01 Z0.1 F20
G00 X1.7 Y-2.765
G01 Z-0.002
G01 X1.85 Y-2.765 F15
G01 X1.85 Y-2.765

G03 X1.8648 Y-2.75 I-0.0001 J0.0149
G01 X1.864 Y-2.75
G01 Z0.1 F20
G00 X1.589 Y-2.011
G01 Z-0.002
G01 X1.689 Y-2.111 F15
G01 Z0.1 F20
G00 X1.689 Y-1.961
G01 Z-0.002
G01 X1.749 Y-2.02 F15
G01 Z0.1 F20
G00 X1.689 Y-1.64
G01 Z-0.002
G01 X1.717 Y-1.612 F15

G01 Z0.1 F20
G00 X1.485 Y-2.75
G01 Z-0.002
G03 X1.4889 Y-2.7601 I0.0149 J-0.0001 F15
G01 X1.489 Y-2.76

G01 Z0.1 F20
G00 X1.435 Y-2.8
G01 Z-0.002
G03 X1.4389 Y-2.8101 I0.0149 J-0.0001 F15
G01 X1.439 Y-2.81
(... pad touchdown start ...)
G00 Z0.25
G00 X1.794 Y-1.504
G01 Z-0.005 F20
G04 P0.25
G00 Z0.25
G00 X1.794 Y-1.563
G01 Z-0.005
G04 P0.25
G00 Z0.25
G00 X1.794 Y-1.622
G01 Z-0.005
G04 P0.25
G00 Z0.25
G00 X1.794 Y-1.445
G01 Z-0.005
G04 P0.25
G00 Z0.25
G00 X1.794 Y-1.386
G01 Z-0.005
G04 P0.25
G00 Z0.25
G00 X1.794 Y-1.327
G01 Z-0.005
G04 P0.25
G00 Z0.25
G00 X1.794 Y-1.268
G01 Z-0.005
G04 P0.25
G00 Z0.25
G00 X1.794 Y-1.209
G01 Z-0.005
G04 P0.25
G00 Z0.25
G00 X1.794 Y-1.15
G01 Z-0.005
G04 P0.25
G00 Z0.25
G00 X1.794 Y-1.091
G01 Z-0.005
G04 P0.25
G00 Z0.25
G00 X1.794 Y-1.032
G01 Z-0.005
G04 P0.25
G00 Z0.25
G00 X1.794 Y-0.973
G01 Z-0.005
G04 P0.25
G00 Z0.25
G00 X1.794 Y-0.914
G01 Z-0.005
G04 P0.25
G00 Z0.25
G00 X1.843 Y-1.689
G01 Z-0.005
G04 P0.25
G00 Z0.25
G00 X1.903 Y-1.687
G01 Z-0.005
G04 P0.25
G00 Z0.25
G00 X1.962 Y-1.687
G01 Z-0.005
G04 P0.25
G00 Z0.25
G00 X2.02 Y-1.687
G01 Z-0.005
G04 P0.25
G00 Z0.25
G00 X2.079 Y-1.687
G01 Z-0.005
G04 P0.25
G00 Z0.25
G00 X2.138 Y-1.687
G01 Z-0.005
G04 P0.25
G00 Z0.25
G00 X2.197 Y-1.687
G01 Z-0.005
G04 P0.25
G00 Z0.25
G00 X2.257 Y-1.689
G01 Z-0.005
G04 P0.25
G00 Z0.25
G00 X2.306 Y-1.622
G01 Z-0.005
G04 P0.25
G00 Z0.25
G00 X2.306 Y-1.563
G01 Z-0.005
G04 P0.25
G00 Z0.25
G00 X2.306 Y-1.504
G01 Z-0.005
G04 P0.25
G00 Z0.25
G00 X2.306 Y-1.445
G01 Z-0.005
G04 P0.25
G00 Z0.25
G00 X2.306 Y-1.386
G01 Z-0.005
G04 P0.25
G00 Z0.25
G00 X2.306 Y-1.327
G01 Z-0.005
G04 P0.25
G00 Z0.25
G00 X2.306 Y-1.268
G01 Z-0.005
G04 P0.25
G00 Z0.25
G00 X2.306 Y-1.209
G01 Z-0.005
G04 P0.25
G00 Z0.25
G00 X2.306 Y-1.15
G01 Z-0.005
G04 P0.25
G00 Z0.25
G00 X2.306 Y-1.091
G01 Z-0.005
G04 P0.25
G00 Z0.25
G00 X2.306 Y-1.032
G01 Z-0.005
G04 P0.25
G00 Z0.25
G00 X2.306 Y-0.973
G01 Z-0.005
G04 P0.25
G00 Z0.25
G00 X2.306 Y-0.914
G01 Z-0.005
G04 P0.25
G00 Z0.25
G00 X1.645 Y-2.45
G01 Z-0.005
G04 P0.25
G00 Z0.25
G00 X1.755 Y-2.45
G01 Z-0.005
G04 P0.25
G00 Z0.25
G00 X1.595 Y-1.85
G01 Z-0.005
G04 P0.25
G00 Z0.25
G00 X1.705 Y-1.85
G01 Z-0.005
G04 P0.25
G00 Z0.25
G00 X1.882 Y-2.009
G01 Z-0.005
G04 P0.25
G00 Z0.25
G00 X1.882 Y-2.1
G01 Z-0.005
G04 P0.25
G00 Z0.25
G00 X1.882 Y-2.191
G01 Z-0.005
G04 P0.25
G00 Z0.25
G00 X2.118 Y-2.1
G01 Z-0.005
G04 P0.25
G00 Z0.25
G00 X1.75 Y-2.65
G01 Z-0.005
G04 P0.25
G00 Z0.25
G00 X1.85 Y-2.65
G01 Z-0.005
G04 P0.25
G00 Z0.25
G00 X1.95 Y-2.65
G01 Z-0.005
G04 P0.25
G00 Z0.25
G00 X2.05 Y-2.65
G01 Z-0.005
G04 P0.25
G00 Z0.25
G00 X2.15 Y-2.65
G01 Z-0.005
G04 P0.25
G00 Z0.25
G00 X2.25 Y-2.65
G01 Z-0.005
G04 P0.25
G00 Z0.25
(... pad touchdown end ...)
G00 Z0.25
G00 X0 Y0
M05 (Stop spindle)
M02 (Program End)

