( Made using CamBam - http://www.cambam.co.uk )
( test1-B_Cu 6/22/2014 4:37:59 PM )
( T5 : 0.2 )
G21 G90 G64 G40
G0 Z3.0
( T5 : 0.2 )
T5 M6
( Engrave1 )
G17
M3 S1000
G0 X26.10264 Y6.49979
G0 Z1.0
G1 F100.0 Z-0.2
G3 F300.0 X25.10237 Y6.60931 I-0.57483 J-0.62738
G3 X24.83959 Y6.37279 I0.42545 J-0.7369
G1 X24.13082
G3 X23.77699 Y6.22623 I0.0 J-0.50038
G1 X22.63399 Y5.08323
G3 X22.48744 Y4.72941 I0.35382 J-0.35382
G1 Y3.95979
G1 X20.70944
G1 Y4.94824
G3 X20.98376 Y5.53967 I-0.50038 J0.59142
G3 X19.82171 Y6.21058 I-0.7747 J0.0
G3 X19.70868 Y4.94824 I0.38735 J-0.67091
G1 Y3.69817
G3 X19.85523 Y3.34434 I0.50038 J0.0
G1 X20.09399 Y3.10558
G3 X20.44782 Y2.95903 I0.35382 J0.35382
G1 X22.98782
G3 X23.4882 Y3.45941 I0.0 J0.50038
G1 Y4.52214
G1 X24.33808 Y5.37203
G1 X24.83959
G3 X25.10237 Y5.13551 I0.68822 J0.50038
G3 X26.29242 Y5.49903 I0.42545 J0.7369
G1 X29.82282
G3 X30.14236 Y5.19322 I0.78499 J0.50038
G3 X31.53873 Y5.99941 I0.46545 J0.80619
G3 X30.14236 Y6.8056 I-0.93091 J0.0
G3 X29.82282 Y6.49979 I0.46545 J-0.80619
G1 X26.10264
G0 Z3.0
G0 X25.74602 Y7.84396
G0 Z1.0
G1 F100.0 Z-0.2
G3 F300.0 X26.10264 Y8.03903 I-0.2182 J0.82245
G1 X29.82282
G3 X30.14236 Y7.73322 I0.78499 J0.50038
G3 X31.53873 Y8.53941 I0.46545 J0.80619
G3 X30.14236 Y9.3456 I-0.93091 J0.0
G3 X29.82282 Y9.03979 I0.46546 J-0.80619
G1 X26.29242
G3 X26.0282 Y9.35463 I-0.7646 J-0.37338
G1 Y13.61941
G3 X25.88164 Y13.97323 I-0.50038 J0.0
G1 X24.61164 Y15.24323
G3 X24.25782 Y15.38979 I-0.35382 J-0.35382
G1 X9.01782
G3 X8.51744 Y14.88941 I0.0 J-0.50038
G1 Y9.35463
G3 X8.25321 Y9.03979 I0.50038 J-0.68822
G1 X3.45281
G3 X2.20236 Y9.3456 I-0.78499 J-0.50038
G3 Y7.73322 I0.46545 J-0.80619
G3 X3.45281 Y8.03903 I0.46546 J0.80619
G1 X8.44299
G3 X8.59237 Y7.92951 I0.57483 J0.62738
G3 X9.70604 Y8.16603 I0.42545 J0.7369
G1 X12.32744
G1 Y4.72941
G3 X12.82782 Y4.22903 I0.50038 J0.0
G1 X15.36782
G3 X15.86194 Y4.80827 I0.0 J0.50038
G3 X16.38128 Y5.53967 I-0.25537 J0.7314
G3 X15.21923 Y6.21058 I-0.7747 J0.0
G3 X14.89655 Y5.22979 I0.38735 J-0.67091
G1 X13.3282
G1 Y8.53941
G3 X13.11239 Y8.95098 I-0.50038 J0.0
G3 X12.70082 Y9.16679 I-0.41158 J-0.28458
G1 X9.70604
G3 X9.5182 Y9.35463 I-0.68822 J-0.50038
G1 Y14.38903
G1 X24.05055
G1 X25.02744 Y13.41214
G1 Y9.35463
G3 X25.10237 Y7.92951 I0.50038 J-0.68822
G3 X25.74602 Y7.84396 I0.42545 J0.7369
G0 Z3.0
G0 X19.17373 Y10.94235
G0 Z1.0
G1 F100.0 Z-0.2
G3 F300.0 X19.30736 Y11.53915 I-1.26592 J0.5968
G3 X17.20805 Y12.75118 I-1.39954 J0.0
G3 Y10.32711 I0.69977 J-1.21204
G3 X19.17373 Y10.94235 I0.69977 J1.21204
G0 Z3.0
G0 X18.08455 Y6.29394
G0 Z1.0
G1 F100.0 Z-0.2
G3 F300.0 X17.52047 Y6.21058 I-0.17674 J-0.75427
G3 X17.40744 Y4.94824 I0.38735 J-0.67091
G1 Y3.66667
G1 X16.43055 Y2.68979
G1 X10.49508
G1 X9.5182 Y3.66667
G1 Y5.18418
G3 X9.86872 Y5.87241 I-0.50038 J0.68822
G3 X8.59237 Y6.60931 I-0.8509 J0.0
G3 X8.44299 Y6.49979 I0.42545 J-0.7369
G1 X3.45281
G3 X2.20236 Y6.8056 I-0.78499 J-0.50038
G3 Y5.19322 I0.46545 J-0.80619
G3 X3.45281 Y5.49903 I0.46545 J0.80619
G1 X8.25321
G3 X8.51744 Y5.18418 I0.7646 J0.37338
G1 Y3.45941
G3 X8.66399 Y3.10558 I0.50038 J0.0
G1 X9.93399 Y1.83558
G3 X10.28782 Y1.68903 I0.35382 J0.35382
G1 X16.63782
G3 X16.99164 Y1.83558 I0.0 J0.50038
G1 X18.26164 Y3.10558
G3 X18.4082 Y3.45941 I-0.35382 J0.35382
G1 Y4.94824
G3 X18.68252 Y5.53967 I-0.50038 J0.59142
G3 X18.08455 Y6.29394 I-0.7747 J0.0
G0 Z3.0
M5
M30
