( Made using CamBam - http://www.cambam.co.uk )
( arm-slot-v3 7/13/2014 3:56:17 PM )
( T3 : 3.0 )
G21 G90 G64 G40
G0 Z3.0
( T3 : 3.0 )
T3 M6
( 3DSurface1 )
G17
M3 S1000
G0 X9.3 Y10.7
G1 F100.0 Z10.3
G1 F300.0 X26.7
G1 Y9.3
G1 X9.3
G1 Y10.7
G1 F100.0 Y12.5
G1 F300.0 X28.5
G1 Y7.5
G1 X7.5
G1 Y12.5
G1 X9.3
G1 F100.0 Y14.3
G1 F300.0 X30.3
G1 Y5.7
G1 X5.7
G1 Y14.3
G1 X9.3
G1 F100.0 Y16.1
G1 F300.0 X32.1
G1 Y3.9
G1 X3.9
G1 Y16.1
G1 X9.3
G1 F100.0 Y17.9
G1 F300.0 X33.9
G1 Y2.1
G1 X2.1
G1 Y17.9
G1 X9.3
G1 F100.0 Y19.7
G1 F300.0 X35.7
G1 Y0.3
G1 X0.3
G1 Y19.7
G1 X9.3
G1 F100.0 Y21.5
G1 F300.0 X36.0
G2 X37.5 Y20.0 I0.0 J-1.5
G1 Y0.0
G2 X36.0 Y-1.5 I-1.5 J0.0
G1 X0.0
G2 X-1.5 Y0.0 I0.0 J1.5
G1 Y20.0
G2 X0.0 Y21.5 I1.5 J0.0
G1 X9.3
G0 Z3.0
G0 Y10.7
G1 F100.0 Z9.3
G1 F300.0 X26.7
G1 Y9.3
G1 X9.3
G1 Y10.7
G1 F100.0 Y12.5
G1 F300.0 X28.5
G1 Y7.5
G1 X7.5
G1 Y12.5
G1 X9.3
G1 F100.0 Y14.3
G1 F300.0 X30.3
G1 Y5.7
G1 X5.7
G1 Y14.3
G1 X9.3
G1 F100.0 Y16.1
G1 F300.0 X32.1
G1 Y3.9
G1 X3.9
G1 Y16.1
G1 X9.3
G1 F100.0 Y17.9
G1 F300.0 X33.9
G1 Y2.1
G1 X2.1
G1 Y17.9
G1 X9.3
G1 F100.0 Y19.7
G1 F300.0 X35.7
G1 Y0.3
G1 X0.3
G1 Y19.7
G1 X9.3
G1 F100.0 Y21.5
G1 F300.0 X36.0
G2 X37.5 Y20.0 I0.0 J-1.5
G1 Y0.0
G2 X36.0 Y-1.5 I-1.5 J0.0
G1 X0.0
G2 X-1.5 Y0.0 I0.0 J1.5
G1 Y20.0
G2 X0.0 Y21.5 I1.5 J0.0
G1 X9.3
G0 Z3.0
G0 Y10.7
G1 F100.0 Z8.3
G1 F300.0 X26.7
G1 Y9.3
G1 X9.3
G1 Y10.7
G1 F100.0 Y12.5
G1 F300.0 X28.5
G1 Y7.5
G1 X7.5
G1 Y12.5
G1 X9.3
G1 F100.0 Y14.3
G1 F300.0 X30.3
G1 Y5.7
G1 X5.7
G1 Y14.3
G1 X9.3
G1 F100.0 Y16.1
G1 F300.0 X32.1
G1 Y3.9
G1 X3.9
G1 Y16.1
G1 X9.3
G1 F100.0 Y17.9
G1 F300.0 X33.9
G1 Y2.1
G1 X2.1
G1 Y17.9
G1 X9.3
G1 F100.0 Y19.7
G1 F300.0 X35.7
G1 Y0.3
G1 X0.3
G1 Y19.7
G1 X9.3
G1 F100.0 Y21.5
G1 F300.0 X36.0
G2 X37.5 Y20.0 I0.0 J-1.5
G1 Y0.0
G2 X36.0 Y-1.5 I-1.5 J0.0
G1 X0.0
G2 X-1.5 Y0.0 I0.0 J1.5
G1 Y20.0
G2 X0.0 Y21.5 I1.5 J0.0
G1 X9.3
G0 Z3.0
G0 Y10.7
G1 F100.0 Z7.3
G1 F300.0 X26.7
G1 Y9.3
G1 X9.3
G1 Y10.7
G1 F100.0 Y12.5
G1 F300.0 X28.5
G1 Y7.5
G1 X7.5
G1 Y12.5
G1 X9.3
G1 F100.0 Y14.3
G1 F300.0 X30.3
G1 Y5.7
G1 X5.7
G1 Y14.3
G1 X9.3
G1 F100.0 Y16.1
G1 F300.0 X32.1
G1 Y3.9
G1 X3.9
G1 Y16.1
G1 X9.3
G1 F100.0 Y17.9
G1 F300.0 X33.9
G1 Y2.1
G1 X2.1
G1 Y17.9
G1 X9.3
G1 F100.0 Y19.7
G1 F300.0 X35.7
G1 Y0.3
G1 X0.3
G1 Y19.7
G1 X9.3
G1 F100.0 Y21.5
G1 F300.0 X36.0
G2 X37.5 Y20.0 I0.0 J-1.5
G1 Y0.0
G2 X36.0 Y-1.5 I-1.5 J0.0
G1 X0.0
G2 X-1.5 Y0.0 I0.0 J1.5
G1 Y20.0
G2 X0.0 Y21.5 I1.5 J0.0
G1 X9.3
G0 Z3.0
G0 Y10.7
G1 F100.0 Z6.3
G1 F300.0 X26.7
G1 Y9.3
G1 X9.3
G1 Y10.7
G1 F100.0 Y12.5
G1 F300.0 X28.5
G1 Y7.5
G1 X7.5
G1 Y12.5
G1 X9.3
G1 F100.0 Y14.3
G1 F300.0 X30.3
G1 Y5.7
G1 X5.7
G1 Y14.3
G1 X9.3
G1 F100.0 Y16.1
G1 F300.0 X32.1
G1 Y3.9
G1 X3.9
G1 Y16.1
G1 X9.3
G1 F100.0 Y17.9
G1 F300.0 X33.9
G1 Y2.1
G1 X2.1
G1 Y17.9
G1 X9.3
G1 F100.0 Y19.7
G1 F300.0 X35.7
G1 Y0.3
G1 X0.3
G1 Y19.7
G1 X9.3
G1 F100.0 Y21.5
G1 F300.0 X36.0
G2 X37.5 Y20.0 I0.0 J-1.5
G1 Y0.0
G2 X36.0 Y-1.5 I-1.5 J0.0
G1 X0.0
G2 X-1.5 Y0.0 I0.0 J1.5
G1 Y20.0
G2 X0.0 Y21.5 I1.5 J0.0
G1 X9.3
G0 Z3.0
G0 Y10.7
G1 F100.0 Z5.3
G1 F300.0 X26.7
G1 Y9.3
G1 X9.3
G1 Y10.7
G1 F100.0 Y12.5
G1 F300.0 X28.5
G1 Y7.5
G1 X7.5
G1 Y12.5
G1 X9.3
G1 F100.0 Y14.3
G1 F300.0 X30.3
G1 Y5.7
G1 X5.7
G1 Y14.3
G1 X9.3
G1 F100.0 Y16.1
G1 F300.0 X32.1
G1 Y3.9
G1 X3.9
G1 Y16.1
G1 X9.3
G1 F100.0 Y17.9
G1 F300.0 X33.9
G1 Y2.1
G1 X2.1
G1 Y17.9
G1 X9.3
G1 F100.0 Y19.7
G1 F300.0 X35.7
G1 Y0.3
G1 X0.3
G1 Y19.7
G1 X9.3
G1 F100.0 Y21.5
G1 F300.0 X36.0
G2 X37.5 Y20.0 I0.0 J-1.5
G1 Y0.0
G2 X36.0 Y-1.5 I-1.5 J0.0
G1 X0.0
G2 X-1.5 Y0.0 I0.0 J1.5
G1 Y20.0
G2 X0.0 Y21.5 I1.5 J0.0
G1 X9.3
G0 Z3.0
G0 Y10.7
G1 F100.0 Z4.3
G1 F300.0 X26.7
G1 Y9.3
G1 X9.3
G1 Y10.7
G1 F100.0 Y12.5
G1 F300.0 X28.5
G1 Y7.5
G1 X7.5
G1 Y12.5
G1 X9.3
G1 F100.0 Y14.3
G1 F300.0 X30.3
G1 Y5.7
G1 X5.7
G1 Y14.3
G1 X9.3
G1 F100.0 Y16.1
G1 F300.0 X32.1
G1 Y3.9
G1 X3.9
G1 Y16.1
G1 X9.3
G1 F100.0 Y17.9
G1 F300.0 X33.9
G1 Y2.1
G1 X2.1
G1 Y17.9
G1 X9.3
G1 F100.0 Y19.7
G1 F300.0 X35.7
G1 Y0.3
G1 X0.3
G1 Y19.7
G1 X9.3
G1 F100.0 Y21.5
G1 F300.0 X36.0
G2 X37.5 Y20.0 I0.0 J-1.5
G1 Y0.0
G2 X36.0 Y-1.5 I-1.5 J0.0
G1 X0.0
G2 X-1.5 Y0.0 I0.0 J1.5
G1 Y20.0
G2 X0.0 Y21.5 I1.5 J0.0
G1 X9.3
G0 Z3.0
G0 Y10.7
G1 F100.0 Z3.3
G1 F300.0 X26.7
G1 Y9.3
G1 X9.3
G1 Y10.7
G1 F100.0 Y12.5
G1 F300.0 X28.5
G1 Y7.5
G1 X7.5
G1 Y12.5
G1 X9.3
G1 F100.0 Y14.3
G1 F300.0 X30.3
G1 Y5.7
G1 X5.7
G1 Y14.3
G1 X9.3
G1 F100.0 Y16.1
G1 F300.0 X32.1
G1 Y3.9
G1 X3.9
G1 Y16.1
G1 X9.3
G1 F100.0 Y17.9
G1 F300.0 X33.9
G1 Y2.1
G1 X2.1
G1 Y17.9
G1 X9.3
G1 F100.0 Y19.7
G1 F300.0 X35.7
G1 Y0.3
G1 X0.3
G1 Y19.7
G1 X9.3
G1 F100.0 Y21.5
G1 F300.0 X36.0
G2 X37.5 Y20.0 I0.0 J-1.5
G1 Y0.0
G2 X36.0 Y-1.5 I-1.5 J0.0
G1 X0.0
G2 X-1.5 Y0.0 I0.0 J1.5
G1 Y20.0
G2 X0.0 Y21.5 I1.5 J0.0
G1 X9.3
G0 Z3.0
G0 Y10.2036
G1 F100.0 Z2.3
G1 F300.0 X26.2036
G1 Y9.7964
G1 X4.8
G1 Y10.2036
G1 X9.3
G1 F100.0 Y11.1036
G1 F300.0 X27.1036
G1 Y8.8964
G1 X3.9
G1 Y11.1036
G1 X9.3
G1 F100.0 Y12.9036
G1 F300.0 X28.9036
G1 Y7.0964
G1 X2.1
G1 Y12.9036
G1 X9.3
G1 F100.0 Y14.7036
G1 F300.0 X30.7036
G1 Y5.2964
G1 X0.3
G1 Y14.7036
G1 X9.3
G1 F100.0 Y16.5
G1 F300.0 X32.5
G1 Y3.5
G1 X0.0
G3 X-1.5 Y2.0 I0.0 J-1.5
G1 Y18.0
G3 X0.0 Y16.5 I1.5 J0.0
G1 X9.3
G0 Z3.0
G0 X-1.5 Y18.0
G1 F100.0 Z2.3
G1 F300.0 Y20.0
G2 X0.0 Y21.5 I1.5 J0.0
G1 X36.0
G2 X37.5 Y20.0 I0.0 J-1.5
G1 Y0.0
G2 X36.0 Y-1.5 I-1.5 J0.0
G1 X0.0
G2 X-1.5 Y0.0 I0.0 J1.5
G1 Y2.0
G0 Z3.0
G0 X4.8 Y9.7964
G1 F100.0 Z1.3
G1 F300.0 Y10.2036
G1 X26.2036
G1 Y9.7964
G1 X4.8
G1 F100.0 X3.9
G1 F300.0 Y11.1036
G1 X27.1036
G1 Y8.8964
G1 X3.9
G1 Y9.7964
G1 F100.0 X2.1
G1 F300.0 Y12.9036
G1 X28.9036
G1 Y7.0964
G1 X2.1
G1 Y9.7964
G1 F100.0 X0.3
G1 F300.0 Y14.7036
G1 X30.7036
G1 Y5.2964
G1 X0.3
G1 Y9.7964
G1 F100.0 X-1.5
G1 F300.0 Y18.0
G3 X0.0 Y16.5 I1.5 J0.0
G1 X32.5
G1 Y3.5
G1 X0.0
G3 X-1.5 Y2.0 I0.0 J-1.5
G1 Y9.7964
G0 Z3.0
G0 Y18.0
G1 F100.0 Z1.3
G1 F300.0 Y20.0
G2 X0.0 Y21.5 I1.5 J0.0
G1 X36.0
G2 X37.5 Y20.0 I0.0 J-1.5
G1 Y0.0
G2 X36.0 Y-1.5 I-1.5 J0.0
G1 X0.0
G2 X-1.5 Y0.0 I0.0 J1.5
G1 Y2.0
G0 Z3.0
G0 X17.81471 Y9.92592
G0 Z2.3
G1 F100.0 Z0.3
G2 F300.0 X17.81381 Y9.92815 I0.19068 J0.07825
G3 X17.81128 Y9.9345 I-2.23081 J-0.88515
G2 Y10.0655 I0.16372 J0.0655
G3 X17.81927 Y10.08574 I-2.22828 J0.8915
G2 X17.91426 Y10.18073 I0.15561 J-0.06063
G3 X17.9345 Y10.18872 I-0.87126 J2.23627
G2 X18.0655 I0.0655 J-0.16372
G3 X18.08574 Y10.18073 I0.8915 J2.22828
G2 X18.18073 Y10.08574 I-0.06063 J-0.15561
G3 X18.18872 Y10.0655 I2.23627 J0.87126
G2 Y9.9345 I-0.16372 J-0.0655
G3 X18.18073 Y9.91426 I2.22828 J-0.8915
G2 X18.08574 Y9.81927 I-0.15561 J0.06063
G3 X18.06566 Y9.81134 I0.87126 J-2.23627
G2 X17.89986 Y9.82701 I-0.06766 J0.16915
G3 X17.8948 Y9.83024 I-1.29286 J-2.02201
G2 X17.81471 Y9.92592 I0.1106 J0.17393
G1 F100.0 X16.98209 Y9.58424
G2 F300.0 X16.97726 Y9.59622 I1.02331 J0.41992
G3 X16.97567 Y9.60019 I-1.39426 J-0.55322
G2 Y10.39981 I0.99933 J0.39981
G3 X16.98067 Y10.41246 I-1.39267 J0.55719
G2 X17.58754 Y11.01933 I0.99421 J-0.38735
G3 X17.60019 Y11.02433 I-0.54454 J1.39767
G2 X18.39981 I0.39981 J-0.99933
G3 X18.41246 Y11.01933 I0.55719 J1.39267
G2 X19.01933 Y10.41246 I-0.38735 J-0.99421
G3 X19.02433 Y10.39981 I1.39767 J0.54454
G2 Y9.60019 I-0.99933 J-0.39981
G3 X19.01933 Y9.58754 I1.39267 J-0.55719
G2 X18.41246 Y8.98067 I-0.99421 J0.38735
G3 X18.39991 Y8.97572 I0.54454 J-1.39767
G2 X17.41504 Y9.06875 I-0.40191 J1.00478
G3 X17.41187 Y9.07077 I-0.80804 J-1.26375
G2 X16.98209 Y9.58424 I0.59352 J0.93339
G0 Z3.0
G0 Y-1.5
G0 Z2.3
G1 F100.0 Z0.3
G1 F300.0 X0.0
G2 X-1.5 Y0.0 I0.0 J1.5
G1 Y20.0
G2 X0.0 Y21.5 I1.5 J0.0
G1 X36.0
G2 X37.5 Y20.0 I0.0 J-1.5
G1 Y0.0
G2 X36.0 Y-1.5 I-1.5 J0.0
G1 X16.98209
G0 Z3.0
G0 X17.98442 Y9.79935
G0 Z1.3
G1 F100.0 Z-0.7
G2 F300.0 X17.9345 Y9.81128 I0.01558 J0.17565
G3 X17.92328 Y9.81574 I-0.8915 J-2.22828
G2 X17.89478 Y9.83025 I0.06156 J0.15613
G3 X17.88551 Y9.83611 I-1.28778 J-2.02525
G2 X17.80089 Y10.01598 I0.09823 J0.15605
G3 X17.8012 Y10.01835 I-2.37989 J0.31002
G2 X17.92138 Y10.18449 I0.21299 J-0.02753
G2 X18.06564 Y10.18867 I0.07694 J-0.1641
G3 X18.08574 Y10.18073 I0.89136 J2.22833
G2 X18.18073 Y10.08574 I-0.06063 J-0.15561
G3 X18.18872 Y10.0655 I2.23627 J0.87126
G2 Y9.9345 I-0.16372 J-0.0655
G3 X18.18073 Y9.91426 I2.22828 J-0.8915
G2 X18.08574 Y9.81927 I-0.15561 J0.06063
G3 X18.0655 Y9.81128 I0.87126 J-2.23627
G2 X17.98442 Y9.79935 I-0.0655 J0.16372
G1 F100.0 X17.90489 Y8.90287
G2 F300.0 X17.60019 Y8.97567 I0.09511 J1.07213
G3 X17.59317 Y8.97846 I-0.55719 J-1.39267
G2 X17.41186 Y9.07078 I0.39166 J0.99341
G3 X17.40607 Y9.07444 I-0.80486 J-1.26578
G2 X16.90843 Y10.13224 I0.57767 J0.91771
G3 X16.90862 Y10.13372 I-1.48743 J0.19376
G2 X17.53575 Y10.99769 I1.10556 J-0.1429
G2 X18.3999 Y11.02429 I0.46257 J-0.9773
G3 X18.41246 Y11.01933 I0.5571 J1.39271
G2 X19.01933 Y10.41246 I-0.38735 J-0.99421
G3 X19.02433 Y10.39981 I1.39767 J0.54454
G2 Y9.60019 I-0.99933 J-0.39981
G3 X19.01933 Y9.58754 I1.39267 J-0.55719
G2 X18.41246 Y8.98067 I-0.99421 J0.38735
G3 X18.39981 Y8.97567 I0.54454 J-1.39767
G2 X17.90489 Y8.90287 I-0.39981 J0.99933
G0 Z3.0
G0 Y-1.5
G0 Z1.3
G1 F100.0 Z-0.7
G1 F300.0 X0.0
G2 X-1.5 Y0.0 I0.0 J1.5
G1 Y20.0
G2 X0.0 Y21.5 I1.5 J0.0
G1 X36.0
G2 X37.5 Y20.0 I0.0 J-1.5
G1 Y0.0
G2 X36.0 Y-1.5 I-1.5 J0.0
G1 X17.90489
G0 Z3.0
G0 X17.99854 Y9.79867
G0 Z0.3
G1 F100.0 Z-1.7
G2 F300.0 X17.9345 Y9.81128 I0.00146 J0.17633
G3 X17.92328 Y9.81574 I-0.8915 J-2.22828
G2 X17.89478 Y9.83025 I0.06156 J0.15613
G3 X17.88551 Y9.83611 I-1.28778 J-2.02525
G2 X17.80089 Y10.01598 I0.09823 J0.15605
G3 X17.8012 Y10.01835 I-2.37989 J0.31002
G2 X17.92138 Y10.18449 I0.21299 J-0.02753
G2 X18.06564 Y10.18867 I0.07694 J-0.1641
G3 X18.08574 Y10.18073 I0.89136 J2.22833
G2 X18.18073 Y10.08574 I-0.06063 J-0.15561
G3 X18.18872 Y10.0655 I2.23627 J0.87126
G2 Y9.9345 I-0.16372 J-0.0655
G3 X18.18073 Y9.91426 I2.22828 J-0.8915
G2 X18.08574 Y9.81927 I-0.15561 J0.06063
G3 X18.0655 Y9.81128 I0.87126 J-2.23627
G2 X17.99854 Y9.79867 I-0.0655 J0.16372
G1 F100.0 X17.99108 Y8.8987
G2 F300.0 X17.60019 Y8.97567 I0.00892 J1.0763
G3 X17.59317 Y8.97846 I-0.55719 J-1.39267
G2 X17.41186 Y9.07078 I0.39166 J0.99341
G3 X17.40607 Y9.07444 I-0.80486 J-1.26578
G2 X16.90843 Y10.13224 I0.57767 J0.91771
G3 X16.90862 Y10.13372 I-1.48743 J0.19376
G2 X17.53575 Y10.99769 I1.10556 J-0.1429
G2 X18.3999 Y11.02429 I0.46257 J-0.9773
G3 X18.41246 Y11.01933 I0.5571 J1.39271
G2 X19.01933 Y10.41246 I-0.38735 J-0.99421
G3 X19.02433 Y10.39981 I1.39767 J0.54454
G2 Y9.60019 I-0.99933 J-0.39981
G3 X19.01933 Y9.58754 I1.39267 J-0.55719
G2 X18.41246 Y8.98067 I-0.99421 J0.38735
G3 X18.39981 Y8.97567 I0.54454 J-1.39767
G2 X17.99108 Y8.8987 I-0.39981 J0.99933
G0 Z3.0
G0 Y-1.5
G0 Z0.3
G1 F100.0 Z-1.7
G1 F300.0 X0.0
G2 X-1.5 Y0.0 I0.0 J1.5
G1 Y20.0
G2 X0.0 Y21.5 I1.5 J0.0
G1 X36.0
G2 X37.5 Y20.0 I0.0 J-1.5
G1 Y0.0
G2 X36.0 Y-1.5 I-1.5 J0.0
G1 X17.99108
G0 Z3.0
G0 X17.99986 Y9.79866
G0 Z-0.7
G1 F100.0 Z-2.7
G2 F300.0 X17.9345 Y9.81128 I0.00014 J0.17634
G3 X17.92328 Y9.81574 I-0.8915 J-2.22828
G2 X17.89478 Y9.83025 I0.06156 J0.15613
G3 X17.88551 Y9.83611 I-1.28778 J-2.02525
G2 X17.80089 Y10.01598 I0.09823 J0.15605
G3 X17.8012 Y10.01835 I-2.37989 J0.31002
G2 X17.92138 Y10.18449 I0.21299 J-0.02753
G2 X18.06564 Y10.18867 I0.07694 J-0.1641
G3 X18.08574 Y10.18073 I0.89136 J2.22833
G2 X18.18073 Y10.08574 I-0.06063 J-0.15561
G3 X18.18872 Y10.0655 I2.23627 J0.87126
G2 Y9.9345 I-0.16372 J-0.0655
G3 X18.18073 Y9.91426 I2.22828 J-0.8915
G2 X18.08574 Y9.81927 I-0.15561 J0.06063
G3 X18.0655 Y9.81128 I0.87126 J-2.23627
G2 X17.99986 Y9.79866 I-0.0655 J0.16372
G1 F100.0 X17.99916 Y8.89866
G2 F300.0 X17.60019 Y8.97567 I0.00084 J1.07634
G3 X17.59317 Y8.97846 I-0.55719 J-1.39267
G2 X17.41186 Y9.07078 I0.39166 J0.99341
G3 X17.40607 Y9.07444 I-0.80486 J-1.26578
G2 X16.90843 Y10.13224 I0.57767 J0.91771
G3 X16.90862 Y10.13372 I-1.48743 J0.19376
G2 X17.53575 Y10.99769 I1.10556 J-0.1429
G2 X18.3999 Y11.02429 I0.46257 J-0.9773
G3 X18.41246 Y11.01933 I0.5571 J1.39271
G2 X19.01933 Y10.41246 I-0.38735 J-0.99421
G3 X19.02433 Y10.39981 I1.39767 J0.54454
G2 Y9.60019 I-0.99933 J-0.39981
G3 X19.01933 Y9.58754 I1.39267 J-0.55719
G2 X18.41246 Y8.98067 I-0.99421 J0.38735
G3 X18.39981 Y8.97567 I0.54454 J-1.39767
G2 X17.99916 Y8.89866 I-0.39981 J0.99933
G0 Z3.0
G0 Y-1.5
G0 Z-0.7
G1 F100.0 Z-2.7
G1 F300.0 X0.0
G2 X-1.5 Y0.0 I0.0 J1.5
G1 Y20.0
G2 X0.0 Y21.5 I1.5 J0.0
G1 X36.0
G2 X37.5 Y20.0 I0.0 J-1.5
G1 Y0.0
G2 X36.0 Y-1.5 I-1.5 J0.0
G1 X17.99916
G0 Z3.0
G0 X17.99999 Y9.79866
G0 Z-1.0
G1 F100.0 Z-3.0
G2 F300.0 X17.9345 Y9.81128 I0.00001 J0.17634
G3 X17.92328 Y9.81574 I-0.8915 J-2.22828
G2 X17.89478 Y9.83025 I0.06156 J0.15613
G3 X17.88551 Y9.83611 I-1.28778 J-2.02525
G2 X17.80089 Y10.01598 I0.09823 J0.15605
G3 X17.8012 Y10.01835 I-2.37989 J0.31002
G2 X17.92138 Y10.18449 I0.21299 J-0.02753
G2 X18.06564 Y10.18867 I0.07694 J-0.1641
G3 X18.08574 Y10.18073 I0.89136 J2.22833
G2 X18.18073 Y10.08574 I-0.06063 J-0.15561
G3 X18.18872 Y10.0655 I2.23627 J0.87126
G2 Y9.9345 I-0.16372 J-0.0655
G3 X18.18073 Y9.91426 I2.22828 J-0.8915
G2 X18.08574 Y9.81927 I-0.15561 J0.06063
G3 X18.0655 Y9.81128 I0.87126 J-2.23627
G2 X17.99999 Y9.79866 I-0.0655 J0.16372
G1 F100.0 X17.99992 Y8.89866
G2 F300.0 X17.60019 Y8.97567 I0.00008 J1.07634
G3 X17.59317 Y8.97846 I-0.55719 J-1.39267
G2 X17.41186 Y9.07078 I0.39166 J0.99341
G3 X17.40607 Y9.07444 I-0.80486 J-1.26578
G2 X16.90843 Y10.13224 I0.57767 J0.91771
G3 X16.90862 Y10.13372 I-1.48743 J0.19376
G2 X17.53575 Y10.99769 I1.10556 J-0.1429
G2 X18.3999 Y11.02429 I0.46257 J-0.9773
G3 X18.41246 Y11.01933 I0.5571 J1.39271
G2 X19.01933 Y10.41246 I-0.38735 J-0.99421
G3 X19.02433 Y10.39981 I1.39767 J0.54454
G2 Y9.60019 I-0.99933 J-0.39981
G3 X19.01933 Y9.58754 I1.39267 J-0.55719
G2 X18.41246 Y8.98067 I-0.99421 J0.38735
G3 X18.39981 Y8.97567 I0.54454 J-1.39767
G2 X17.99992 Y8.89866 I-0.39981 J0.99933
G0 Z3.0
G0 Y-1.5
G0 Z-1.0
G1 F100.0 Z-3.0
G1 F300.0 X0.0
G2 X-1.5 Y0.0 I0.0 J1.5
G1 Y20.0
G2 X0.0 Y21.5 I1.5 J0.0
G1 X36.0
G2 X37.5 Y20.0 I0.0 J-1.5
G1 Y0.0
G2 X36.0 Y-1.5 I-1.5 J0.0
G1 X17.99992
G0 Z3.0
M5
M30
