( Made using CamBam - http://www.cambam.co.uk )
( stand3 7/28/2014 8:17:51 PM )
( T3 : 3.0 )
G21 G90 G64 G40
G0 Z3.0
( T3 : 3.0 )
T3 M6
( Profile2 )
G17
M3 S1000
G0 X42.75 Y79.0
G0 Z1.0
G1 F300.0 Z-1.0
G2 F800.0 X18.375 Y64.92709 I-16.25 J0.0
G2 Y93.07291 I8.125 J14.07291
G2 X42.75 Y79.0 I8.125 J-14.07291
G1 F300.0 Z-2.0
G2 F800.0 X18.375 Y64.92709 I-16.25 J0.0
G2 Y93.07291 I8.125 J14.07291
G2 X42.75 Y79.0 I8.125 J-14.07291
G1 F300.0 Z-3.0
G2 F800.0 X18.375 Y64.92709 I-16.25 J0.0
G2 Y93.07291 I8.125 J14.07291
G2 X42.75 Y79.0 I8.125 J-14.07291
G1 F300.0 Z-4.0
G2 F800.0 X18.375 Y64.92709 I-16.25 J0.0
G2 Y93.07291 I8.125 J14.07291
G2 X42.75 Y79.0 I8.125 J-14.07291
G1 F300.0 Z-5.0
G2 F800.0 X18.375 Y64.92709 I-16.25 J0.0
G2 Y93.07291 I8.125 J14.07291
G2 X42.75 Y79.0 I8.125 J-14.07291
G1 F300.0 Z-6.0
G2 F800.0 X18.375 Y64.92709 I-16.25 J0.0
G2 Y93.07291 I8.125 J14.07291
G2 X42.75 Y79.0 I8.125 J-14.07291
G1 F300.0 Z-7.0
G2 F800.0 X18.375 Y64.92709 I-16.25 J0.0
G2 Y93.07291 I8.125 J14.07291
G2 X42.75 Y79.0 I8.125 J-14.07291
G1 F300.0 Z-8.0
G2 F800.0 X18.375 Y64.92709 I-16.25 J0.0
G2 Y93.07291 I8.125 J14.07291
G2 X42.75 Y79.0 I8.125 J-14.07291
G1 F300.0 Z-9.0
G2 F800.0 X29.0 Y62.94346 I-16.25 J0.0
G2 X28.0 Y62.81938 Z-8.4 I-2.5 J16.05654
G2 X25.0 I-1.5 J16.18062
G2 X24.0 Y62.94346 Z-9.0 I1.5 J16.18062
G2 X18.375 Y64.92709 I2.5 J16.05654
G2 Y93.07291 I8.125 J14.07291
G2 X24.0 Y95.05654 I8.125 J-14.07291
G2 X25.0 Y95.18062 Z-8.4 I2.5 J-16.05654
G2 X28.0 I1.5 J-16.18062
G2 X29.0 Y95.05654 Z-9.0 I-1.5 J-16.18062
G2 X42.75 Y79.0 I-2.5 J-16.05654
G1 F300.0 Z-10.0
G2 F800.0 X29.0 Y62.94346 I-16.25 J0.0
G2 X28.0 Y62.81938 Z-8.4 I-2.5 J16.05654
G2 X25.0 I-1.5 J16.18062
G2 X24.0 Y62.94346 Z-10.0 I1.5 J16.18062
G2 X18.375 Y64.92709 I2.5 J16.05654
G2 Y93.07291 I8.125 J14.07291
G2 X24.0 Y95.05654 I8.125 J-14.07291
G2 X25.0 Y95.18062 Z-8.4 I2.5 J-16.05654
G2 X28.0 I1.5 J-16.18062
G2 X29.0 Y95.05654 Z-10.0 I-1.5 J-16.18062
G2 X42.75 Y79.0 I-2.5 J-16.05654
G1 F300.0 Z-11.0
G2 F800.0 X29.0 Y62.94346 I-16.25 J0.0
G2 X28.0 Y62.81938 Z-8.4 I-2.5 J16.05654
G2 X25.0 I-1.5 J16.18062
G2 X24.0 Y62.94346 Z-11.0 I1.5 J16.18062
G2 X18.375 Y64.92709 I2.5 J16.05654
G2 Y93.07291 I8.125 J14.07291
G2 X24.0 Y95.05654 I8.125 J-14.07291
G2 X25.0 Y95.18062 Z-8.4 I2.5 J-16.05654
G2 X28.0 I1.5 J-16.18062
G2 X29.0 Y95.05654 Z-11.0 I-1.5 J-16.18062
G2 X42.75 Y79.0 I-2.5 J-16.05654
G1 F300.0 Z-11.4
G2 F800.0 X29.0 Y62.94346 I-16.25 J0.0
G2 X28.0 Y62.81938 Z-8.4 I-2.5 J16.05654
G2 X25.0 I-1.5 J16.18062
G2 X24.0 Y62.94346 Z-11.4 I1.5 J16.18062
G2 X18.375 Y64.92709 I2.5 J16.05654
G2 Y93.07291 I8.125 J14.07291
G2 X24.0 Y95.05654 I8.125 J-14.07291
G2 X25.0 Y95.18062 Z-8.4 I2.5 J-16.05654
G2 X28.0 I1.5 J-16.18062
G2 X29.0 Y95.05654 Z-11.4 I-1.5 J-16.18062
G2 X42.75 Y79.0 I-2.5 J-16.05654
G0 Z3.0
G0 X29.10644 Y162.96039
G0 Z1.0
G1 F300.0 Z-1.0
G2 F800.0 X18.375 Y164.92709 I-2.60644 J16.03961
G2 Y193.07291 I8.125 J14.07291
G2 X42.75 Y179.0 I8.125 J-14.07291
G2 X29.10644 Y162.96039 I-16.25 J0.0
G1 F300.0 Z-2.0
G2 F800.0 X18.375 Y164.92709 I-2.60644 J16.03961
G2 Y193.07291 I8.125 J14.07291
G2 X42.75 Y179.0 I8.125 J-14.07291
G2 X29.10644 Y162.96039 I-16.25 J0.0
G1 F300.0 Z-3.0
G2 F800.0 X18.375 Y164.92709 I-2.60644 J16.03961
G2 Y193.07291 I8.125 J14.07291
G2 X42.75 Y179.0 I8.125 J-14.07291
G2 X29.10644 Y162.96039 I-16.25 J0.0
G1 F300.0 Z-4.0
G2 F800.0 X18.375 Y164.92709 I-2.60644 J16.03961
G2 Y193.07291 I8.125 J14.07291
G2 X42.75 Y179.0 I8.125 J-14.07291
G2 X29.10644 Y162.96039 I-16.25 J0.0
G1 F300.0 Z-5.0
G2 F800.0 X18.375 Y164.92709 I-2.60644 J16.03961
G2 Y193.07291 I8.125 J14.07291
G2 X42.75 Y179.0 I8.125 J-14.07291
G2 X29.10644 Y162.96039 I-16.25 J0.0
G1 F300.0 Z-6.0
G2 F800.0 X18.375 Y164.92709 I-2.60644 J16.03961
G2 Y193.07291 I8.125 J14.07291
G2 X42.75 Y179.0 I8.125 J-14.07291
G2 X29.10644 Y162.96039 I-16.25 J0.0
G1 F300.0 Z-7.0
G2 F800.0 X18.375 Y164.92709 I-2.60644 J16.03961
G2 Y193.07291 I8.125 J14.07291
G2 X42.75 Y179.0 I8.125 J-14.07291
G2 X29.10644 Y162.96039 I-16.25 J0.0
G1 F300.0 Z-8.0
G2 F800.0 X18.375 Y164.92709 I-2.60644 J16.03961
G2 Y193.07291 I8.125 J14.07291
G2 X42.75 Y179.0 I8.125 J-14.07291
G2 X29.10644 Y162.96039 I-16.25 J0.0
G1 F300.0 Z-9.0
G2 F800.0 X29.0 Y162.94346 I-2.60644 J16.03961
G2 X28.0 Y162.81938 Z-8.4 I-2.5 J16.05654
G2 X25.0 I-1.5 J16.18062
G2 X24.0 Y162.94346 Z-9.0 I1.5 J16.18062
G2 X18.375 Y164.92709 I2.5 J16.05654
G2 Y193.07291 I8.125 J14.07291
G2 X24.0 Y195.05654 I8.125 J-14.07291
G2 X25.0 Y195.18062 Z-8.4 I2.5 J-16.05654
G2 X28.0 I1.5 J-16.18062
G2 X29.0 Y195.05654 Z-9.0 I-1.5 J-16.18062
G2 X42.75 Y179.0 I-2.5 J-16.05654
G2 X29.10644 Y162.96039 I-16.25 J0.0
G1 F300.0 Z-10.0
G2 F800.0 X29.0 Y162.94346 I-2.60644 J16.03961
G2 X28.0 Y162.81938 Z-8.4 I-2.5 J16.05654
G2 X25.0 I-1.5 J16.18062
G2 X24.0 Y162.94346 Z-10.0 I1.5 J16.18062
G2 X18.375 Y164.92709 I2.5 J16.05654
G2 Y193.07291 I8.125 J14.07291
G2 X24.0 Y195.05654 I8.125 J-14.07291
G2 X25.0 Y195.18062 Z-8.4 I2.5 J-16.05654
G2 X28.0 I1.5 J-16.18062
G2 X29.0 Y195.05654 Z-10.0 I-1.5 J-16.18062
G2 X42.75 Y179.0 I-2.5 J-16.05654
G2 X29.10644 Y162.96039 I-16.25 J0.0
G1 F300.0 Z-11.0
G2 F800.0 X29.0 Y162.94346 I-2.60644 J16.03961
G2 X28.0 Y162.81938 Z-8.4 I-2.5 J16.05654
G2 X25.0 I-1.5 J16.18062
G2 X24.0 Y162.94346 Z-11.0 I1.5 J16.18062
G2 X18.375 Y164.92709 I2.5 J16.05654
G2 Y193.07291 I8.125 J14.07291
G2 X24.0 Y195.05654 I8.125 J-14.07291
G2 X25.0 Y195.18062 Z-8.4 I2.5 J-16.05654
G2 X28.0 I1.5 J-16.18062
G2 X29.0 Y195.05654 Z-11.0 I-1.5 J-16.18062
G2 X42.75 Y179.0 I-2.5 J-16.05654
G2 X29.10644 Y162.96039 I-16.25 J0.0
G1 F300.0 Z-11.4
G2 F800.0 X29.0 Y162.94346 I-2.60644 J16.03961
G2 X28.0 Y162.81938 Z-8.4 I-2.5 J16.05654
G2 X25.0 I-1.5 J16.18062
G2 X24.0 Y162.94346 Z-11.4 I1.5 J16.18062
G2 X18.375 Y164.92709 I2.5 J16.05654
G2 Y193.07291 I8.125 J14.07291
G2 X24.0 Y195.05654 I8.125 J-14.07291
G2 X25.0 Y195.18062 Z-8.4 I2.5 J-16.05654
G2 X28.0 I1.5 J-16.18062
G2 X29.0 Y195.05654 Z-11.4 I-1.5 J-16.18062
G2 X42.75 Y179.0 I-2.5 J-16.05654
G2 X29.10644 Y162.96039 I-16.25 J0.0
G0 Z3.0
G0 X27.14085 Y212.76264
G0 Z1.0
G1 F300.0 Z-1.0
G2 F800.0 X18.375 Y214.92709 I-0.64085 J16.23736
G2 Y243.07291 I8.125 J14.07291
G2 X42.75 Y229.0 I8.125 J-14.07291
G2 X27.14085 Y212.76264 I-16.25 J0.0
G1 F300.0 Z-2.0
G2 F800.0 X18.375 Y214.92709 I-0.64085 J16.23736
G2 Y243.07291 I8.125 J14.07291
G2 X42.75 Y229.0 I8.125 J-14.07291
G2 X27.14085 Y212.76264 I-16.25 J0.0
G1 F300.0 Z-3.0
G2 F800.0 X18.375 Y214.92709 I-0.64085 J16.23736
G2 Y243.07291 I8.125 J14.07291
G2 X42.75 Y229.0 I8.125 J-14.07291
G2 X27.14085 Y212.76264 I-16.25 J0.0
G1 F300.0 Z-4.0
G2 F800.0 X18.375 Y214.92709 I-0.64085 J16.23736
G2 Y243.07291 I8.125 J14.07291
G2 X42.75 Y229.0 I8.125 J-14.07291
G2 X27.14085 Y212.76264 I-16.25 J0.0
G1 F300.0 Z-5.0
G2 F800.0 X18.375 Y214.92709 I-0.64085 J16.23736
G2 Y243.07291 I8.125 J14.07291
G2 X42.75 Y229.0 I8.125 J-14.07291
G2 X27.14085 Y212.76264 I-16.25 J0.0
G1 F300.0 Z-6.0
G2 F800.0 X18.375 Y214.92709 I-0.64085 J16.23736
G2 Y243.07291 I8.125 J14.07291
G2 X42.75 Y229.0 I8.125 J-14.07291
G2 X27.14085 Y212.76264 I-16.25 J0.0
G1 F300.0 Z-7.0
G2 F800.0 X18.375 Y214.92709 I-0.64085 J16.23736
G2 Y243.07291 I8.125 J14.07291
G2 X42.75 Y229.0 I8.125 J-14.07291
G2 X27.14085 Y212.76264 I-16.25 J0.0
G1 F300.0 Z-8.0
G2 F800.0 X18.375 Y214.92709 I-0.64085 J16.23736
G2 Y243.07291 I8.125 J14.07291
G2 X42.75 Y229.0 I8.125 J-14.07291
G2 X27.14085 Y212.76264 I-16.25 J0.0
G1 F300.0 Z-8.4
G2 F800.0 X25.0 Y212.81938 I-0.64085 J16.23736
G2 X24.0 Y212.94346 Z-9.0 I1.5 J16.18062
G2 X18.375 Y214.92709 I2.5 J16.05654
G2 Y243.07291 I8.125 J14.07291
G2 X24.0 Y245.05654 I8.125 J-14.07291
G2 X25.0 Y245.18062 Z-8.4 I2.5 J-16.05654
G2 X28.0 I1.5 J-16.18062
G2 X29.0 Y245.05654 Z-9.0 I-1.5 J-16.18062
G2 X42.75 Y229.0 I-2.5 J-16.05654
G2 X29.0 Y212.94346 I-16.25 J0.0
G2 X28.0 Y212.81938 Z-8.4 I-2.5 J16.05654
G2 X27.14085 Y212.76264 I-1.5 J16.18062
G2 X25.0 Y212.81938 I-0.64085 J16.23736
G2 X24.0 Y212.94346 Z-10.0 I1.5 J16.18062
G2 X18.375 Y214.92709 I2.5 J16.05654
G2 Y243.07291 I8.125 J14.07291
G2 X24.0 Y245.05654 I8.125 J-14.07291
G2 X25.0 Y245.18062 Z-8.4 I2.5 J-16.05654
G2 X28.0 I1.5 J-16.18062
G2 X29.0 Y245.05654 Z-10.0 I-1.5 J-16.18062
G2 X42.75 Y229.0 I-2.5 J-16.05654
G2 X29.0 Y212.94346 I-16.25 J0.0
G2 X28.0 Y212.81938 Z-8.4 I-2.5 J16.05654
G2 X27.14085 Y212.76264 I-1.5 J16.18062
G2 X25.0 Y212.81938 I-0.64085 J16.23736
G2 X24.0 Y212.94346 Z-11.0 I1.5 J16.18062
G2 X18.375 Y214.92709 I2.5 J16.05654
G2 Y243.07291 I8.125 J14.07291
G2 X24.0 Y245.05654 I8.125 J-14.07291
G2 X25.0 Y245.18062 Z-8.4 I2.5 J-16.05654
G2 X28.0 I1.5 J-16.18062
G2 X29.0 Y245.05654 Z-11.0 I-1.5 J-16.18062
G2 X42.75 Y229.0 I-2.5 J-16.05654
G2 X29.0 Y212.94346 I-16.25 J0.0
G2 X28.0 Y212.81938 Z-8.4 I-2.5 J16.05654
G2 X27.14085 Y212.76264 I-1.5 J16.18062
G2 X25.0 Y212.81938 I-0.64085 J16.23736
G2 X24.0 Y212.94346 Z-11.4 I1.5 J16.18062
G2 X18.375 Y214.92709 I2.5 J16.05654
G2 Y243.07291 I8.125 J14.07291
G2 X24.0 Y245.05654 I8.125 J-14.07291
G2 X25.0 Y245.18062 Z-8.4 I2.5 J-16.05654
G2 X28.0 I1.5 J-16.18062
G2 X29.0 Y245.05654 Z-11.4 I-1.5 J-16.18062
G2 X42.75 Y229.0 I-2.5 J-16.05654
G2 X29.0 Y212.94346 I-16.25 J0.0
G2 X28.0 Y212.81938 Z-8.4 I-2.5 J16.05654
G2 X27.14085 Y212.76264 I-1.5 J16.18062
G0 Z3.0
M5
M30
