( Made using CamBam - http://www.cambam.co.uk )
( stand3 7/28/2014 8:19:53 PM )
( T3 : 3.0 )
G21 G90 G64 G40
G0 Z3.0
( T3 : 3.0 )
T3 M6
( Profile1 )
G17
M3 S1000
G0 X25.0 Y124.86
G0 Z1.0
G1 F300.0 Z-1.0
G1 F800.0 X4.0
G3 X2.5 Y123.36 I0.0 J-1.5
G1 Y4.0
G3 X4.0 Y2.5 I1.5 J0.0
G1 X49.0
G3 X50.5 Y4.0 I0.0 J1.5
G1 Y254.0
G3 X49.0 Y255.5 I-1.5 J0.0
G1 X4.0
G3 X2.5 Y254.0 I0.0 J-1.5
G1 Y134.64
G3 X4.0 Y133.14 I1.5 J0.0
G1 X25.0
G1 Y124.86
G1 F300.0 Z-2.0
G1 F800.0 X4.0
G3 X2.5 Y123.36 I0.0 J-1.5
G1 Y4.0
G3 X4.0 Y2.5 I1.5 J0.0
G1 X49.0
G3 X50.5 Y4.0 I0.0 J1.5
G1 Y254.0
G3 X49.0 Y255.5 I-1.5 J0.0
G1 X4.0
G3 X2.5 Y254.0 I0.0 J-1.5
G1 Y134.64
G3 X4.0 Y133.14 I1.5 J0.0
G1 X25.0
G1 Y124.86
G1 F300.0 Z-3.0
G1 F800.0 X4.0
G3 X2.5 Y123.36 I0.0 J-1.5
G1 Y4.0
G3 X4.0 Y2.5 I1.5 J0.0
G1 X49.0
G3 X50.5 Y4.0 I0.0 J1.5
G1 Y254.0
G3 X49.0 Y255.5 I-1.5 J0.0
G1 X4.0
G3 X2.5 Y254.0 I0.0 J-1.5
G1 Y134.64
G3 X4.0 Y133.14 I1.5 J0.0
G1 X25.0
G1 Y124.86
G1 F300.0 Z-4.0
G1 F800.0 X4.0
G3 X2.5 Y123.36 I0.0 J-1.5
G1 Y4.0
G3 X4.0 Y2.5 I1.5 J0.0
G1 X49.0
G3 X50.5 Y4.0 I0.0 J1.5
G1 Y254.0
G3 X49.0 Y255.5 I-1.5 J0.0
G1 X4.0
G3 X2.5 Y254.0 I0.0 J-1.5
G1 Y134.64
G3 X4.0 Y133.14 I1.5 J0.0
G1 X25.0
G1 Y124.86
G1 F300.0 Z-5.0
G1 F800.0 X4.0
G3 X2.5 Y123.36 I0.0 J-1.5
G1 Y4.0
G3 X4.0 Y2.5 I1.5 J0.0
G1 X49.0
G3 X50.5 Y4.0 I0.0 J1.5
G1 Y254.0
G3 X49.0 Y255.5 I-1.5 J0.0
G1 X4.0
G3 X2.5 Y254.0 I0.0 J-1.5
G1 Y134.64
G3 X4.0 Y133.14 I1.5 J0.0
G1 X25.0
G1 Y124.86
G1 F300.0 Z-6.0
G1 F800.0 X4.0
G3 X2.5 Y123.36 I0.0 J-1.5
G1 Y4.0
G3 X4.0 Y2.5 I1.5 J0.0
G1 X49.0
G3 X50.5 Y4.0 I0.0 J1.5
G1 Y254.0
G3 X49.0 Y255.5 I-1.5 J0.0
G1 X4.0
G3 X2.5 Y254.0 I0.0 J-1.5
G1 Y134.64
G3 X4.0 Y133.14 I1.5 J0.0
G1 X25.0
G1 Y124.86
G1 F300.0 Z-7.0
G1 F800.0 X4.0
G3 X2.5 Y123.36 I0.0 J-1.5
G1 Y4.0
G3 X4.0 Y2.5 I1.5 J0.0
G1 X49.0
G3 X50.5 Y4.0 I0.0 J1.5
G1 Y254.0
G3 X49.0 Y255.5 I-1.5 J0.0
G1 X4.0
G3 X2.5 Y254.0 I0.0 J-1.5
G1 Y134.64
G3 X4.0 Y133.14 I1.5 J0.0
G1 X25.0
G1 Y124.86
G1 F300.0 Z-8.0
G1 F800.0 X4.0
G3 X2.5 Y123.36 I0.0 J-1.5
G1 Y4.0
G3 X4.0 Y2.5 I1.5 J0.0
G1 X49.0
G3 X50.5 Y4.0 I0.0 J1.5
G1 Y254.0
G3 X49.0 Y255.5 I-1.5 J0.0
G1 X4.0
G3 X2.5 Y254.0 I0.0 J-1.5
G1 Y134.64
G3 X4.0 Y133.14 I1.5 J0.0
G1 X25.0
G1 Y124.86
G1 F300.0 Z-9.0
G1 F800.0 X4.0
G3 X2.5 Y123.36 I0.0 J-1.5
G1 Y69.485
G1 Y67.985 Z-8.4
G1 Y64.985
G1 Y63.485 Z-9.0
G1 Y4.0
G3 X4.0 Y2.5 I1.5 J0.0
G1 X49.0
G3 X50.5 Y4.0 I0.0 J1.5
G1 Y52.265
G1 Y53.765 Z-8.4
G1 Y56.765
G1 Y58.265 Z-9.0
G1 Y211.015
G1 Y212.515 Z-8.4
G1 Y215.515
G1 Y217.015 Z-9.0
G1 Y254.0
G3 X49.0 Y255.5 I-1.5 J0.0
G1 X4.0
G3 X2.5 Y254.0 I0.0 J-1.5
G1 Y183.235
G1 Y181.735 Z-8.4
G1 Y178.735
G1 Y177.235 Z-9.0
G1 Y134.64
G3 X4.0 Y133.14 I1.5 J0.0
G1 X25.0
G1 Y124.86
G1 F300.0 Z-10.0
G1 F800.0 X4.0
G3 X2.5 Y123.36 I0.0 J-1.5
G1 Y69.485
G1 Y67.985 Z-8.4
G1 Y64.985
G1 Y63.485 Z-10.0
G1 Y4.0
G3 X4.0 Y2.5 I1.5 J0.0
G1 X49.0
G3 X50.5 Y4.0 I0.0 J1.5
G1 Y52.265
G1 Y53.765 Z-8.4
G1 Y56.765
G1 Y58.265 Z-10.0
G1 Y211.015
G1 Y212.515 Z-8.4
G1 Y215.515
G1 Y217.015 Z-10.0
G1 Y254.0
G3 X49.0 Y255.5 I-1.5 J0.0
G1 X4.0
G3 X2.5 Y254.0 I0.0 J-1.5
G1 Y183.235
G1 Y181.735 Z-8.4
G1 Y178.735
G1 Y177.235 Z-10.0
G1 Y134.64
G3 X4.0 Y133.14 I1.5 J0.0
G1 X25.0
G1 Y124.86
G1 F300.0 Z-11.0
G1 F800.0 X4.0
G3 X2.5 Y123.36 I0.0 J-1.5
G1 Y69.485
G1 Y67.985 Z-8.4
G1 Y64.985
G1 Y63.485 Z-11.0
G1 Y4.0
G3 X4.0 Y2.5 I1.5 J0.0
G1 X49.0
G3 X50.5 Y4.0 I0.0 J1.5
G1 Y52.265
G1 Y53.765 Z-8.4
G1 Y56.765
G1 Y58.265 Z-11.0
G1 Y211.015
G1 Y212.515 Z-8.4
G1 Y215.515
G1 Y217.015 Z-11.0
G1 Y254.0
G3 X49.0 Y255.5 I-1.5 J0.0
G1 X4.0
G3 X2.5 Y254.0 I0.0 J-1.5
G1 Y183.235
G1 Y181.735 Z-8.4
G1 Y178.735
G1 Y177.235 Z-11.0
G1 Y134.64
G3 X4.0 Y133.14 I1.5 J0.0
G1 X25.0
G1 Y124.86
G1 F300.0 Z-11.4
G1 F800.0 X4.0
G3 X2.5 Y123.36 I0.0 J-1.5
G1 Y69.485
G1 Y67.985 Z-8.4
G1 Y64.985
G1 Y63.485 Z-11.4
G1 Y4.0
G3 X4.0 Y2.5 I1.5 J0.0
G1 X49.0
G3 X50.5 Y4.0 I0.0 J1.5
G1 Y52.265
G1 Y53.765 Z-8.4
G1 Y56.765
G1 Y58.265 Z-11.4
G1 Y211.015
G1 Y212.515 Z-8.4
G1 Y215.515
G1 Y217.015 Z-11.4
G1 Y254.0
G3 X49.0 Y255.5 I-1.5 J0.0
G1 X4.0
G3 X2.5 Y254.0 I0.0 J-1.5
G1 Y183.235
G1 Y181.735 Z-8.4
G1 Y178.735
G1 Y177.235 Z-11.4
G1 Y134.64
G3 X4.0 Y133.14 I1.5 J0.0
G1 X25.0
G1 Y124.86
G0 Z3.0
M5
M30
