( Made using CamBam - http://www.cambam.co.uk )
( stand2 7/27/2014 10:36:36 PM )
( T12 : 2.0 )
G21 G90 G64 G40
G0 Z3.0
( T12 : 2.0 )
T12 M6
( Profile1 )
G17
M3 S1000
G0 X4.0 Y129.495
G0 Z1.0
G1 F300.0 Z-1.0
G1 F800.0 X25.5
G1 Y128.505
G1 X4.0
G3 X3.0 Y127.505 I0.0 J-1.0
G1 Y4.0
G3 X4.0 Y3.0 I1.0 J0.0
G1 X49.0
G3 X50.0 Y4.0 I0.0 J1.0
G1 Y254.0
G3 X49.0 Y255.0 I-1.0 J0.0
G1 X4.0
G3 X3.0 Y254.0 I0.0 J-1.0
G1 Y130.495
G3 X4.0 Y129.495 I1.0 J0.0
G1 F300.0 Z-2.0
G1 F800.0 X25.5
G1 Y128.505
G1 X4.0
G3 X3.0 Y127.505 I0.0 J-1.0
G1 Y4.0
G3 X4.0 Y3.0 I1.0 J0.0
G1 X49.0
G3 X50.0 Y4.0 I0.0 J1.0
G1 Y254.0
G3 X49.0 Y255.0 I-1.0 J0.0
G1 X4.0
G3 X3.0 Y254.0 I0.0 J-1.0
G1 Y130.495
G3 X4.0 Y129.495 I1.0 J0.0
G1 F300.0 Z-3.0
G1 F800.0 X25.5
G1 Y128.505
G1 X4.0
G3 X3.0 Y127.505 I0.0 J-1.0
G1 Y4.0
G3 X4.0 Y3.0 I1.0 J0.0
G1 X49.0
G3 X50.0 Y4.0 I0.0 J1.0
G1 Y254.0
G3 X49.0 Y255.0 I-1.0 J0.0
G1 X4.0
G3 X3.0 Y254.0 I0.0 J-1.0
G1 Y130.495
G3 X4.0 Y129.495 I1.0 J0.0
G1 F300.0 Z-4.0
G1 F800.0 X25.5
G1 Y128.505
G1 X4.0
G3 X3.0 Y127.505 I0.0 J-1.0
G1 Y4.0
G3 X4.0 Y3.0 I1.0 J0.0
G1 X49.0
G3 X50.0 Y4.0 I0.0 J1.0
G1 Y254.0
G3 X49.0 Y255.0 I-1.0 J0.0
G1 X4.0
G3 X3.0 Y254.0 I0.0 J-1.0
G1 Y130.495
G3 X4.0 Y129.495 I1.0 J0.0
G1 F300.0 Z-5.0
G1 F800.0 X25.5
G1 Y128.505
G1 X4.0
G3 X3.0 Y127.505 I0.0 J-1.0
G1 Y4.0
G3 X4.0 Y3.0 I1.0 J0.0
G1 X49.0
G3 X50.0 Y4.0 I0.0 J1.0
G1 Y254.0
G3 X49.0 Y255.0 I-1.0 J0.0
G1 X4.0
G3 X3.0 Y254.0 I0.0 J-1.0
G1 Y130.495
G3 X4.0 Y129.495 I1.0 J0.0
G1 F300.0 Z-6.0
G1 F800.0 X25.5
G1 Y128.505
G1 X4.0
G3 X3.0 Y127.505 I0.0 J-1.0
G1 Y4.0
G3 X4.0 Y3.0 I1.0 J0.0
G1 X49.0
G3 X50.0 Y4.0 I0.0 J1.0
G1 Y254.0
G3 X49.0 Y255.0 I-1.0 J0.0
G1 X4.0
G3 X3.0 Y254.0 I0.0 J-1.0
G1 Y130.495
G3 X4.0 Y129.495 I1.0 J0.0
G1 F300.0 Z-7.0
G1 F800.0 X25.5
G1 Y128.505
G1 X4.0
G3 X3.0 Y127.505 I0.0 J-1.0
G1 Y4.0
G3 X4.0 Y3.0 I1.0 J0.0
G1 X49.0
G3 X50.0 Y4.0 I0.0 J1.0
G1 Y254.0
G3 X49.0 Y255.0 I-1.0 J0.0
G1 X4.0
G3 X3.0 Y254.0 I0.0 J-1.0
G1 Y130.495
G3 X4.0 Y129.495 I1.0 J0.0
G1 F300.0 Z-8.0
G1 F800.0 X25.5
G1 Y128.505
G1 X4.0
G3 X3.0 Y127.505 I0.0 J-1.0
G1 Y4.0
G3 X4.0 Y3.0 I1.0 J0.0
G1 X49.0
G3 X50.0 Y4.0 I0.0 J1.0
G1 Y254.0
G3 X49.0 Y255.0 I-1.0 J0.0
G1 X4.0
G3 X3.0 Y254.0 I0.0 J-1.0
G1 Y130.495
G3 X4.0 Y129.495 I1.0 J0.0
G1 F300.0 Z-9.0
G1 F800.0 X25.5
G1 Y128.505
G1 X4.0
G3 X3.0 Y127.505 I0.0 J-1.0
G1 Y4.0
G3 X4.0 Y3.0 I1.0 J0.0
G1 X49.0
G3 X50.0 Y4.0 I0.0 J1.0
G1 Y254.0
G3 X49.0 Y255.0 I-1.0 J0.0
G1 X4.0
G3 X3.0 Y254.0 I0.0 J-1.0
G1 Y130.495
G3 X4.0 Y129.495 I1.0 J0.0
G1 F300.0 Z-10.0
G1 F800.0 X25.5
G1 Y128.505
G1 X4.0
G3 X3.0 Y127.505 I0.0 J-1.0
G1 Y98.12
G1 Y97.12 Z-9.0
G1 Y95.12
G1 Y94.12 Z-10.0
G1 Y4.0
G3 X4.0 Y3.0 I1.0 J0.0
G1 X49.0
G3 X50.0 Y4.0 I0.0 J1.0
G1 Y23.63
G1 Y24.63 Z-9.0
G1 Y26.63
G1 Y27.63 Z-10.0
G1 Y182.38
G1 Y183.38 Z-9.0
G1 Y185.38
G1 Y186.38 Z-10.0
G1 Y254.0
G3 X49.0 Y255.0 I-1.0 J0.0
G1 X4.0
G3 X3.0 Y254.0 I0.0 J-1.0
G1 Y211.87
G1 Y210.87 Z-9.0
G1 Y208.87
G1 Y207.87 Z-10.0
G1 Y130.495
G3 X4.0 Y129.495 I1.0 J0.0
G1 F300.0 Z-11.0
G1 F800.0 X25.5
G1 Y128.505
G1 X4.0
G3 X3.0 Y127.505 I0.0 J-1.0
G1 Y98.12
G1 Y97.12 Z-9.0
G1 Y95.12
G1 Y94.12 Z-11.0
G1 Y4.0
G3 X4.0 Y3.0 I1.0 J0.0
G1 X49.0
G3 X50.0 Y4.0 I0.0 J1.0
G1 Y23.63
G1 Y24.63 Z-9.0
G1 Y26.63
G1 Y27.63 Z-11.0
G1 Y182.38
G1 Y183.38 Z-9.0
G1 Y185.38
G1 Y186.38 Z-11.0
G1 Y254.0
G3 X49.0 Y255.0 I-1.0 J0.0
G1 X4.0
G3 X3.0 Y254.0 I0.0 J-1.0
G1 Y211.87
G1 Y210.87 Z-9.0
G1 Y208.87
G1 Y207.87 Z-11.0
G1 Y130.495
G3 X4.0 Y129.495 I1.0 J0.0
G1 F300.0 Z-12.0
G1 F800.0 X25.5
G1 Y128.505
G1 X4.0
G3 X3.0 Y127.505 I0.0 J-1.0
G1 Y98.12
G1 Y97.12 Z-9.0
G1 Y95.12
G1 Y94.12 Z-12.0
G1 Y4.0
G3 X4.0 Y3.0 I1.0 J0.0
G1 X49.0
G3 X50.0 Y4.0 I0.0 J1.0
G1 Y23.63
G1 Y24.63 Z-9.0
G1 Y26.63
G1 Y27.63 Z-12.0
G1 Y182.38
G1 Y183.38 Z-9.0
G1 Y185.38
G1 Y186.38 Z-12.0
G1 Y254.0
G3 X49.0 Y255.0 I-1.0 J0.0
G1 X4.0
G3 X3.0 Y254.0 I0.0 J-1.0
G1 Y211.87
G1 Y210.87 Z-9.0
G1 Y208.87
G1 Y207.87 Z-12.0
G1 Y130.495
G3 X4.0 Y129.495 I1.0 J0.0
G0 Z3.0
M5
M30
