( pcb2gcode 1.1.4 )
      
G94     ( Millimeters per minute feed rate. )
G21     ( Units == Millimeters. )

G90     ( Absolute coordinates.        )
S30000  ( RPM spindle speed.           )
F300.00000
M3      ( Spindle on clockwise.        )

G64 P0.01000 ( set maximum deviation from commanded toolpath )

G04 P0 ( dwell for no time -- G64 should not smooth over this point )
G00 Z3.00000 ( retract )

G00 X-33.57880 Y63.25470 ( rapid move to begin. )
G01 Z-0.10000
G04 P0 ( dwell for no time -- G64 should not smooth over this point )
X-33.57880 Y63.25470
X-33.62960 Y63.25470
X-33.62960 Y63.22930
X-33.68040 Y63.22930
X-33.68040 Y63.20390
X-33.70580 Y63.20390
X-33.70580 Y63.17850
X-33.73120 Y63.17850
X-33.73120 Y63.15310
X-33.75660 Y63.15310
X-33.75660 Y63.12770
X-33.78200 Y63.12770
X-33.78200 Y63.10230
X-33.80740 Y63.10230
X-33.80740 Y63.07690
X-33.83280 Y63.07690
X-33.83280 Y63.05150
X-33.85820 Y63.05150
X-33.85820 Y63.02610
X-33.88360 Y63.02610
X-33.88360 Y63.00070
X-33.90900 Y63.00070
X-33.90900 Y62.97530
X-33.93440 Y62.97530
X-33.93440 Y62.94990
X-33.95980 Y62.94990
X-33.95980 Y62.92450
X-33.98520 Y62.92450
X-33.98520 Y62.89910
X-34.01060 Y62.89910
X-34.01060 Y62.87370
X-34.03600 Y62.87370
X-34.03600 Y62.84830
X-34.06140 Y62.84830
X-34.06140 Y62.82290
X-34.08680 Y62.82290
X-34.08680 Y62.79750
X-34.11220 Y62.79750
X-34.11220 Y62.77210
X-34.13760 Y62.77210
X-34.13760 Y62.74670
X-34.16300 Y62.74670
X-34.16300 Y62.72130
X-34.18840 Y62.72130
X-34.18840 Y62.69590
X-34.21380 Y62.69590
X-34.21380 Y62.67050
X-34.23920 Y62.67050
X-34.23920 Y62.64510
X-34.26460 Y62.64510
X-34.26460 Y62.61970
X-34.29000 Y62.61970
X-34.29000 Y62.59430
X-34.31540 Y62.59430
X-34.31540 Y62.56890
X-34.34080 Y62.56890
X-34.34080 Y62.54350
X-34.36620 Y62.54350
X-34.36620 Y62.51810
X-34.39160 Y62.51810
X-34.39160 Y62.49270
X-34.41700 Y62.49270
X-34.41700 Y62.46730
X-34.44240 Y62.46730
X-34.44240 Y62.44190
X-34.46780 Y62.44190
X-34.46780 Y62.41650
X-34.49320 Y62.41650
X-34.49320 Y62.39110
X-34.51860 Y62.39110
X-34.51860 Y62.36570
X-34.54400 Y62.36570
X-34.54400 Y62.34030
X-34.56940 Y62.34030
X-34.56940 Y62.31490
X-34.59480 Y62.31490
X-34.59480 Y62.28950
X-34.62020 Y62.28950
X-34.62020 Y62.26410
X-34.64560 Y62.26410
X-34.64560 Y62.23870
X-34.67100 Y62.23870
X-34.67100 Y62.21330
X-34.69640 Y62.21330
X-34.69640 Y62.16250
X-34.72180 Y62.16250
X-34.72180 Y62.13710
X-34.74720 Y62.13710
X-34.74720 Y62.06090
X-34.77260 Y62.06090
X-34.77260 Y2.42170
X-34.79800 Y2.42170
X-34.79800 Y2.39630
X-34.82340 Y2.39630
X-34.82340 Y2.37090
X-34.84880 Y2.37090
X-34.84880 Y2.34550
X-34.87420 Y2.34550
X-34.87420 Y2.32010
X-34.89960 Y2.32010
X-34.89960 Y2.26930
X-34.92500 Y2.26930
X-34.92500 Y2.19310
X-34.95040 Y2.19310
X-34.95040 Y1.91370
X-34.92500 Y1.91370
X-34.92500 Y1.83750
X-34.89960 Y1.83750
X-34.89960 Y1.78670
X-34.87420 Y1.78670
X-34.87420 Y1.76130
X-34.84880 Y1.76130
X-34.84880 Y1.73590
X-34.82340 Y1.73590
X-34.82340 Y1.71050
X-34.79800 Y1.71050
X-34.79800 Y1.68510
X-34.77260 Y1.68510
X-34.77260 Y1.65970
X-34.72180 Y1.65970
X-34.72180 Y1.63430
X-34.67100 Y1.63430
X-34.67100 Y1.60890
X-34.34080 Y1.60890
X-34.34080 Y1.63430
X-34.29000 Y1.63430
X-34.29000 Y1.65970
X-34.23920 Y1.65970
X-34.23920 Y1.68510
X-34.21380 Y1.68510
X-34.21380 Y1.71050
X-34.18840 Y1.71050
X-34.18840 Y1.73590
X-34.16300 Y1.73590
X-34.16300 Y1.76130
X-34.13760 Y1.76130
X-34.13760 Y1.78670
X-34.11220 Y1.78670
X-34.11220 Y1.83750
X-34.08680 Y1.83750
X-34.08680 Y1.91370
X-34.06140 Y1.91370
X-34.06140 Y2.19310
X-34.08680 Y2.19310
X-34.08680 Y2.26930
X-34.11220 Y2.26930
X-34.11220 Y2.32010
X-34.13760 Y2.32010
X-34.13760 Y2.34550
X-34.16300 Y2.34550
X-34.16300 Y2.37090
X-34.18840 Y2.37090
X-34.18840 Y2.39630
X-34.21380 Y2.39630
X-34.21380 Y2.42170
X-34.23920 Y2.42170
X-34.23920 Y61.88310
X-34.21380 Y61.88310
X-34.21380 Y61.90850
X-34.18840 Y61.90850
X-34.18840 Y61.93390
X-34.16300 Y61.93390
X-34.16300 Y61.95930
X-34.13760 Y61.95930
X-34.13760 Y61.98470
X-34.11220 Y61.98470
X-34.11220 Y62.01010
X-34.08680 Y62.01010
X-34.08680 Y62.03550
X-34.06140 Y62.03550
X-34.06140 Y62.06090
X-34.03600 Y62.06090
X-34.03600 Y62.08630
X-34.01060 Y62.08630
X-34.01060 Y62.11170
X-33.98520 Y62.11170
X-33.98520 Y62.13710
X-33.95980 Y62.13710
X-33.95980 Y62.16250
X-33.93440 Y62.16250
X-33.93440 Y62.18790
X-33.90900 Y62.18790
X-33.90900 Y62.21330
X-33.88360 Y62.21330
X-33.88360 Y62.23870
X-33.85820 Y62.23870
X-33.85820 Y62.26410
X-33.83280 Y62.26410
X-33.83280 Y62.28950
X-33.80740 Y62.28950
X-33.80740 Y62.31490
X-33.78200 Y62.31490
X-33.78200 Y62.34030
X-33.75660 Y62.34030
X-33.75660 Y62.36570
X-33.73120 Y62.36570
X-33.73120 Y62.39110
X-33.70580 Y62.39110
X-33.70580 Y62.41650
X-33.68040 Y62.41650
X-33.68040 Y62.44190
X-33.65500 Y62.44190
X-33.65500 Y62.46730
X-33.62960 Y62.46730
X-33.62960 Y62.49270
X-33.60420 Y62.49270
X-33.60420 Y62.51810
X-33.57880 Y62.51810
X-33.57880 Y62.54350
X-33.55340 Y62.54350
X-33.55340 Y62.56890
X-33.52800 Y62.56890
X-33.52800 Y62.59430
X-33.50260 Y62.59430
X-33.50260 Y62.61970
X-33.47720 Y62.61970
X-33.47720 Y62.64510
X-33.45180 Y62.64510
X-33.45180 Y62.67050
X-33.42640 Y62.67050
X-33.42640 Y62.69590
X-33.40100 Y62.69590
X-33.40100 Y62.72130
X-33.37560 Y62.72130
X-33.37560 Y62.74670
X-17.85620 Y62.74670
X-17.85620 Y62.72130
X-17.83080 Y62.72130
X-17.83080 Y62.69590
X-17.80540 Y62.69590
X-17.80540 Y62.67050
X-17.78000 Y62.67050
X-17.78000 Y62.64510
X-17.75460 Y62.64510
X-17.75460 Y62.61970
X-17.72920 Y62.61970
X-17.72920 Y62.59430
X-17.70380 Y62.59430
X-17.70380 Y62.56890
X-17.67840 Y62.56890
X-17.67840 Y62.54350
X-17.65300 Y62.54350
X-17.65300 Y62.51810
X-17.62760 Y62.51810
X-17.62760 Y62.49270
X-17.60220 Y62.49270
X-17.60220 Y62.46730
X-17.57680 Y62.46730
X-17.57680 Y62.44190
X-17.55140 Y62.44190
X-17.55140 Y62.41650
X-17.52600 Y62.41650
X-17.52600 Y62.39110
X-17.50060 Y62.39110
X-17.50060 Y62.36570
X-17.47520 Y62.36570
X-17.47520 Y62.34030
X-17.44980 Y62.34030
X-17.44980 Y62.31490
X-17.42440 Y62.31490
X-17.42440 Y62.28950
X-17.39900 Y62.28950
X-17.39900 Y62.26410
X-17.37360 Y62.26410
X-17.37360 Y62.23870
X-17.34820 Y62.23870
X-17.34820 Y62.21330
X-17.32280 Y62.21330
X-17.32280 Y62.18790
X-17.29740 Y62.18790
X-17.29740 Y62.16250
X-17.27200 Y62.16250
X-17.27200 Y62.13710
X-17.24660 Y62.13710
X-17.24660 Y62.11170
X-17.22120 Y62.11170
X-17.22120 Y62.08630
X-17.19580 Y62.08630
X-17.19580 Y62.06090
X-17.17040 Y62.06090
X-17.17040 Y62.03550
X-17.14500 Y62.03550
X-17.14500 Y62.01010
X-17.11960 Y62.01010
X-17.11960 Y61.98470
X-17.09420 Y61.98470
X-17.09420 Y61.95930
X-17.06880 Y61.95930
X-17.06880 Y61.93390
X-17.04340 Y61.93390
X-17.04340 Y61.90850
X-17.01800 Y61.90850
X-17.01800 Y61.88310
X-16.99260 Y61.88310
X-16.99260 Y61.85770
X-16.96720 Y61.85770
X-16.96720 Y61.83230
X-16.94180 Y61.83230
X-16.94180 Y61.80690
X-16.91640 Y61.80690
X-16.91640 Y61.78150
X-16.89100 Y61.78150
X-16.89100 Y61.75610
X-16.86560 Y61.75610
X-16.86560 Y61.73070
X-16.84020 Y61.73070
X-16.84020 Y61.70530
X-16.81480 Y61.70530
X-16.81480 Y61.67990
X-16.78940 Y61.67990
X-16.78940 Y61.65450
X-16.76400 Y61.65450
X-16.76400 Y61.62910
X-16.73860 Y61.62910
X-16.73860 Y61.60370
X-16.71320 Y61.60370
X-16.71320 Y61.57830
X-16.68780 Y61.57830
X-16.68780 Y61.55290
X-16.66240 Y61.55290
X-16.66240 Y61.52750
X-16.63700 Y61.52750
X-16.63700 Y61.50210
X-16.61160 Y61.50210
X-16.61160 Y61.47670
X-16.58620 Y61.47670
X-16.58620 Y61.45130
X-16.56080 Y61.45130
X-16.56080 Y61.42590
X-16.53540 Y61.42590
X-16.53540 Y61.40050
X-16.51000 Y61.40050
X-16.51000 Y61.37510
X-16.48460 Y61.37510
X-16.48460 Y61.34970
X-16.45920 Y61.34970
X-16.45920 Y61.32430
X-16.43380 Y61.32430
X-16.43380 Y61.29890
X-16.40840 Y61.29890
X-16.40840 Y61.27350
X-16.38300 Y61.27350
X-16.38300 Y61.24810
X-16.35760 Y61.24810
X-16.35760 Y61.22270
X-16.33220 Y61.22270
X-16.33220 Y61.19730
X-16.30680 Y61.19730
X-16.30680 Y61.17190
X-16.28140 Y61.17190
X-16.28140 Y61.14650
X-16.25600 Y61.14650
X-16.25600 Y61.12110
X-16.23060 Y61.12110
X-16.23060 Y61.09570
X-16.20520 Y61.09570
X-16.20520 Y61.07030
X-16.17980 Y61.07030
X-16.17980 Y61.04490
X-16.15440 Y61.04490
X-16.15440 Y61.01950
X-16.12900 Y61.01950
X-16.12900 Y60.99410
X-16.10360 Y60.99410
X-16.10360 Y60.96870
X-16.07820 Y60.96870
X-16.07820 Y60.94330
X-16.05280 Y60.94330
X-16.05280 Y60.91790
X-16.02740 Y60.91790
X-16.02740 Y60.89250
X-16.00200 Y60.89250
X-16.00200 Y60.86710
X-15.97660 Y60.86710
X-15.97660 Y60.84170
X-15.95120 Y60.84170
X-15.95120 Y60.81630
X-15.92580 Y60.81630
X-15.92580 Y60.79090
X-15.90040 Y60.79090
X-15.90040 Y60.76550
X-15.87500 Y60.76550
X-15.87500 Y60.74010
X-15.84960 Y60.74010
X-15.84960 Y60.71470
X-15.82420 Y60.71470
X-15.82420 Y60.68930
X-15.79880 Y60.68930
X-15.79880 Y60.66390
X-15.77340 Y60.66390
X-15.77340 Y60.63850
X-15.74800 Y60.63850
X-15.74800 Y60.61310
X-15.72260 Y60.61310
X-15.72260 Y60.58770
X-15.69720 Y60.58770
X-15.69720 Y60.56230
X-15.67180 Y60.56230
X-15.67180 Y60.53690
X-15.64640 Y60.53690
X-15.64640 Y60.51150
X-15.62100 Y60.51150
X-15.62100 Y60.48610
X-15.59560 Y60.48610
X-15.59560 Y60.46070
X-15.57020 Y60.46070
X-15.57020 Y60.43530
X-15.54480 Y60.43530
X-15.54480 Y60.40990
X-15.51940 Y60.40990
X-15.51940 Y60.38450
X-15.49400 Y60.38450
X-15.49400 Y60.35910
X-15.46860 Y60.35910
X-15.46860 Y60.33370
X-15.44320 Y60.33370
X-15.44320 Y60.30830
X-15.41780 Y60.30830
X-15.41780 Y60.28290
X-15.39240 Y60.28290
X-15.39240 Y60.25750
X-15.36700 Y60.25750
X-15.36700 Y60.23210
X-15.34160 Y60.23210
X-15.34160 Y60.20670
X-15.31620 Y60.20670
X-15.31620 Y60.18130
X-15.29080 Y60.18130
X-15.29080 Y60.15590
X-15.26540 Y60.15590
X-15.26540 Y60.13050
X-15.24000 Y60.13050
X-15.24000 Y60.10510
X-15.21460 Y60.10510
X-15.21460 Y60.07970
X-15.18920 Y60.07970
X-15.18920 Y60.05430
X-15.16380 Y60.05430
X-15.16380 Y60.02890
X-15.13840 Y60.02890
X-15.13840 Y60.00350
X-15.11300 Y60.00350
X-15.11300 Y59.97810
X-15.08760 Y59.97810
X-15.08760 Y59.95270
X-15.06220 Y59.95270
X-15.06220 Y59.92730
X-15.03680 Y59.92730
X-15.03680 Y59.90190
X-15.01140 Y59.90190
X-15.01140 Y59.87650
X-14.98600 Y59.87650
X-14.98600 Y59.85110
X-14.96060 Y59.85110
X-14.96060 Y59.82570
X-14.93520 Y59.82570
X-14.93520 Y59.80030
X-14.90980 Y59.80030
X-14.90980 Y59.77490
X-14.88440 Y59.77490
X-14.88440 Y59.74950
X-14.85900 Y59.74950
X-14.85900 Y59.72410
X-14.83360 Y59.72410
X-14.83360 Y59.69870
X-14.80820 Y59.69870
X-14.80820 Y59.67330
X-14.78280 Y59.67330
X-14.78280 Y59.64790
X-14.75740 Y59.64790
X-14.75740 Y59.62250
X-14.73200 Y59.62250
X-14.73200 Y59.59710
X-14.70660 Y59.59710
X-14.70660 Y59.57170
X-14.68120 Y59.57170
X-14.68120 Y59.54630
X-14.65580 Y59.54630
X-14.65580 Y59.52090
X-14.63040 Y59.52090
X-14.63040 Y59.49550
X-14.60500 Y59.49550
X-14.60500 Y59.47010
X-14.57960 Y59.47010
X-14.57960 Y59.44470
X-14.55420 Y59.44470
X-14.55420 Y59.41930
X-14.52880 Y59.41930
X-14.52880 Y59.39390
X-14.50340 Y59.39390
X-14.50340 Y59.36850
X-14.47800 Y59.36850
X-14.47800 Y59.34310
X-14.45260 Y59.34310
X-14.45260 Y59.31770
X-14.42720 Y59.31770
X-14.42720 Y59.29230
X-14.40180 Y59.29230
X-14.40180 Y59.26690
X-14.37640 Y59.26690
X-14.37640 Y59.24150
X-14.35100 Y59.24150
X-14.35100 Y59.21610
X-14.32560 Y59.21610
X-14.32560 Y59.19070
X-14.30020 Y59.19070
X-14.30020 Y59.16530
X-14.27480 Y59.16530
X-14.27480 Y59.13990
X-14.24940 Y59.13990
X-14.24940 Y59.11450
X-14.22400 Y59.11450
X-14.22400 Y59.08910
X-14.19860 Y59.08910
X-14.19860 Y59.06370
X-14.17320 Y59.06370
X-14.17320 Y59.03830
X-14.14780 Y59.03830
X-14.14780 Y59.01290
X-14.12240 Y59.01290
X-14.12240 Y58.98750
X-14.09700 Y58.98750
X-14.09700 Y58.96210
X-14.07160 Y58.96210
X-14.07160 Y58.93670
X-14.04620 Y58.93670
X-14.04620 Y58.91130
X-14.02080 Y58.91130
X-14.02080 Y58.88590
X-13.99540 Y58.88590
X-13.99540 Y58.86050
X-13.97000 Y58.86050
X-13.97000 Y58.83510
X-13.94460 Y58.83510
X-13.94460 Y58.80970
X-13.91920 Y58.80970
X-13.91920 Y58.78430
X-13.89380 Y58.78430
X-13.89380 Y58.75890
X-13.86840 Y58.75890
X-13.86840 Y58.73350
X-13.84300 Y58.73350
X-13.84300 Y58.70810
X-13.81760 Y58.70810
X-13.81760 Y58.68270
X-13.79220 Y58.68270
X-13.79220 Y58.65730
X-13.76680 Y58.65730
X-13.76680 Y58.63190
X-13.74140 Y58.63190
X-13.74140 Y58.60650
X-13.71600 Y58.60650
X-13.71600 Y58.58110
X-13.69060 Y58.58110
X-13.69060 Y58.55570
X-13.66520 Y58.55570
X-13.66520 Y58.53030
X-13.63980 Y58.53030
X-13.63980 Y58.50490
X-13.61440 Y58.50490
X-13.61440 Y58.47950
X-13.58900 Y58.47950
X-13.58900 Y58.45410
X-13.56360 Y58.45410
X-13.56360 Y58.42870
X-13.53820 Y58.42870
X-13.53820 Y58.40330
X-13.51280 Y58.40330
X-13.51280 Y58.37790
X-13.48740 Y58.37790
X-13.48740 Y58.35250
X-13.46200 Y58.35250
X-13.46200 Y58.32710
X-13.43660 Y58.32710
X-13.43660 Y58.30170
X-13.41120 Y58.30170
X-13.41120 Y58.27630
X-13.38580 Y58.27630
X-13.38580 Y58.25090
X-13.36040 Y58.25090
X-13.36040 Y58.22550
X-13.33500 Y58.22550
X-13.33500 Y58.20010
X-13.30960 Y58.20010
X-13.30960 Y58.17470
X-13.28420 Y58.17470
X-13.28420 Y58.14930
X-13.25880 Y58.14930
X-13.25880 Y58.12390
X-13.23340 Y58.12390
X-13.23340 Y58.09850
X-13.20800 Y58.09850
X-13.20800 Y58.07310
X-13.18260 Y58.07310
X-13.18260 Y58.04770
X-13.15720 Y58.04770
X-13.15720 Y58.02230
X-13.13180 Y58.02230
X-13.13180 Y57.99690
X-13.10640 Y57.99690
X-13.10640 Y57.97150
X-13.08100 Y57.97150
X-13.08100 Y57.94610
X-13.05560 Y57.94610
X-13.05560 Y57.92070
X-13.03020 Y57.92070
X-13.03020 Y57.89530
X-13.00480 Y57.89530
X-13.00480 Y57.86990
X-12.97940 Y57.86990
X-12.97940 Y57.84450
X-12.95400 Y57.84450
X-12.95400 Y57.81910
X-12.92860 Y57.81910
X-12.92860 Y57.79370
X-12.90320 Y57.79370
X-12.90320 Y57.76830
X-12.87780 Y57.76830
X-12.87780 Y57.74290
X-12.85240 Y57.74290
X-12.85240 Y57.71750
X-12.82700 Y57.71750
X-12.82700 Y57.69210
X-12.80160 Y57.69210
X-12.80160 Y57.66670
X-12.77620 Y57.66670
X-12.77620 Y57.64130
X-12.75080 Y57.64130
X-12.75080 Y57.61590
X-12.72540 Y57.61590
X-12.72540 Y57.59050
X-12.70000 Y57.59050
X-12.70000 Y57.56510
X-12.67460 Y57.56510
X-12.67460 Y57.53970
X-12.64920 Y57.53970
X-12.64920 Y57.51430
X-12.62380 Y57.51430
X-12.62380 Y57.48890
X-12.59840 Y57.48890
X-12.59840 Y57.46350
X-12.57300 Y57.46350
X-12.57300 Y57.43810
X-12.54760 Y57.43810
X-12.54760 Y57.41270
X-12.52220 Y57.41270
X-12.52220 Y57.38730
X-12.49680 Y57.38730
X-12.49680 Y57.36190
X-12.47140 Y57.36190
X-12.47140 Y57.33650
X-12.44600 Y57.33650
X-12.44600 Y57.31110
X-12.42060 Y57.31110
X-12.42060 Y57.28570
X-12.39520 Y57.28570
X-12.39520 Y57.26030
X-12.36980 Y57.26030
X-12.36980 Y57.23490
X-12.34440 Y57.23490
X-12.34440 Y57.20950
X-12.31900 Y57.20950
X-12.31900 Y57.18410
X-12.29360 Y57.18410
X-12.29360 Y57.15870
X-12.26820 Y57.15870
X-12.26820 Y57.13330
X-12.24280 Y57.13330
X-12.24280 Y57.10790
X-12.21740 Y57.10790
X-12.21740 Y57.08250
X-12.19200 Y57.08250
X-12.19200 Y57.05710
X-12.16660 Y57.05710
X-12.16660 Y57.03170
X-12.14120 Y57.03170
X-12.14120 Y57.00630
X-12.11580 Y57.00630
X-12.11580 Y56.98090
X-12.09040 Y56.98090
X-12.09040 Y56.95550
X-12.03960 Y56.95550
X-12.03960 Y56.93010
X-11.98880 Y56.93010
X-11.98880 Y56.90470
X-4.69900 Y56.90470
X-4.69900 Y56.87930
X-4.67360 Y56.87930
X-4.67360 Y56.80310
X-4.64820 Y56.80310
X-4.64820 Y56.72690
X-4.62280 Y56.72690
X-4.62280 Y56.70150
X-4.59740 Y56.70150
X-4.59740 Y56.65070
X-4.57200 Y56.65070
X-4.57200 Y56.59990
X-4.54660 Y56.59990
X-4.54660 Y56.57450
X-4.52120 Y56.57450
X-4.52120 Y56.54910
X-4.49580 Y56.54910
X-4.49580 Y56.52370
X-4.47040 Y56.52370
X-4.47040 Y56.47290
X-4.44500 Y56.47290
X-4.44500 Y56.44750
X-4.39420 Y56.44750
X-4.39420 Y56.42210
X-4.34340 Y56.42210
X-4.34340 Y56.39670
X-4.31800 Y56.39670
X-4.31800 Y56.37130
X-4.26720 Y56.37130
X-4.26720 Y56.34590
X-4.21640 Y56.34590
X-4.21640 Y56.32050
X-4.19100 Y56.32050
X-4.19100 Y56.29510
X-4.14020 Y56.29510
X-4.14020 Y56.26970
X-4.01320 Y56.26970
X-4.01320 Y56.24430
X-3.86080 Y56.24430
X-3.86080 Y56.21890
X-3.68300 Y56.21890
X-3.68300 Y56.24430
X-3.53060 Y56.24430
X-3.53060 Y56.26970
X-3.40360 Y56.26970
X-3.40360 Y56.29510
X-3.35280 Y56.29510
X-3.35280 Y56.32050
X-3.32740 Y56.32050
X-3.32740 Y56.34590
X-3.27660 Y56.34590
X-3.27660 Y56.37130
X-3.22580 Y56.37130
X-3.22580 Y56.39670
X-3.20040 Y56.39670
X-3.20040 Y56.42210
X-3.14960 Y56.42210
X-3.14960 Y56.44750
X-3.09880 Y56.44750
X-3.09880 Y56.47290
X-3.07340 Y56.47290
X-3.07340 Y56.52370
X-3.04800 Y56.52370
X-3.04800 Y56.54910
X-3.02260 Y56.54910
X-3.02260 Y56.57450
X-2.99720 Y56.57450
X-2.99720 Y56.59990
X-2.97180 Y56.59990
X-2.97180 Y56.65070
X-2.94640 Y56.65070
X-2.94640 Y56.70150
X-2.92100 Y56.70150
X-2.92100 Y56.72690
X-2.89560 Y56.72690
X-2.89560 Y56.80310
X-2.87020 Y56.80310
X-2.87020 Y56.87930
X-2.84480 Y56.87930
X-2.84480 Y57.03170
X-2.81940 Y57.03170
X-2.81940 Y57.31110
X-2.84480 Y57.31110
X-2.84480 Y57.46350
X-2.87020 Y57.46350
X-2.87020 Y57.53970
X-2.89560 Y57.53970
X-2.89560 Y57.61590
X-2.92100 Y57.61590
X-2.92100 Y57.64130
X-2.94640 Y57.64130
X-2.94640 Y57.69210
X-2.97180 Y57.69210
X-2.97180 Y57.74290
X-2.99720 Y57.74290
X-2.99720 Y57.76830
X-3.02260 Y57.76830
X-3.02260 Y57.79370
X-3.04800 Y57.79370
X-3.04800 Y57.81910
X-3.07340 Y57.81910
X-3.07340 Y57.86990
X-3.09880 Y57.86990
X-3.09880 Y57.89530
X-3.14960 Y57.89530
X-3.14960 Y57.92070
X-3.20040 Y57.92070
X-3.20040 Y57.94610
X-3.22580 Y57.94610
X-3.22580 Y57.97150
X-3.27660 Y57.97150
X-3.27660 Y57.99690
X-3.32740 Y57.99690
X-3.32740 Y58.02230
X-3.35280 Y58.02230
X-3.35280 Y58.04770
X-3.40360 Y58.04770
X-3.40360 Y58.07310
X-3.53060 Y58.07310
X-3.53060 Y58.09850
X-3.68300 Y58.09850
X-3.68300 Y58.12390
X-3.86080 Y58.12390
X-3.86080 Y58.09850
X-4.01320 Y58.09850
X-4.01320 Y58.07310
X-4.14020 Y58.07310
X-4.14020 Y58.04770
X-4.19100 Y58.04770
X-4.19100 Y58.02230
X-4.21640 Y58.02230
X-4.21640 Y57.99690
X-4.26720 Y57.99690
X-4.26720 Y57.97150
X-4.31800 Y57.97150
X-4.31800 Y57.94610
X-4.34340 Y57.94610
X-4.34340 Y57.92070
X-4.39420 Y57.92070
X-4.39420 Y57.89530
X-4.44500 Y57.89530
X-4.44500 Y57.86990
X-4.47040 Y57.86990
X-4.47040 Y57.81910
X-4.49580 Y57.81910
X-4.49580 Y57.79370
X-4.52120 Y57.79370
X-4.52120 Y57.76830
X-4.54660 Y57.76830
X-4.54660 Y57.74290
X-4.57200 Y57.74290
X-4.57200 Y57.69210
X-4.59740 Y57.69210
X-4.59740 Y57.64130
X-4.62280 Y57.64130
X-4.62280 Y57.61590
X-4.64820 Y57.61590
X-4.64820 Y57.53970
X-4.67360 Y57.53970
X-4.67360 Y57.46350
X-4.69900 Y57.46350
X-4.69900 Y57.43810
X-11.78560 Y57.43810
X-11.78560 Y57.46350
X-11.81100 Y57.46350
X-11.81100 Y57.48890
X-11.83640 Y57.48890
X-11.83640 Y57.51430
X-11.86180 Y57.51430
X-11.86180 Y57.53970
X-11.88720 Y57.53970
X-11.88720 Y57.56510
X-11.91260 Y57.56510
X-11.91260 Y57.59050
X-11.93800 Y57.59050
X-11.93800 Y57.61590
X-11.96340 Y57.61590
X-11.96340 Y57.64130
X-11.98880 Y57.64130
X-11.98880 Y57.66670
X-12.01420 Y57.66670
X-12.01420 Y57.69210
X-12.03960 Y57.69210
X-12.03960 Y57.71750
X-12.06500 Y57.71750
X-12.06500 Y57.74290
X-12.09040 Y57.74290
X-12.09040 Y57.76830
X-12.11580 Y57.76830
X-12.11580 Y57.79370
X-12.14120 Y57.79370
X-12.14120 Y57.81910
X-12.16660 Y57.81910
X-12.16660 Y57.84450
X-12.19200 Y57.84450
X-12.19200 Y57.86990
X-12.21740 Y57.86990
X-12.21740 Y57.89530
X-12.24280 Y57.89530
X-12.24280 Y57.92070
X-12.26820 Y57.92070
X-12.26820 Y57.94610
X-12.29360 Y57.94610
X-12.29360 Y57.97150
X-12.31900 Y57.97150
X-12.31900 Y57.99690
X-12.34440 Y57.99690
X-12.34440 Y58.02230
X-12.36980 Y58.02230
X-12.36980 Y58.04770
X-12.39520 Y58.04770
X-12.39520 Y58.07310
X-12.42060 Y58.07310
X-12.42060 Y58.09850
X-12.44600 Y58.09850
X-12.44600 Y58.12390
X-12.47140 Y58.12390
X-12.47140 Y58.14930
X-12.49680 Y58.14930
X-12.49680 Y58.17470
X-12.52220 Y58.17470
X-12.52220 Y58.20010
X-12.54760 Y58.20010
X-12.54760 Y58.22550
X-12.57300 Y58.22550
X-12.57300 Y58.25090
X-12.59840 Y58.25090
X-12.59840 Y58.27630
X-12.62380 Y58.27630
X-12.62380 Y58.30170
X-12.64920 Y58.30170
X-12.64920 Y58.32710
X-12.67460 Y58.32710
X-12.67460 Y58.35250
X-12.70000 Y58.35250
X-12.70000 Y58.37790
X-12.72540 Y58.37790
X-12.72540 Y58.40330
X-12.75080 Y58.40330
X-12.75080 Y58.42870
X-12.77620 Y58.42870
X-12.77620 Y58.45410
X-12.80160 Y58.45410
X-12.80160 Y58.47950
X-12.82700 Y58.47950
X-12.82700 Y58.50490
X-12.85240 Y58.50490
X-12.85240 Y58.53030
X-12.87780 Y58.53030
X-12.87780 Y58.55570
X-12.90320 Y58.55570
X-12.90320 Y58.58110
X-12.92860 Y58.58110
X-12.92860 Y58.60650
X-12.95400 Y58.60650
X-12.95400 Y58.63190
X-12.97940 Y58.63190
X-12.97940 Y58.65730
X-13.00480 Y58.65730
X-13.00480 Y58.68270
X-13.03020 Y58.68270
X-13.03020 Y58.70810
X-13.05560 Y58.70810
X-13.05560 Y58.73350
X-13.08100 Y58.73350
X-13.08100 Y58.75890
X-13.10640 Y58.75890
X-13.10640 Y58.78430
X-13.13180 Y58.78430
X-13.13180 Y58.80970
X-13.15720 Y58.80970
X-13.15720 Y58.83510
X-13.18260 Y58.83510
X-13.18260 Y58.86050
X-13.20800 Y58.86050
X-13.20800 Y58.88590
X-13.23340 Y58.88590
X-13.23340 Y58.91130
X-13.25880 Y58.91130
X-13.25880 Y58.93670
X-13.28420 Y58.93670
X-13.28420 Y58.96210
X-13.30960 Y58.96210
X-13.30960 Y58.98750
X-13.33500 Y58.98750
X-13.33500 Y59.01290
X-13.36040 Y59.01290
X-13.36040 Y59.03830
X-13.38580 Y59.03830
X-13.38580 Y59.06370
X-13.41120 Y59.06370
X-13.41120 Y59.08910
X-13.43660 Y59.08910
X-13.43660 Y59.11450
X-13.46200 Y59.11450
X-13.46200 Y59.13990
X-13.48740 Y59.13990
X-13.48740 Y59.16530
X-13.51280 Y59.16530
X-13.51280 Y59.19070
X-13.53820 Y59.19070
X-13.53820 Y59.21610
X-13.56360 Y59.21610
X-13.56360 Y59.24150
X-13.58900 Y59.24150
X-13.58900 Y59.26690
X-13.61440 Y59.26690
X-13.61440 Y59.29230
X-13.63980 Y59.29230
X-13.63980 Y59.31770
X-13.66520 Y59.31770
X-13.66520 Y59.34310
X-13.69060 Y59.34310
X-13.69060 Y59.36850
X-13.71600 Y59.36850
X-13.71600 Y59.39390
X-13.74140 Y59.39390
X-13.74140 Y59.41930
X-13.76680 Y59.41930
X-13.76680 Y59.44470
X-13.79220 Y59.44470
X-13.79220 Y59.47010
X-13.81760 Y59.47010
X-13.81760 Y59.49550
X-13.84300 Y59.49550
X-13.84300 Y59.52090
X-13.86840 Y59.52090
X-13.86840 Y59.54630
X-13.89380 Y59.54630
X-13.89380 Y59.57170
X-13.91920 Y59.57170
X-13.91920 Y59.59710
X-13.94460 Y59.59710
X-13.94460 Y59.62250
X-13.97000 Y59.62250
X-13.97000 Y59.64790
X-13.99540 Y59.64790
X-13.99540 Y59.67330
X-14.02080 Y59.67330
X-14.02080 Y59.69870
X-14.04620 Y59.69870
X-14.04620 Y59.72410
X-14.07160 Y59.72410
X-14.07160 Y59.74950
X-14.09700 Y59.74950
X-14.09700 Y59.77490
X-14.12240 Y59.77490
X-14.12240 Y59.80030
X-14.14780 Y59.80030
X-14.14780 Y59.82570
X-14.17320 Y59.82570
X-14.17320 Y59.85110
X-14.19860 Y59.85110
X-14.19860 Y59.87650
X-14.22400 Y59.87650
X-14.22400 Y59.90190
X-14.24940 Y59.90190
X-14.24940 Y59.92730
X-14.27480 Y59.92730
X-14.27480 Y59.95270
X-14.30020 Y59.95270
X-14.30020 Y59.97810
X-14.32560 Y59.97810
X-14.32560 Y60.00350
X-14.35100 Y60.00350
X-14.35100 Y60.02890
X-14.37640 Y60.02890
X-14.37640 Y60.05430
X-14.40180 Y60.05430
X-14.40180 Y60.07970
X-14.42720 Y60.07970
X-14.42720 Y60.10510
X-14.45260 Y60.10510
X-14.45260 Y60.13050
X-14.47800 Y60.13050
X-14.47800 Y60.15590
X-14.50340 Y60.15590
X-14.50340 Y60.18130
X-14.52880 Y60.18130
X-14.52880 Y60.20670
X-14.55420 Y60.20670
X-14.55420 Y60.23210
X-14.57960 Y60.23210
X-14.57960 Y60.25750
X-14.60500 Y60.25750
X-14.60500 Y60.28290
X-14.63040 Y60.28290
X-14.63040 Y60.30830
X-14.65580 Y60.30830
X-14.65580 Y60.33370
X-14.68120 Y60.33370
X-14.68120 Y60.35910
X-14.70660 Y60.35910
X-14.70660 Y60.38450
X-14.73200 Y60.38450
X-14.73200 Y60.40990
X-14.75740 Y60.40990
X-14.75740 Y60.43530
X-14.78280 Y60.43530
X-14.78280 Y60.46070
X-14.80820 Y60.46070
X-14.80820 Y60.48610
X-14.83360 Y60.48610
X-14.83360 Y60.51150
X-14.85900 Y60.51150
X-14.85900 Y60.53690
X-14.88440 Y60.53690
X-14.88440 Y60.56230
X-14.90980 Y60.56230
X-14.90980 Y60.58770
X-14.93520 Y60.58770
X-14.93520 Y60.61310
X-14.96060 Y60.61310
X-14.96060 Y60.63850
X-14.98600 Y60.63850
X-14.98600 Y60.66390
X-15.01140 Y60.66390
X-15.01140 Y60.68930
X-15.03680 Y60.68930
X-15.03680 Y60.71470
X-15.06220 Y60.71470
X-15.06220 Y60.74010
X-15.08760 Y60.74010
X-15.08760 Y60.76550
X-15.11300 Y60.76550
X-15.11300 Y60.79090
X-15.13840 Y60.79090
X-15.13840 Y60.81630
X-15.16380 Y60.81630
X-15.16380 Y60.84170
X-15.18920 Y60.84170
X-15.18920 Y60.86710
X-15.21460 Y60.86710
X-15.21460 Y60.89250
X-15.24000 Y60.89250
X-15.24000 Y60.91790
X-15.26540 Y60.91790
X-15.26540 Y60.94330
X-15.29080 Y60.94330
X-15.29080 Y60.96870
X-15.31620 Y60.96870
X-15.31620 Y60.99410
X-15.34160 Y60.99410
X-15.34160 Y61.01950
X-15.36700 Y61.01950
X-15.36700 Y61.04490
X-15.39240 Y61.04490
X-15.39240 Y61.07030
X-15.41780 Y61.07030
X-15.41780 Y61.09570
X-15.44320 Y61.09570
X-15.44320 Y61.12110
X-15.46860 Y61.12110
X-15.46860 Y61.14650
X-15.49400 Y61.14650
X-15.49400 Y61.17190
X-15.51940 Y61.17190
X-15.51940 Y61.19730
X-15.54480 Y61.19730
X-15.54480 Y61.22270
X-15.57020 Y61.22270
X-15.57020 Y61.24810
X-15.59560 Y61.24810
X-15.59560 Y61.27350
X-15.62100 Y61.27350
X-15.62100 Y61.29890
X-15.64640 Y61.29890
X-15.64640 Y61.32430
X-15.67180 Y61.32430
X-15.67180 Y61.34970
X-15.69720 Y61.34970
X-15.69720 Y61.37510
X-15.72260 Y61.37510
X-15.72260 Y61.40050
X-15.74800 Y61.40050
X-15.74800 Y61.42590
X-15.77340 Y61.42590
X-15.77340 Y61.45130
X-15.79880 Y61.45130
X-15.79880 Y61.47670
X-15.82420 Y61.47670
X-15.82420 Y61.50210
X-15.84960 Y61.50210
X-15.84960 Y61.52750
X-15.87500 Y61.52750
X-15.87500 Y61.55290
X-15.90040 Y61.55290
X-15.90040 Y61.57830
X-15.92580 Y61.57830
X-15.92580 Y61.60370
X-15.95120 Y61.60370
X-15.95120 Y61.62910
X-15.97660 Y61.62910
X-15.97660 Y61.65450
X-16.00200 Y61.65450
X-16.00200 Y61.67990
X-16.02740 Y61.67990
X-16.02740 Y61.70530
X-16.05280 Y61.70530
X-16.05280 Y61.73070
X-16.07820 Y61.73070
X-16.07820 Y61.75610
X-16.10360 Y61.75610
X-16.10360 Y61.78150
X-16.12900 Y61.78150
X-16.12900 Y61.80690
X-16.15440 Y61.80690
X-16.15440 Y61.83230
X-16.17980 Y61.83230
X-16.17980 Y61.85770
X-16.20520 Y61.85770
X-16.20520 Y61.88310
X-16.23060 Y61.88310
X-16.23060 Y61.90850
X-16.25600 Y61.90850
X-16.25600 Y61.93390
X-16.28140 Y61.93390
X-16.28140 Y61.95930
X-16.30680 Y61.95930
X-16.30680 Y61.98470
X-16.33220 Y61.98470
X-16.33220 Y62.01010
X-16.35760 Y62.01010
X-16.35760 Y62.03550
X-16.38300 Y62.03550
X-16.38300 Y62.06090
X-16.40840 Y62.06090
X-16.40840 Y62.08630
X-16.43380 Y62.08630
X-16.43380 Y62.11170
X-16.45920 Y62.11170
X-16.45920 Y62.13710
X-16.48460 Y62.13710
X-16.48460 Y62.16250
X-16.51000 Y62.16250
X-16.51000 Y62.18790
X-16.53540 Y62.18790
X-16.53540 Y62.21330
X-16.56080 Y62.21330
X-16.56080 Y62.23870
X-16.58620 Y62.23870
X-16.58620 Y62.26410
X-16.61160 Y62.26410
X-16.61160 Y62.28950
X-16.63700 Y62.28950
X-16.63700 Y62.31490
X-16.66240 Y62.31490
X-16.66240 Y62.34030
X-16.68780 Y62.34030
X-16.68780 Y62.36570
X-16.71320 Y62.36570
X-16.71320 Y62.39110
X-16.73860 Y62.39110
X-16.73860 Y62.41650
X-16.76400 Y62.41650
X-16.76400 Y62.44190
X-16.78940 Y62.44190
X-16.78940 Y62.46730
X-16.81480 Y62.46730
X-16.81480 Y62.49270
X-16.84020 Y62.49270
X-16.84020 Y62.51810
X-16.86560 Y62.51810
X-16.86560 Y62.54350
X-16.89100 Y62.54350
X-16.89100 Y62.56890
X-16.91640 Y62.56890
X-16.91640 Y62.59430
X-16.94180 Y62.59430
X-16.94180 Y62.61970
X-16.96720 Y62.61970
X-16.96720 Y62.64510
X-16.99260 Y62.64510
X-16.99260 Y62.67050
X-17.01800 Y62.67050
X-17.01800 Y62.69590
X-17.04340 Y62.69590
X-17.04340 Y62.72130
X-17.06880 Y62.72130
X-17.06880 Y62.74670
X-17.09420 Y62.74670
X-17.09420 Y62.77210
X-17.11960 Y62.77210
X-17.11960 Y62.79750
X-17.14500 Y62.79750
X-17.14500 Y62.82290
X-17.17040 Y62.82290
X-17.17040 Y62.84830
X-17.19580 Y62.84830
X-17.19580 Y62.87370
X-17.22120 Y62.87370
X-17.22120 Y62.89910
X-17.24660 Y62.89910
X-17.24660 Y62.92450
X-17.27200 Y62.92450
X-17.27200 Y62.94990
X-17.29740 Y62.94990
X-17.29740 Y62.97530
X-17.32280 Y62.97530
X-17.32280 Y63.00070
X-17.34820 Y63.00070
X-17.34820 Y63.02610
X-17.37360 Y63.02610
X-17.37360 Y63.05150
X-17.39900 Y63.05150
X-17.39900 Y63.07690
X-17.42440 Y63.07690
X-17.42440 Y63.10230
X-17.44980 Y63.10230
X-17.44980 Y63.12770
X-17.47520 Y63.12770
X-17.47520 Y63.15310
X-17.50060 Y63.15310
X-17.50060 Y63.17850
X-17.52600 Y63.17850
X-17.52600 Y63.20390
X-17.55140 Y63.20390
X-17.55140 Y63.22930
X-17.60220 Y63.22930
X-17.60220 Y63.25470
X-17.65300 Y63.25470
X-17.65300 Y63.28010
X-33.57880 Y63.28010
X-33.57880 Y63.25470
G04 P0 ( dwell for no time -- G64 should not smooth over this point )
G00 Z3.00000 ( retract )

G00 X-3.86080 Y60.63850 ( rapid move to begin. )
G01 Z-0.10000
G04 P0 ( dwell for no time -- G64 should not smooth over this point )
X-3.86080 Y60.63850
X-4.01320 Y60.63850
X-4.01320 Y60.61310
X-4.14020 Y60.61310
X-4.14020 Y60.58770
X-4.19100 Y60.58770
X-4.19100 Y60.56230
X-4.21640 Y60.56230
X-4.21640 Y60.53690
X-4.26720 Y60.53690
X-4.26720 Y60.51150
X-4.31800 Y60.51150
X-4.31800 Y60.48610
X-4.34340 Y60.48610
X-4.34340 Y60.46070
X-4.39420 Y60.46070
X-4.39420 Y60.43530
X-4.44500 Y60.43530
X-4.44500 Y60.40990
X-4.47040 Y60.40990
X-4.47040 Y60.35910
X-4.49580 Y60.35910
X-4.49580 Y60.33370
X-4.52120 Y60.33370
X-4.52120 Y60.30830
X-4.54660 Y60.30830
X-4.54660 Y60.28290
X-4.57200 Y60.28290
X-4.57200 Y60.23210
X-4.59740 Y60.23210
X-4.59740 Y60.18130
X-4.62280 Y60.18130
X-4.62280 Y60.15590
X-4.64820 Y60.15590
X-4.64820 Y60.07970
X-4.67360 Y60.07970
X-4.67360 Y60.00350
X-4.69900 Y60.00350
X-4.69900 Y59.85110
X-4.72440 Y59.85110
X-4.72440 Y59.57170
X-4.69900 Y59.57170
X-4.69900 Y59.41930
X-4.67360 Y59.41930
X-4.67360 Y59.34310
X-4.64820 Y59.34310
X-4.64820 Y59.26690
X-4.62280 Y59.26690
X-4.62280 Y59.24150
X-4.59740 Y59.24150
X-4.59740 Y59.19070
X-4.57200 Y59.19070
X-4.57200 Y59.13990
X-4.54660 Y59.13990
X-4.54660 Y59.11450
X-4.52120 Y59.11450
X-4.52120 Y59.08910
X-4.49580 Y59.08910
X-4.49580 Y59.06370
X-4.47040 Y59.06370
X-4.47040 Y59.01290
X-4.44500 Y59.01290
X-4.44500 Y58.98750
X-4.39420 Y58.98750
X-4.39420 Y58.96210
X-4.34340 Y58.96210
X-4.34340 Y58.93670
X-4.31800 Y58.93670
X-4.31800 Y58.91130
X-4.26720 Y58.91130
X-4.26720 Y58.88590
X-4.21640 Y58.88590
X-4.21640 Y58.86050
X-4.19100 Y58.86050
X-4.19100 Y58.83510
X-4.14020 Y58.83510
X-4.14020 Y58.80970
X-4.01320 Y58.80970
X-4.01320 Y58.78430
X-3.86080 Y58.78430
X-3.86080 Y58.75890
X-3.68300 Y58.75890
X-3.68300 Y58.78430
X-3.53060 Y58.78430
X-3.53060 Y58.80970
X-3.40360 Y58.80970
X-3.40360 Y58.83510
X-3.35280 Y58.83510
X-3.35280 Y58.86050
X-3.32740 Y58.86050
X-3.32740 Y58.88590
X-3.27660 Y58.88590
X-3.27660 Y58.91130
X-3.22580 Y58.91130
X-3.22580 Y58.93670
X-3.20040 Y58.93670
X-3.20040 Y58.96210
X-3.14960 Y58.96210
X-3.14960 Y58.98750
X-3.09880 Y58.98750
X-3.09880 Y59.01290
X-3.07340 Y59.01290
X-3.07340 Y59.06370
X-3.04800 Y59.06370
X-3.04800 Y59.08910
X-3.02260 Y59.08910
X-3.02260 Y59.11450
X-2.99720 Y59.11450
X-2.99720 Y59.13990
X-2.97180 Y59.13990
X-2.97180 Y59.19070
X-2.94640 Y59.19070
X-2.94640 Y59.24150
X-2.92100 Y59.24150
X-2.92100 Y59.26690
X-2.89560 Y59.26690
X-2.89560 Y59.34310
X-2.87020 Y59.34310
X-2.87020 Y59.41930
X-2.84480 Y59.41930
X-2.84480 Y59.57170
X-2.81940 Y59.57170
X-2.81940 Y59.85110
X-2.84480 Y59.85110
X-2.84480 Y60.00350
X-2.87020 Y60.00350
X-2.87020 Y60.07970
X-2.89560 Y60.07970
X-2.89560 Y60.15590
X-2.92100 Y60.15590
X-2.92100 Y60.18130
X-2.94640 Y60.18130
X-2.94640 Y60.23210
X-2.97180 Y60.23210
X-2.97180 Y60.28290
X-2.99720 Y60.28290
X-2.99720 Y60.30830
X-3.02260 Y60.30830
X-3.02260 Y60.33370
X-3.04800 Y60.33370
X-3.04800 Y60.35910
X-3.07340 Y60.35910
X-3.07340 Y60.40990
X-3.09880 Y60.40990
X-3.09880 Y60.43530
X-3.14960 Y60.43530
X-3.14960 Y60.46070
X-3.20040 Y60.46070
X-3.20040 Y60.48610
X-3.22580 Y60.48610
X-3.22580 Y60.51150
X-3.27660 Y60.51150
X-3.27660 Y60.53690
X-3.32740 Y60.53690
X-3.32740 Y60.56230
X-3.35280 Y60.56230
X-3.35280 Y60.58770
X-3.40360 Y60.58770
X-3.40360 Y60.61310
X-3.53060 Y60.61310
X-3.53060 Y60.63850
X-3.68300 Y60.63850
X-3.68300 Y60.66390
X-3.86080 Y60.66390
X-3.86080 Y60.63850
G04 P0 ( dwell for no time -- G64 should not smooth over this point )
G00 Z3.00000 ( retract )

G00 X-19.10080 Y60.63850 ( rapid move to begin. )
G01 Z-0.10000
G04 P0 ( dwell for no time -- G64 should not smooth over this point )
X-19.10080 Y60.63850
X-19.25320 Y60.63850
X-19.25320 Y60.61310
X-19.38020 Y60.61310
X-19.38020 Y60.58770
X-19.43100 Y60.58770
X-19.43100 Y60.56230
X-19.45640 Y60.56230
X-19.45640 Y60.53690
X-19.50720 Y60.53690
X-19.50720 Y60.51150
X-19.55800 Y60.51150
X-19.55800 Y60.48610
X-19.58340 Y60.48610
X-19.58340 Y60.46070
X-19.63420 Y60.46070
X-19.63420 Y60.43530
X-19.68500 Y60.43530
X-19.68500 Y60.40990
X-19.71040 Y60.40990
X-19.71040 Y60.35910
X-19.73580 Y60.35910
X-19.73580 Y60.33370
X-19.76120 Y60.33370
X-19.76120 Y60.30830
X-19.78660 Y60.30830
X-19.78660 Y60.28290
X-19.81200 Y60.28290
X-19.81200 Y60.23210
X-19.83740 Y60.23210
X-19.83740 Y60.18130
X-19.86280 Y60.18130
X-19.86280 Y60.15590
X-19.88820 Y60.15590
X-19.88820 Y60.07970
X-19.91360 Y60.07970
X-19.91360 Y60.00350
X-19.93900 Y60.00350
X-19.93900 Y59.85110
X-19.96440 Y59.85110
X-19.96440 Y59.57170
X-19.93900 Y59.57170
X-19.93900 Y59.41930
X-19.91360 Y59.41930
X-19.91360 Y59.34310
X-19.88820 Y59.34310
X-19.88820 Y59.26690
X-19.86280 Y59.26690
X-19.86280 Y59.24150
X-19.83740 Y59.24150
X-19.83740 Y59.19070
X-19.81200 Y59.19070
X-19.81200 Y59.13990
X-19.78660 Y59.13990
X-19.78660 Y59.11450
X-19.76120 Y59.11450
X-19.76120 Y59.08910
X-19.73580 Y59.08910
X-19.73580 Y59.06370
X-19.71040 Y59.06370
X-19.71040 Y59.01290
X-19.68500 Y59.01290
X-19.68500 Y58.98750
X-19.63420 Y58.98750
X-19.63420 Y58.96210
X-19.58340 Y58.96210
X-19.58340 Y58.93670
X-19.55800 Y58.93670
X-19.55800 Y58.91130
X-19.50720 Y58.91130
X-19.50720 Y58.88590
X-19.45640 Y58.88590
X-19.45640 Y58.86050
X-19.43100 Y58.86050
X-19.43100 Y58.83510
X-19.38020 Y58.83510
X-19.38020 Y58.80970
X-19.25320 Y58.80970
X-19.25320 Y58.78430
X-19.10080 Y58.78430
X-19.10080 Y58.75890
X-18.92300 Y58.75890
X-18.92300 Y58.78430
X-18.77060 Y58.78430
X-18.77060 Y58.80970
X-18.64360 Y58.80970
X-18.64360 Y58.83510
X-18.59280 Y58.83510
X-18.59280 Y58.86050
X-18.56740 Y58.86050
X-18.56740 Y58.88590
X-18.51660 Y58.88590
X-18.51660 Y58.91130
X-18.46580 Y58.91130
X-18.46580 Y58.93670
X-18.44040 Y58.93670
X-18.44040 Y58.96210
X-18.38960 Y58.96210
X-18.38960 Y58.98750
X-18.33880 Y58.98750
X-18.33880 Y59.01290
X-18.31340 Y59.01290
X-18.31340 Y59.06370
X-18.28800 Y59.06370
X-18.28800 Y59.08910
X-18.26260 Y59.08910
X-18.26260 Y59.11450
X-18.23720 Y59.11450
X-18.23720 Y59.13990
X-18.21180 Y59.13990
X-18.21180 Y59.19070
X-18.18640 Y59.19070
X-18.18640 Y59.24150
X-18.16100 Y59.24150
X-18.16100 Y59.26690
X-18.13560 Y59.26690
X-18.13560 Y59.34310
X-18.11020 Y59.34310
X-18.11020 Y59.41930
X-18.08480 Y59.41930
X-18.08480 Y59.57170
X-18.05940 Y59.57170
X-18.05940 Y59.85110
X-18.08480 Y59.85110
X-18.08480 Y60.00350
X-18.11020 Y60.00350
X-18.11020 Y60.07970
X-18.13560 Y60.07970
X-18.13560 Y60.15590
X-18.16100 Y60.15590
X-18.16100 Y60.18130
X-18.18640 Y60.18130
X-18.18640 Y60.23210
X-18.21180 Y60.23210
X-18.21180 Y60.28290
X-18.23720 Y60.28290
X-18.23720 Y60.30830
X-18.26260 Y60.30830
X-18.26260 Y60.33370
X-18.28800 Y60.33370
X-18.28800 Y60.35910
X-18.31340 Y60.35910
X-18.31340 Y60.40990
X-18.33880 Y60.40990
X-18.33880 Y60.43530
X-18.38960 Y60.43530
X-18.38960 Y60.46070
X-18.44040 Y60.46070
X-18.44040 Y60.48610
X-18.46580 Y60.48610
X-18.46580 Y60.51150
X-18.51660 Y60.51150
X-18.51660 Y60.53690
X-18.56740 Y60.53690
X-18.56740 Y60.56230
X-18.59280 Y60.56230
X-18.59280 Y60.58770
X-18.64360 Y60.58770
X-18.64360 Y60.61310
X-18.77060 Y60.61310
X-18.77060 Y60.63850
X-18.92300 Y60.63850
X-18.92300 Y60.66390
X-19.10080 Y60.66390
X-19.10080 Y60.63850
G04 P0 ( dwell for no time -- G64 should not smooth over this point )
G00 Z3.00000 ( retract )

G00 X-19.10080 Y58.09850 ( rapid move to begin. )
G01 Z-0.10000
G04 P0 ( dwell for no time -- G64 should not smooth over this point )
X-19.10080 Y58.09850
X-19.25320 Y58.09850
X-19.25320 Y58.07310
X-19.38020 Y58.07310
X-19.38020 Y58.04770
X-19.43100 Y58.04770
X-19.43100 Y58.02230
X-19.45640 Y58.02230
X-19.45640 Y57.99690
X-19.50720 Y57.99690
X-19.50720 Y57.97150
X-19.55800 Y57.97150
X-19.55800 Y57.94610
X-19.58340 Y57.94610
X-19.58340 Y57.92070
X-19.63420 Y57.92070
X-19.63420 Y57.89530
X-19.68500 Y57.89530
X-19.68500 Y57.86990
X-19.71040 Y57.86990
X-19.71040 Y57.81910
X-19.73580 Y57.81910
X-19.73580 Y57.79370
X-19.76120 Y57.79370
X-19.76120 Y57.76830
X-19.78660 Y57.76830
X-19.78660 Y57.74290
X-19.81200 Y57.74290
X-19.81200 Y57.69210
X-19.83740 Y57.69210
X-19.83740 Y57.64130
X-19.86280 Y57.64130
X-19.86280 Y57.61590
X-19.88820 Y57.61590
X-19.88820 Y57.53970
X-19.91360 Y57.53970
X-19.91360 Y57.46350
X-19.93900 Y57.46350
X-19.93900 Y57.31110
X-19.96440 Y57.31110
X-19.96440 Y57.03170
X-19.93900 Y57.03170
X-19.93900 Y56.87930
X-19.91360 Y56.87930
X-19.91360 Y56.80310
X-19.88820 Y56.80310
X-19.88820 Y56.72690
X-19.86280 Y56.72690
X-19.86280 Y56.70150
X-19.83740 Y56.70150
X-19.83740 Y56.65070
X-19.81200 Y56.65070
X-19.81200 Y56.59990
X-19.78660 Y56.59990
X-19.78660 Y56.57450
X-19.76120 Y56.57450
X-19.76120 Y56.54910
X-19.73580 Y56.54910
X-19.73580 Y56.52370
X-19.71040 Y56.52370
X-19.71040 Y56.47290
X-19.68500 Y56.47290
X-19.68500 Y56.44750
X-19.63420 Y56.44750
X-19.63420 Y56.42210
X-19.58340 Y56.42210
X-19.58340 Y56.39670
X-19.55800 Y56.39670
X-19.55800 Y56.37130
X-19.50720 Y56.37130
X-19.50720 Y56.34590
X-19.45640 Y56.34590
X-19.45640 Y56.32050
X-19.43100 Y56.32050
X-19.43100 Y56.29510
X-19.38020 Y56.29510
X-19.38020 Y56.26970
X-19.25320 Y56.26970
X-19.25320 Y56.24430
X-19.10080 Y56.24430
X-19.10080 Y56.21890
X-18.92300 Y56.21890
X-18.92300 Y56.24430
X-18.77060 Y56.24430
X-18.77060 Y56.26970
X-18.64360 Y56.26970
X-18.64360 Y56.29510
X-18.59280 Y56.29510
X-18.59280 Y56.32050
X-18.56740 Y56.32050
X-18.56740 Y56.34590
X-18.51660 Y56.34590
X-18.51660 Y56.37130
X-18.46580 Y56.37130
X-18.46580 Y56.39670
X-18.44040 Y56.39670
X-18.44040 Y56.42210
X-18.38960 Y56.42210
X-18.38960 Y56.44750
X-18.33880 Y56.44750
X-18.33880 Y56.47290
X-18.31340 Y56.47290
X-18.31340 Y56.52370
X-18.28800 Y56.52370
X-18.28800 Y56.54910
X-18.26260 Y56.54910
X-18.26260 Y56.57450
X-18.23720 Y56.57450
X-18.23720 Y56.59990
X-18.21180 Y56.59990
X-18.21180 Y56.65070
X-18.18640 Y56.65070
X-18.18640 Y56.70150
X-18.16100 Y56.70150
X-18.16100 Y56.72690
X-18.13560 Y56.72690
X-18.13560 Y56.80310
X-18.11020 Y56.80310
X-18.11020 Y56.87930
X-18.08480 Y56.87930
X-18.08480 Y57.03170
X-18.05940 Y57.03170
X-18.05940 Y57.31110
X-18.08480 Y57.31110
X-18.08480 Y57.46350
X-18.11020 Y57.46350
X-18.11020 Y57.53970
X-18.13560 Y57.53970
X-18.13560 Y57.61590
X-18.16100 Y57.61590
X-18.16100 Y57.64130
X-18.18640 Y57.64130
X-18.18640 Y57.69210
X-18.21180 Y57.69210
X-18.21180 Y57.74290
X-18.23720 Y57.74290
X-18.23720 Y57.76830
X-18.26260 Y57.76830
X-18.26260 Y57.79370
X-18.28800 Y57.79370
X-18.28800 Y57.81910
X-18.31340 Y57.81910
X-18.31340 Y57.86990
X-18.33880 Y57.86990
X-18.33880 Y57.89530
X-18.38960 Y57.89530
X-18.38960 Y57.92070
X-18.44040 Y57.92070
X-18.44040 Y57.94610
X-18.46580 Y57.94610
X-18.46580 Y57.97150
X-18.51660 Y57.97150
X-18.51660 Y57.99690
X-18.56740 Y57.99690
X-18.56740 Y58.02230
X-18.59280 Y58.02230
X-18.59280 Y58.04770
X-18.64360 Y58.04770
X-18.64360 Y58.07310
X-18.77060 Y58.07310
X-18.77060 Y58.09850
X-18.92300 Y58.09850
X-18.92300 Y58.12390
X-19.10080 Y58.12390
X-19.10080 Y58.09850
G04 P0 ( dwell for no time -- G64 should not smooth over this point )
G00 Z3.00000 ( retract )

G00 X-3.86080 Y55.55850 ( rapid move to begin. )
G01 Z-0.10000
G04 P0 ( dwell for no time -- G64 should not smooth over this point )
X-3.86080 Y55.55850
X-4.01320 Y55.55850
X-4.01320 Y55.53310
X-4.14020 Y55.53310
X-4.14020 Y55.50770
X-4.19100 Y55.50770
X-4.19100 Y55.48230
X-4.21640 Y55.48230
X-4.21640 Y55.45690
X-4.26720 Y55.45690
X-4.26720 Y55.43150
X-4.31800 Y55.43150
X-4.31800 Y55.40610
X-4.34340 Y55.40610
X-4.34340 Y55.38070
X-4.39420 Y55.38070
X-4.39420 Y55.35530
X-4.44500 Y55.35530
X-4.44500 Y55.32990
X-4.47040 Y55.32990
X-4.47040 Y55.27910
X-4.49580 Y55.27910
X-4.49580 Y55.25370
X-4.52120 Y55.25370
X-4.52120 Y55.22830
X-4.54660 Y55.22830
X-4.54660 Y55.20290
X-4.57200 Y55.20290
X-4.57200 Y55.15210
X-4.59740 Y55.15210
X-4.59740 Y55.10130
X-4.62280 Y55.10130
X-4.62280 Y55.07590
X-4.64820 Y55.07590
X-4.64820 Y54.99970
X-4.67360 Y54.99970
X-4.67360 Y54.92350
X-4.69900 Y54.92350
X-4.69900 Y54.77110
X-4.72440 Y54.77110
X-4.72440 Y54.49170
X-4.69900 Y54.49170
X-4.69900 Y54.33930
X-4.67360 Y54.33930
X-4.67360 Y54.26310
X-4.64820 Y54.26310
X-4.64820 Y54.18690
X-4.62280 Y54.18690
X-4.62280 Y54.16150
X-4.59740 Y54.16150
X-4.59740 Y54.11070
X-4.57200 Y54.11070
X-4.57200 Y54.05990
X-4.54660 Y54.05990
X-4.54660 Y54.03450
X-4.52120 Y54.03450
X-4.52120 Y54.00910
X-4.49580 Y54.00910
X-4.49580 Y53.98370
X-4.47040 Y53.98370
X-4.47040 Y53.93290
X-4.44500 Y53.93290
X-4.44500 Y53.90750
X-4.39420 Y53.90750
X-4.39420 Y53.88210
X-4.34340 Y53.88210
X-4.34340 Y53.85670
X-4.31800 Y53.85670
X-4.31800 Y53.83130
X-4.26720 Y53.83130
X-4.26720 Y53.80590
X-4.21640 Y53.80590
X-4.21640 Y53.78050
X-4.19100 Y53.78050
X-4.19100 Y53.75510
X-4.14020 Y53.75510
X-4.14020 Y53.72970
X-4.01320 Y53.72970
X-4.01320 Y53.70430
X-3.86080 Y53.70430
X-3.86080 Y53.67890
X-3.68300 Y53.67890
X-3.68300 Y53.70430
X-3.53060 Y53.70430
X-3.53060 Y53.72970
X-3.40360 Y53.72970
X-3.40360 Y53.75510
X-3.35280 Y53.75510
X-3.35280 Y53.78050
X-3.32740 Y53.78050
X-3.32740 Y53.80590
X-3.27660 Y53.80590
X-3.27660 Y53.83130
X-3.22580 Y53.83130
X-3.22580 Y53.85670
X-3.20040 Y53.85670
X-3.20040 Y53.88210
X-3.14960 Y53.88210
X-3.14960 Y53.90750
X-3.09880 Y53.90750
X-3.09880 Y53.93290
X-3.07340 Y53.93290
X-3.07340 Y53.98370
X-3.04800 Y53.98370
X-3.04800 Y54.00910
X-3.02260 Y54.00910
X-3.02260 Y54.03450
X-2.99720 Y54.03450
X-2.99720 Y54.05990
X-2.97180 Y54.05990
X-2.97180 Y54.11070
X-2.94640 Y54.11070
X-2.94640 Y54.16150
X-2.92100 Y54.16150
X-2.92100 Y54.18690
X-2.89560 Y54.18690
X-2.89560 Y54.26310
X-2.87020 Y54.26310
X-2.87020 Y54.33930
X-2.84480 Y54.33930
X-2.84480 Y54.49170
X-2.81940 Y54.49170
X-2.81940 Y54.77110
X-2.84480 Y54.77110
X-2.84480 Y54.92350
X-2.87020 Y54.92350
X-2.87020 Y54.99970
X-2.89560 Y54.99970
X-2.89560 Y55.07590
X-2.92100 Y55.07590
X-2.92100 Y55.10130
X-2.94640 Y55.10130
X-2.94640 Y55.15210
X-2.97180 Y55.15210
X-2.97180 Y55.20290
X-2.99720 Y55.20290
X-2.99720 Y55.22830
X-3.02260 Y55.22830
X-3.02260 Y55.25370
X-3.04800 Y55.25370
X-3.04800 Y55.27910
X-3.07340 Y55.27910
X-3.07340 Y55.32990
X-3.09880 Y55.32990
X-3.09880 Y55.35530
X-3.14960 Y55.35530
X-3.14960 Y55.38070
X-3.20040 Y55.38070
X-3.20040 Y55.40610
X-3.22580 Y55.40610
X-3.22580 Y55.43150
X-3.27660 Y55.43150
X-3.27660 Y55.45690
X-3.32740 Y55.45690
X-3.32740 Y55.48230
X-3.35280 Y55.48230
X-3.35280 Y55.50770
X-3.40360 Y55.50770
X-3.40360 Y55.53310
X-3.53060 Y55.53310
X-3.53060 Y55.55850
X-3.68300 Y55.55850
X-3.68300 Y55.58390
X-3.86080 Y55.58390
X-3.86080 Y55.55850
G04 P0 ( dwell for no time -- G64 should not smooth over this point )
G00 Z3.00000 ( retract )

G00 X-19.10080 Y55.55850 ( rapid move to begin. )
G01 Z-0.10000
G04 P0 ( dwell for no time -- G64 should not smooth over this point )
X-19.10080 Y55.55850
X-19.25320 Y55.55850
X-19.25320 Y55.53310
X-19.38020 Y55.53310
X-19.38020 Y55.50770
X-19.43100 Y55.50770
X-19.43100 Y55.48230
X-19.45640 Y55.48230
X-19.45640 Y55.45690
X-19.50720 Y55.45690
X-19.50720 Y55.43150
X-19.55800 Y55.43150
X-19.55800 Y55.40610
X-19.58340 Y55.40610
X-19.58340 Y55.38070
X-19.63420 Y55.38070
X-19.63420 Y55.35530
X-19.68500 Y55.35530
X-19.68500 Y55.32990
X-19.71040 Y55.32990
X-19.71040 Y55.27910
X-19.73580 Y55.27910
X-19.73580 Y55.25370
X-19.76120 Y55.25370
X-19.76120 Y55.22830
X-19.78660 Y55.22830
X-19.78660 Y55.20290
X-19.81200 Y55.20290
X-19.81200 Y55.15210
X-19.83740 Y55.15210
X-19.83740 Y55.10130
X-19.86280 Y55.10130
X-19.86280 Y55.07590
X-19.88820 Y55.07590
X-19.88820 Y54.99970
X-19.91360 Y54.99970
X-19.91360 Y54.92350
X-19.93900 Y54.92350
X-19.93900 Y54.77110
X-19.96440 Y54.77110
X-19.96440 Y54.49170
X-19.93900 Y54.49170
X-19.93900 Y54.33930
X-19.91360 Y54.33930
X-19.91360 Y54.26310
X-19.88820 Y54.26310
X-19.88820 Y54.18690
X-19.86280 Y54.18690
X-19.86280 Y54.16150
X-19.83740 Y54.16150
X-19.83740 Y54.11070
X-19.81200 Y54.11070
X-19.81200 Y54.05990
X-19.78660 Y54.05990
X-19.78660 Y54.03450
X-19.76120 Y54.03450
X-19.76120 Y54.00910
X-19.73580 Y54.00910
X-19.73580 Y53.98370
X-19.71040 Y53.98370
X-19.71040 Y53.93290
X-19.68500 Y53.93290
X-19.68500 Y53.90750
X-19.63420 Y53.90750
X-19.63420 Y53.88210
X-19.58340 Y53.88210
X-19.58340 Y53.85670
X-19.55800 Y53.85670
X-19.55800 Y53.83130
X-19.50720 Y53.83130
X-19.50720 Y53.80590
X-19.45640 Y53.80590
X-19.45640 Y53.78050
X-19.43100 Y53.78050
X-19.43100 Y53.75510
X-19.38020 Y53.75510
X-19.38020 Y53.72970
X-19.25320 Y53.72970
X-19.25320 Y53.70430
X-19.10080 Y53.70430
X-19.10080 Y53.67890
X-18.92300 Y53.67890
X-18.92300 Y53.70430
X-18.77060 Y53.70430
X-18.77060 Y53.72970
X-18.64360 Y53.72970
X-18.64360 Y53.75510
X-18.59280 Y53.75510
X-18.59280 Y53.78050
X-18.56740 Y53.78050
X-18.56740 Y53.80590
X-18.51660 Y53.80590
X-18.51660 Y53.83130
X-18.46580 Y53.83130
X-18.46580 Y53.85670
X-18.44040 Y53.85670
X-18.44040 Y53.88210
X-18.38960 Y53.88210
X-18.38960 Y53.90750
X-18.33880 Y53.90750
X-18.33880 Y53.93290
X-18.31340 Y53.93290
X-18.31340 Y53.98370
X-18.28800 Y53.98370
X-18.28800 Y54.00910
X-18.26260 Y54.00910
X-18.26260 Y54.03450
X-18.23720 Y54.03450
X-18.23720 Y54.05990
X-18.21180 Y54.05990
X-18.21180 Y54.11070
X-18.18640 Y54.11070
X-18.18640 Y54.16150
X-18.16100 Y54.16150
X-18.16100 Y54.18690
X-18.13560 Y54.18690
X-18.13560 Y54.26310
X-18.11020 Y54.26310
X-18.11020 Y54.33930
X-18.08480 Y54.33930
X-18.08480 Y54.49170
X-18.05940 Y54.49170
X-18.05940 Y54.77110
X-18.08480 Y54.77110
X-18.08480 Y54.92350
X-18.11020 Y54.92350
X-18.11020 Y54.99970
X-18.13560 Y54.99970
X-18.13560 Y55.07590
X-18.16100 Y55.07590
X-18.16100 Y55.10130
X-18.18640 Y55.10130
X-18.18640 Y55.15210
X-18.21180 Y55.15210
X-18.21180 Y55.20290
X-18.23720 Y55.20290
X-18.23720 Y55.22830
X-18.26260 Y55.22830
X-18.26260 Y55.25370
X-18.28800 Y55.25370
X-18.28800 Y55.27910
X-18.31340 Y55.27910
X-18.31340 Y55.32990
X-18.33880 Y55.32990
X-18.33880 Y55.35530
X-18.38960 Y55.35530
X-18.38960 Y55.38070
X-18.44040 Y55.38070
X-18.44040 Y55.40610
X-18.46580 Y55.40610
X-18.46580 Y55.43150
X-18.51660 Y55.43150
X-18.51660 Y55.45690
X-18.56740 Y55.45690
X-18.56740 Y55.48230
X-18.59280 Y55.48230
X-18.59280 Y55.50770
X-18.64360 Y55.50770
X-18.64360 Y55.53310
X-18.77060 Y55.53310
X-18.77060 Y55.55850
X-18.92300 Y55.55850
X-18.92300 Y55.58390
X-19.10080 Y55.58390
X-19.10080 Y55.55850
G04 P0 ( dwell for no time -- G64 should not smooth over this point )
G00 Z3.00000 ( retract )

G00 X-28.06700 Y55.30450 ( rapid move to begin. )
G01 Z-0.10000
G04 P0 ( dwell for no time -- G64 should not smooth over this point )
X-28.06700 Y55.30450
X-28.19400 Y55.30450
X-28.19400 Y55.27910
X-28.21940 Y55.27910
X-28.21940 Y55.25370
X-28.27020 Y55.25370
X-28.27020 Y55.22830
X-28.32100 Y55.22830
X-28.32100 Y55.20290
X-28.34640 Y55.20290
X-28.34640 Y55.17750
X-28.39720 Y55.17750
X-28.39720 Y55.15210
X-28.42260 Y55.15210
X-28.42260 Y55.10130
X-28.44800 Y55.10130
X-28.44800 Y55.07590
X-28.47340 Y55.07590
X-28.47340 Y55.05050
X-28.49880 Y55.05050
X-28.49880 Y54.99970
X-28.52420 Y54.99970
X-28.52420 Y54.97430
X-28.54960 Y54.97430
X-28.54960 Y54.89810
X-28.57500 Y54.89810
X-28.57500 Y54.77110
X-28.60040 Y54.77110
X-28.60040 Y54.49170
X-28.57500 Y54.49170
X-28.57500 Y54.36470
X-28.54960 Y54.36470
X-28.54960 Y54.28850
X-28.52420 Y54.28850
X-28.52420 Y54.26310
X-28.49880 Y54.26310
X-28.49880 Y54.21230
X-28.47340 Y54.21230
X-28.47340 Y54.18690
X-28.44800 Y54.18690
X-28.44800 Y54.16150
X-28.42260 Y54.16150
X-28.42260 Y54.11070
X-28.39720 Y54.11070
X-28.39720 Y54.08530
X-28.34640 Y54.08530
X-28.34640 Y54.05990
X-28.32100 Y54.05990
X-28.32100 Y54.03450
X-28.27020 Y54.03450
X-28.27020 Y54.00910
X-28.21940 Y54.00910
X-28.21940 Y53.98370
X-28.19400 Y53.98370
X-28.19400 Y53.95830
X-28.06700 Y53.95830
X-28.06700 Y53.93290
X-27.73680 Y53.93290
X-27.73680 Y53.95830
X-27.60980 Y53.95830
X-27.60980 Y53.98370
X-27.58440 Y53.98370
X-27.58440 Y54.00910
X-27.53360 Y54.00910
X-27.53360 Y54.03450
X-27.48280 Y54.03450
X-27.48280 Y54.05990
X-27.45740 Y54.05990
X-27.45740 Y54.08530
X-27.40660 Y54.08530
X-27.40660 Y54.11070
X-27.38120 Y54.11070
X-27.38120 Y54.16150
X-27.35580 Y54.16150
X-27.35580 Y54.18690
X-27.33040 Y54.18690
X-27.33040 Y54.21230
X-27.30500 Y54.21230
X-27.30500 Y54.26310
X-27.27960 Y54.26310
X-27.27960 Y54.28850
X-27.25420 Y54.28850
X-27.25420 Y54.36470
X-27.22880 Y54.36470
X-27.22880 Y54.49170
X-27.20340 Y54.49170
X-27.20340 Y54.77110
X-27.22880 Y54.77110
X-27.22880 Y54.89810
X-27.25420 Y54.89810
X-27.25420 Y54.97430
X-27.27960 Y54.97430
X-27.27960 Y54.99970
X-27.30500 Y54.99970
X-27.30500 Y55.05050
X-27.33040 Y55.05050
X-27.33040 Y55.07590
X-27.35580 Y55.07590
X-27.35580 Y55.10130
X-27.38120 Y55.10130
X-27.38120 Y55.15210
X-27.40660 Y55.15210
X-27.40660 Y55.17750
X-27.45740 Y55.17750
X-27.45740 Y55.20290
X-27.48280 Y55.20290
X-27.48280 Y55.22830
X-27.53360 Y55.22830
X-27.53360 Y55.25370
X-27.58440 Y55.25370
X-27.58440 Y55.27910
X-27.60980 Y55.27910
X-27.60980 Y55.30450
X-27.73680 Y55.30450
X-27.73680 Y55.32990
X-28.06700 Y55.32990
X-28.06700 Y55.30450
G04 P0 ( dwell for no time -- G64 should not smooth over this point )
G00 Z3.00000 ( retract )

G00 X-31.14040 Y55.30450 ( rapid move to begin. )
G01 Z-0.10000
G04 P0 ( dwell for no time -- G64 should not smooth over this point )
X-31.14040 Y55.30450
X-31.14040 Y53.93290
X-30.96260 Y53.93290
X-30.96260 Y40.19150
X-30.98800 Y40.19150
X-30.98800 Y40.16610
X-31.01340 Y40.16610
X-31.01340 Y40.14070
X-31.06420 Y40.14070
X-31.06420 Y40.11530
X-31.11500 Y40.11530
X-31.11500 Y40.08990
X-31.14040 Y40.08990
X-31.14040 Y40.03910
X-31.16580 Y40.03910
X-31.16580 Y40.01370
X-31.19120 Y40.01370
X-31.19120 Y39.98830
X-31.21660 Y39.98830
X-31.21660 Y39.96290
X-31.24200 Y39.96290
X-31.24200 Y39.91210
X-31.26740 Y39.91210
X-31.26740 Y39.86130
X-31.29280 Y39.86130
X-31.29280 Y39.83590
X-31.31820 Y39.83590
X-31.31820 Y39.75970
X-31.34360 Y39.75970
X-31.34360 Y39.68350
X-31.36900 Y39.68350
X-31.36900 Y39.53110
X-31.39440 Y39.53110
X-31.39440 Y39.25170
X-31.36900 Y39.25170
X-31.36900 Y39.09930
X-31.34360 Y39.09930
X-31.34360 Y39.02310
X-31.31820 Y39.02310
X-31.31820 Y38.94690
X-31.29280 Y38.94690
X-31.29280 Y38.92150
X-31.26740 Y38.92150
X-31.26740 Y38.87070
X-31.24200 Y38.87070
X-31.24200 Y38.81990
X-31.21660 Y38.81990
X-31.21660 Y38.79450
X-31.19120 Y38.79450
X-31.19120 Y38.76910
X-31.16580 Y38.76910
X-31.16580 Y38.74370
X-31.14040 Y38.74370
X-31.14040 Y38.69290
X-31.11500 Y38.69290
X-31.11500 Y38.66750
X-31.06420 Y38.66750
X-31.06420 Y38.64210
X-31.01340 Y38.64210
X-31.01340 Y38.61670
X-30.98800 Y38.61670
X-30.98800 Y38.59130
X-30.96260 Y38.59130
X-30.96260 Y27.84710
X-30.93720 Y27.84710
X-30.93720 Y27.74550
X-30.91180 Y27.74550
X-30.91180 Y27.69470
X-30.88640 Y27.69470
X-30.88640 Y27.64390
X-30.86100 Y27.64390
X-30.86100 Y27.61850
X-30.83560 Y27.61850
X-30.83560 Y27.59310
X-30.81020 Y27.59310
X-30.81020 Y27.56770
X-30.78480 Y27.56770
X-30.78480 Y27.54230
X-30.75940 Y27.54230
X-30.75940 Y27.51690
X-30.70860 Y27.51690
X-30.70860 Y27.49150
X-30.65780 Y27.49150
X-30.65780 Y27.46610
X-30.55620 Y27.46610
X-30.55620 Y27.44070
X-19.65960 Y27.44070
X-19.65960 Y27.41530
X-19.63420 Y27.41530
X-19.63420 Y27.36450
X-19.60880 Y27.36450
X-19.60880 Y27.33910
X-19.58340 Y27.33910
X-19.58340 Y27.31370
X-19.53260 Y27.31370
X-19.53260 Y27.28830
X-19.50720 Y27.28830
X-19.50720 Y27.26290
X-19.45640 Y27.26290
X-19.45640 Y27.23750
X-19.40560 Y27.23750
X-19.40560 Y27.21210
X-19.38020 Y27.21210
X-19.38020 Y27.18670
X-19.32940 Y27.18670
X-19.32940 Y27.16130
X-19.17700 Y27.16130
X-19.17700 Y27.13590
X-18.84680 Y27.13590
X-18.84680 Y27.16130
X-18.69440 Y27.16130
X-18.69440 Y27.18670
X-18.64360 Y27.18670
X-18.64360 Y27.21210
X-18.61820 Y27.21210
X-18.61820 Y27.23750
X-18.56740 Y27.23750
X-18.56740 Y27.26290
X-18.51660 Y27.26290
X-18.51660 Y27.28830
X-18.49120 Y27.28830
X-18.49120 Y27.31370
X-18.44040 Y27.31370
X-18.44040 Y27.33910
X-18.41500 Y27.33910
X-18.41500 Y27.36450
X-18.38960 Y27.36450
X-18.38960 Y27.41530
X-18.36420 Y27.41530
X-18.36420 Y27.44070
X-18.33880 Y27.44070
X-18.33880 Y27.46610
X-18.31340 Y27.46610
X-18.31340 Y27.51690
X-18.28800 Y27.51690
X-18.28800 Y27.54230
X-18.26260 Y27.54230
X-18.26260 Y27.56770
X-18.23720 Y27.56770
X-18.23720 Y27.64390
X-18.21180 Y27.64390
X-18.21180 Y27.74550
X-18.18640 Y27.74550
X-18.18640 Y28.20270
X-18.21180 Y28.20270
X-18.21180 Y28.27890
X-18.23720 Y28.27890
X-18.23720 Y28.35510
X-18.26260 Y28.35510
X-18.26260 Y28.38050
X-18.28800 Y28.38050
X-18.28800 Y28.40590
X-18.31340 Y28.40590
X-18.31340 Y28.45670
X-18.33880 Y28.45670
X-18.33880 Y28.48210
X-18.36420 Y28.48210
X-18.36420 Y28.50750
X-18.38960 Y28.50750
X-18.38960 Y28.55830
X-18.41500 Y28.55830
X-18.41500 Y28.58370
X-18.44040 Y28.58370
X-18.44040 Y28.60910
X-18.49120 Y28.60910
X-18.49120 Y28.63450
X-18.51660 Y28.63450
X-18.51660 Y28.65990
X-18.56740 Y28.65990
X-18.56740 Y28.68530
X-18.61820 Y28.68530
X-18.61820 Y28.71070
X-18.64360 Y28.71070
X-18.64360 Y28.73610
X-18.69440 Y28.73610
X-18.69440 Y28.76150
X-18.84680 Y28.76150
X-18.84680 Y28.78690
X-19.17700 Y28.78690
X-19.17700 Y28.76150
X-19.32940 Y28.76150
X-19.32940 Y28.73610
X-19.38020 Y28.73610
X-19.38020 Y28.71070
X-19.40560 Y28.71070
X-19.40560 Y28.68530
X-19.45640 Y28.68530
X-19.45640 Y28.65990
X-19.50720 Y28.65990
X-19.50720 Y28.63450
X-19.53260 Y28.63450
X-19.53260 Y28.60910
X-19.58340 Y28.60910
X-19.58340 Y28.58370
X-19.60880 Y28.58370
X-19.60880 Y28.55830
X-19.63420 Y28.55830
X-19.63420 Y28.50750
X-19.65960 Y28.50750
X-19.65960 Y28.48210
X-19.68500 Y28.48210
X-19.68500 Y28.45670
X-29.94660 Y28.45670
X-29.94660 Y38.59130
X-29.89580 Y38.59130
X-29.89580 Y38.61670
X-29.87040 Y38.61670
X-29.87040 Y38.64210
X-29.81960 Y38.64210
X-29.81960 Y38.66750
X-29.76880 Y38.66750
X-29.76880 Y38.69290
X-29.74340 Y38.69290
X-29.74340 Y38.74370
X-29.71800 Y38.74370
X-29.71800 Y38.76910
X-29.69260 Y38.76910
X-29.69260 Y38.79450
X-29.66720 Y38.79450
X-29.66720 Y38.81990
X-29.64180 Y38.81990
X-29.64180 Y38.87070
X-29.61640 Y38.87070
X-29.61640 Y38.92150
X-29.59100 Y38.92150
X-29.59100 Y38.94690
X-29.56560 Y38.94690
X-29.56560 Y39.02310
X-29.54020 Y39.02310
X-29.54020 Y39.09930
X-29.51480 Y39.09930
X-29.51480 Y39.25170
X-29.48940 Y39.25170
X-29.48940 Y39.53110
X-29.51480 Y39.53110
X-29.51480 Y39.68350
X-29.54020 Y39.68350
X-29.54020 Y39.75970
X-29.56560 Y39.75970
X-29.56560 Y39.83590
X-29.59100 Y39.83590
X-29.59100 Y39.86130
X-29.61640 Y39.86130
X-29.61640 Y39.91210
X-29.64180 Y39.91210
X-29.64180 Y39.96290
X-29.66720 Y39.96290
X-29.66720 Y39.98830
X-29.69260 Y39.98830
X-29.69260 Y40.01370
X-29.71800 Y40.01370
X-29.71800 Y40.03910
X-29.74340 Y40.03910
X-29.74340 Y40.08990
X-29.76880 Y40.08990
X-29.76880 Y40.11530
X-29.81960 Y40.11530
X-29.81960 Y40.14070
X-29.87040 Y40.14070
X-29.87040 Y40.16610
X-29.89580 Y40.16610
X-29.89580 Y40.19150
X-29.94660 Y40.19150
X-29.94660 Y53.93290
X-29.74340 Y53.93290
X-29.74340 Y55.32990
X-31.14040 Y55.32990
X-31.14040 Y55.30450
G04 P0 ( dwell for no time -- G64 should not smooth over this point )
G00 Z3.00000 ( retract )

G00 X-3.86080 Y53.01850 ( rapid move to begin. )
G01 Z-0.10000
G04 P0 ( dwell for no time -- G64 should not smooth over this point )
X-3.86080 Y53.01850
X-4.01320 Y53.01850
X-4.01320 Y52.99310
X-4.14020 Y52.99310
X-4.14020 Y52.96770
X-4.19100 Y52.96770
X-4.19100 Y52.94230
X-4.21640 Y52.94230
X-4.21640 Y52.91690
X-4.26720 Y52.91690
X-4.26720 Y52.89150
X-4.31800 Y52.89150
X-4.31800 Y52.86610
X-4.34340 Y52.86610
X-4.34340 Y52.84070
X-4.39420 Y52.84070
X-4.39420 Y52.81530
X-4.44500 Y52.81530
X-4.44500 Y52.78990
X-4.47040 Y52.78990
X-4.47040 Y52.73910
X-4.49580 Y52.73910
X-4.49580 Y52.71370
X-4.52120 Y52.71370
X-4.52120 Y52.68830
X-4.54660 Y52.68830
X-4.54660 Y52.66290
X-4.57200 Y52.66290
X-4.57200 Y52.61210
X-4.59740 Y52.61210
X-4.59740 Y52.56130
X-4.62280 Y52.56130
X-4.62280 Y52.53590
X-4.64820 Y52.53590
X-4.64820 Y52.45970
X-4.67360 Y52.45970
X-4.67360 Y52.38350
X-4.69900 Y52.38350
X-4.69900 Y52.23110
X-4.72440 Y52.23110
X-4.72440 Y51.95170
X-4.69900 Y51.95170
X-4.69900 Y51.79930
X-4.67360 Y51.79930
X-4.67360 Y51.72310
X-4.64820 Y51.72310
X-4.64820 Y51.64690
X-4.62280 Y51.64690
X-4.62280 Y51.62150
X-4.59740 Y51.62150
X-4.59740 Y51.57070
X-4.57200 Y51.57070
X-4.57200 Y51.51990
X-4.54660 Y51.51990
X-4.54660 Y51.49450
X-4.52120 Y51.49450
X-4.52120 Y51.46910
X-4.49580 Y51.46910
X-4.49580 Y51.44370
X-4.47040 Y51.44370
X-4.47040 Y51.39290
X-4.44500 Y51.39290
X-4.44500 Y51.36750
X-4.39420 Y51.36750
X-4.39420 Y51.34210
X-4.34340 Y51.34210
X-4.34340 Y51.31670
X-4.31800 Y51.31670
X-4.31800 Y51.29130
X-4.26720 Y51.29130
X-4.26720 Y51.26590
X-4.21640 Y51.26590
X-4.21640 Y51.24050
X-4.19100 Y51.24050
X-4.19100 Y51.21510
X-4.14020 Y51.21510
X-4.14020 Y51.18970
X-4.01320 Y51.18970
X-4.01320 Y51.16430
X-3.86080 Y51.16430
X-3.86080 Y51.13890
X-3.68300 Y51.13890
X-3.68300 Y51.16430
X-3.53060 Y51.16430
X-3.53060 Y51.18970
X-3.40360 Y51.18970
X-3.40360 Y51.21510
X-3.35280 Y51.21510
X-3.35280 Y51.24050
X-3.32740 Y51.24050
X-3.32740 Y51.26590
X-3.27660 Y51.26590
X-3.27660 Y51.29130
X-3.22580 Y51.29130
X-3.22580 Y51.31670
X-3.20040 Y51.31670
X-3.20040 Y51.34210
X-3.14960 Y51.34210
X-3.14960 Y51.36750
X-3.09880 Y51.36750
X-3.09880 Y51.39290
X-3.07340 Y51.39290
X-3.07340 Y51.44370
X-3.04800 Y51.44370
X-3.04800 Y51.46910
X-3.02260 Y51.46910
X-3.02260 Y51.49450
X-2.99720 Y51.49450
X-2.99720 Y51.51990
X-2.97180 Y51.51990
X-2.97180 Y51.57070
X-2.94640 Y51.57070
X-2.94640 Y51.62150
X-2.92100 Y51.62150
X-2.92100 Y51.64690
X-2.89560 Y51.64690
X-2.89560 Y51.72310
X-2.87020 Y51.72310
X-2.87020 Y51.79930
X-2.84480 Y51.79930
X-2.84480 Y51.95170
X-2.81940 Y51.95170
X-2.81940 Y52.23110
X-2.84480 Y52.23110
X-2.84480 Y52.38350
X-2.87020 Y52.38350
X-2.87020 Y52.45970
X-2.89560 Y52.45970
X-2.89560 Y52.53590
X-2.92100 Y52.53590
X-2.92100 Y52.56130
X-2.94640 Y52.56130
X-2.94640 Y52.61210
X-2.97180 Y52.61210
X-2.97180 Y52.66290
X-2.99720 Y52.66290
X-2.99720 Y52.68830
X-3.02260 Y52.68830
X-3.02260 Y52.71370
X-3.04800 Y52.71370
X-3.04800 Y52.73910
X-3.07340 Y52.73910
X-3.07340 Y52.78990
X-3.09880 Y52.78990
X-3.09880 Y52.81530
X-3.14960 Y52.81530
X-3.14960 Y52.84070
X-3.20040 Y52.84070
X-3.20040 Y52.86610
X-3.22580 Y52.86610
X-3.22580 Y52.89150
X-3.27660 Y52.89150
X-3.27660 Y52.91690
X-3.32740 Y52.91690
X-3.32740 Y52.94230
X-3.35280 Y52.94230
X-3.35280 Y52.96770
X-3.40360 Y52.96770
X-3.40360 Y52.99310
X-3.53060 Y52.99310
X-3.53060 Y53.01850
X-3.68300 Y53.01850
X-3.68300 Y53.04390
X-3.86080 Y53.04390
X-3.86080 Y53.01850
G04 P0 ( dwell for no time -- G64 should not smooth over this point )
G00 Z3.00000 ( retract )

G00 X-19.10080 Y53.01850 ( rapid move to begin. )
G01 Z-0.10000
G04 P0 ( dwell for no time -- G64 should not smooth over this point )
X-19.10080 Y53.01850
X-19.25320 Y53.01850
X-19.25320 Y52.99310
X-19.38020 Y52.99310
X-19.38020 Y52.96770
X-19.43100 Y52.96770
X-19.43100 Y52.94230
X-19.45640 Y52.94230
X-19.45640 Y52.91690
X-19.50720 Y52.91690
X-19.50720 Y52.89150
X-19.55800 Y52.89150
X-19.55800 Y52.86610
X-19.58340 Y52.86610
X-19.58340 Y52.84070
X-19.63420 Y52.84070
X-19.63420 Y52.81530
X-19.68500 Y52.81530
X-19.68500 Y52.78990
X-19.71040 Y52.78990
X-19.71040 Y52.73910
X-19.73580 Y52.73910
X-19.73580 Y52.71370
X-19.76120 Y52.71370
X-19.76120 Y52.68830
X-19.78660 Y52.68830
X-19.78660 Y52.66290
X-19.81200 Y52.66290
X-19.81200 Y52.61210
X-19.83740 Y52.61210
X-19.83740 Y52.56130
X-19.86280 Y52.56130
X-19.86280 Y52.53590
X-19.88820 Y52.53590
X-19.88820 Y52.45970
X-19.91360 Y52.45970
X-19.91360 Y52.38350
X-19.93900 Y52.38350
X-19.93900 Y52.23110
X-19.96440 Y52.23110
X-19.96440 Y51.95170
X-19.93900 Y51.95170
X-19.93900 Y51.79930
X-19.91360 Y51.79930
X-19.91360 Y51.72310
X-19.88820 Y51.72310
X-19.88820 Y51.64690
X-19.86280 Y51.64690
X-19.86280 Y51.62150
X-19.83740 Y51.62150
X-19.83740 Y51.57070
X-19.81200 Y51.57070
X-19.81200 Y51.51990
X-19.78660 Y51.51990
X-19.78660 Y51.49450
X-19.76120 Y51.49450
X-19.76120 Y51.46910
X-19.73580 Y51.46910
X-19.73580 Y51.44370
X-19.71040 Y51.44370
X-19.71040 Y51.39290
X-19.68500 Y51.39290
X-19.68500 Y51.36750
X-19.63420 Y51.36750
X-19.63420 Y51.34210
X-19.58340 Y51.34210
X-19.58340 Y51.31670
X-19.55800 Y51.31670
X-19.55800 Y51.29130
X-19.50720 Y51.29130
X-19.50720 Y51.26590
X-19.45640 Y51.26590
X-19.45640 Y51.24050
X-19.43100 Y51.24050
X-19.43100 Y51.21510
X-19.38020 Y51.21510
X-19.38020 Y51.18970
X-19.25320 Y51.18970
X-19.25320 Y51.16430
X-19.10080 Y51.16430
X-19.10080 Y51.13890
X-18.92300 Y51.13890
X-18.92300 Y51.16430
X-18.77060 Y51.16430
X-18.77060 Y51.18970
X-18.64360 Y51.18970
X-18.64360 Y51.21510
X-18.59280 Y51.21510
X-18.59280 Y51.24050
X-18.56740 Y51.24050
X-18.56740 Y51.26590
X-18.51660 Y51.26590
X-18.51660 Y51.29130
X-18.46580 Y51.29130
X-18.46580 Y51.31670
X-18.44040 Y51.31670
X-18.44040 Y51.34210
X-18.38960 Y51.34210
X-18.38960 Y51.36750
X-18.33880 Y51.36750
X-18.33880 Y51.39290
X-18.31340 Y51.39290
X-18.31340 Y51.44370
X-18.28800 Y51.44370
X-18.28800 Y51.46910
X-18.26260 Y51.46910
X-18.26260 Y51.49450
X-18.23720 Y51.49450
X-18.23720 Y51.51990
X-18.21180 Y51.51990
X-18.21180 Y51.57070
X-14.14780 Y51.57070
X-14.14780 Y51.54530
X-14.12240 Y51.54530
X-14.12240 Y51.51990
X-14.09700 Y51.51990
X-14.09700 Y51.49450
X-14.07160 Y51.49450
X-14.07160 Y51.46910
X-14.04620 Y51.46910
X-14.04620 Y51.44370
X-14.02080 Y51.44370
X-14.02080 Y51.41830
X-13.99540 Y51.41830
X-13.99540 Y51.39290
X-13.97000 Y51.39290
X-13.97000 Y51.36750
X-13.94460 Y51.36750
X-13.94460 Y51.34210
X-13.91920 Y51.34210
X-13.91920 Y51.31670
X-13.89380 Y51.31670
X-13.89380 Y51.29130
X-13.86840 Y51.29130
X-13.86840 Y51.26590
X-13.84300 Y51.26590
X-13.84300 Y51.24050
X-13.81760 Y51.24050
X-13.81760 Y51.21510
X-13.79220 Y51.21510
X-13.79220 Y51.18970
X-13.76680 Y51.18970
X-13.76680 Y51.16430
X-13.74140 Y51.16430
X-13.74140 Y51.13890
X-13.71600 Y51.13890
X-13.71600 Y51.11350
X-13.69060 Y51.11350
X-13.69060 Y51.08810
X-13.66520 Y51.08810
X-13.66520 Y51.06270
X-13.63980 Y51.06270
X-13.63980 Y51.03730
X-13.61440 Y51.03730
X-13.61440 Y51.01190
X-13.58900 Y51.01190
X-13.58900 Y50.98650
X-13.56360 Y50.98650
X-13.56360 Y50.96110
X-13.53820 Y50.96110
X-13.53820 Y50.93570
X-13.51280 Y50.93570
X-13.51280 Y50.91030
X-13.48740 Y50.91030
X-13.48740 Y50.88490
X-13.46200 Y50.88490
X-13.46200 Y50.85950
X-13.43660 Y50.85950
X-13.43660 Y50.83410
X-13.41120 Y50.83410
X-13.41120 Y50.80870
X-13.38580 Y50.80870
X-13.38580 Y50.78330
X-13.36040 Y50.78330
X-13.36040 Y50.75790
X-13.33500 Y50.75790
X-13.33500 Y50.73250
X-13.30960 Y50.73250
X-13.30960 Y50.70710
X-13.28420 Y50.70710
X-13.28420 Y50.68170
X-13.25880 Y50.68170
X-13.25880 Y50.65630
X-13.23340 Y50.65630
X-13.23340 Y50.63090
X-13.20800 Y50.63090
X-13.20800 Y50.60550
X-13.18260 Y50.60550
X-13.18260 Y50.58010
X-13.15720 Y50.58010
X-13.15720 Y50.55470
X-13.13180 Y50.55470
X-13.13180 Y50.52930
X-13.10640 Y50.52930
X-13.10640 Y50.50390
X-13.08100 Y50.50390
X-13.08100 Y50.47850
X-13.05560 Y50.47850
X-13.05560 Y50.45310
X-13.03020 Y50.45310
X-13.03020 Y50.42770
X-13.00480 Y50.42770
X-13.00480 Y50.40230
X-12.97940 Y50.40230
X-12.97940 Y50.37690
X-12.95400 Y50.37690
X-12.95400 Y50.35150
X-12.92860 Y50.35150
X-12.92860 Y50.32610
X-12.90320 Y50.32610
X-12.90320 Y50.30070
X-12.87780 Y50.30070
X-12.87780 Y50.27530
X-12.85240 Y50.27530
X-12.85240 Y50.24990
X-12.82700 Y50.24990
X-12.82700 Y50.22450
X-12.80160 Y50.22450
X-12.80160 Y50.19910
X-12.77620 Y50.19910
X-12.77620 Y50.17370
X-12.75080 Y50.17370
X-12.75080 Y50.14830
X-12.72540 Y50.14830
X-12.72540 Y50.12290
X-12.70000 Y50.12290
X-12.70000 Y50.09750
X-12.67460 Y50.09750
X-12.67460 Y50.07210
X-12.64920 Y50.07210
X-12.64920 Y50.04670
X-12.62380 Y50.04670
X-12.62380 Y50.02130
X-12.59840 Y50.02130
X-12.59840 Y49.99590
X-12.57300 Y49.99590
X-12.57300 Y49.97050
X-12.54760 Y49.97050
X-12.54760 Y49.94510
X-12.52220 Y49.94510
X-12.52220 Y49.91970
X-12.49680 Y49.91970
X-12.49680 Y49.89430
X-12.47140 Y49.89430
X-12.47140 Y49.86890
X-12.44600 Y49.86890
X-12.44600 Y49.84350
X-12.42060 Y49.84350
X-12.42060 Y49.81810
X-12.39520 Y49.81810
X-12.39520 Y49.79270
X-12.36980 Y49.79270
X-12.36980 Y49.76730
X-12.34440 Y49.76730
X-12.34440 Y49.74190
X-12.31900 Y49.74190
X-12.31900 Y49.71650
X-12.29360 Y49.71650
X-12.29360 Y49.69110
X-12.26820 Y49.69110
X-12.26820 Y49.66570
X-12.24280 Y49.66570
X-12.24280 Y49.64030
X-12.21740 Y49.64030
X-12.21740 Y49.61490
X-12.19200 Y49.61490
X-12.19200 Y49.58950
X-12.16660 Y49.58950
X-12.16660 Y49.56410
X-12.14120 Y49.56410
X-12.14120 Y49.53870
X-12.11580 Y49.53870
X-12.11580 Y49.51330
X-12.09040 Y49.51330
X-12.09040 Y49.48790
X-12.06500 Y49.48790
X-12.06500 Y49.46250
X-12.03960 Y49.46250
X-12.03960 Y49.43710
X-12.01420 Y49.43710
X-12.01420 Y49.41170
X-11.98880 Y49.41170
X-11.98880 Y49.38630
X-11.96340 Y49.38630
X-11.96340 Y49.36090
X-11.93800 Y49.36090
X-11.93800 Y49.33550
X-11.91260 Y49.33550
X-11.91260 Y23.88470
X-10.87120 Y23.88470
X-10.87120 Y25.94210
X-10.89660 Y25.94210
X-10.89660 Y27.44070
X-3.02260 Y27.44070
X-3.02260 Y26.57710
X-2.99720 Y26.57710
X-2.99720 Y26.47550
X-2.97180 Y26.47550
X-2.97180 Y26.42470
X-2.94640 Y26.42470
X-2.94640 Y26.37390
X-2.92100 Y26.37390
X-2.92100 Y26.34850
X-2.89560 Y26.34850
X-2.89560 Y26.32310
X-2.87020 Y26.32310
X-2.87020 Y26.29770
X-2.84480 Y26.29770
X-2.84480 Y26.27230
X-2.81940 Y26.27230
X-2.81940 Y26.24690
X-2.76860 Y26.24690
X-2.76860 Y26.22150
X-2.71780 Y26.22150
X-2.71780 Y26.19610
X-2.61620 Y26.19610
X-2.61620 Y26.17070
X-2.41300 Y26.17070
X-2.41300 Y26.19610
X-2.31140 Y26.19610
X-2.31140 Y26.22150
X-2.26060 Y26.22150
X-2.26060 Y26.24690
X-2.20980 Y26.24690
X-2.20980 Y26.27230
X-2.18440 Y26.27230
X-2.18440 Y26.29770
X-2.15900 Y26.29770
X-2.15900 Y26.32310
X-2.13360 Y26.32310
X-2.13360 Y26.34850
X-2.10820 Y26.34850
X-2.10820 Y26.37390
X-2.08280 Y26.37390
X-2.08280 Y26.42470
X-2.05740 Y26.42470
X-2.05740 Y26.47550
X-2.03200 Y26.47550
X-2.03200 Y26.57710
X-2.00660 Y26.57710
X-2.00660 Y28.05030
X-2.03200 Y28.05030
X-2.03200 Y28.15190
X-2.05740 Y28.15190
X-2.05740 Y28.20270
X-2.08280 Y28.20270
X-2.08280 Y28.25350
X-2.10820 Y28.25350
X-2.10820 Y28.27890
X-2.13360 Y28.27890
X-2.13360 Y28.30430
X-2.15900 Y28.30430
X-2.15900 Y28.32970
X-2.18440 Y28.32970
X-2.18440 Y28.35510
X-2.20980 Y28.35510
X-2.20980 Y28.38050
X-2.26060 Y28.38050
X-2.26060 Y28.40590
X-2.31140 Y28.40590
X-2.31140 Y28.43130
X-2.41300 Y28.43130
X-2.41300 Y28.45670
X-10.89660 Y28.45670
X-10.89660 Y49.64030
X-10.92200 Y49.64030
X-10.92200 Y49.74190
X-10.94740 Y49.74190
X-10.94740 Y49.79270
X-10.97280 Y49.79270
X-10.97280 Y49.84350
X-10.99820 Y49.84350
X-10.99820 Y49.86890
X-11.02360 Y49.86890
X-11.02360 Y49.89430
X-11.04900 Y49.89430
X-11.04900 Y49.91970
X-11.07440 Y49.91970
X-11.07440 Y49.94510
X-11.09980 Y49.94510
X-11.09980 Y49.97050
X-11.12520 Y49.97050
X-11.12520 Y49.99590
X-11.15060 Y49.99590
X-11.15060 Y50.02130
X-11.17600 Y50.02130
X-11.17600 Y50.04670
X-11.20140 Y50.04670
X-11.20140 Y50.07210
X-11.22680 Y50.07210
X-11.22680 Y50.09750
X-11.25220 Y50.09750
X-11.25220 Y50.12290
X-11.27760 Y50.12290
X-11.27760 Y50.14830
X-11.30300 Y50.14830
X-11.30300 Y50.17370
X-11.32840 Y50.17370
X-11.32840 Y50.19910
X-11.35380 Y50.19910
X-11.35380 Y50.22450
X-11.37920 Y50.22450
X-11.37920 Y50.24990
X-11.40460 Y50.24990
X-11.40460 Y50.27530
X-11.43000 Y50.27530
X-11.43000 Y50.30070
X-11.45540 Y50.30070
X-11.45540 Y50.32610
X-11.48080 Y50.32610
X-11.48080 Y50.35150
X-11.50620 Y50.35150
X-11.50620 Y50.37690
X-11.53160 Y50.37690
X-11.53160 Y50.40230
X-11.55700 Y50.40230
X-11.55700 Y50.42770
X-11.58240 Y50.42770
X-11.58240 Y50.45310
X-11.60780 Y50.45310
X-11.60780 Y50.47850
X-11.63320 Y50.47850
X-11.63320 Y50.50390
X-11.65860 Y50.50390
X-11.65860 Y50.52930
X-11.68400 Y50.52930
X-11.68400 Y50.55470
X-11.70940 Y50.55470
X-11.70940 Y50.58010
X-11.73480 Y50.58010
X-11.73480 Y50.60550
X-11.76020 Y50.60550
X-11.76020 Y50.63090
X-11.78560 Y50.63090
X-11.78560 Y50.65630
X-11.81100 Y50.65630
X-11.81100 Y50.68170
X-11.83640 Y50.68170
X-11.83640 Y50.70710
X-11.86180 Y50.70710
X-11.86180 Y50.73250
X-11.88720 Y50.73250
X-11.88720 Y50.75790
X-11.91260 Y50.75790
X-11.91260 Y50.78330
X-11.93800 Y50.78330
X-11.93800 Y50.80870
X-11.96340 Y50.80870
X-11.96340 Y50.83410
X-11.98880 Y50.83410
X-11.98880 Y50.85950
X-12.01420 Y50.85950
X-12.01420 Y50.88490
X-12.03960 Y50.88490
X-12.03960 Y50.91030
X-12.06500 Y50.91030
X-12.06500 Y50.93570
X-12.09040 Y50.93570
X-12.09040 Y50.96110
X-12.11580 Y50.96110
X-12.11580 Y50.98650
X-12.14120 Y50.98650
X-12.14120 Y51.01190
X-12.16660 Y51.01190
X-12.16660 Y51.03730
X-12.19200 Y51.03730
X-12.19200 Y51.06270
X-12.21740 Y51.06270
X-12.21740 Y51.08810
X-12.24280 Y51.08810
X-12.24280 Y51.11350
X-12.26820 Y51.11350
X-12.26820 Y51.13890
X-12.29360 Y51.13890
X-12.29360 Y51.16430
X-12.31900 Y51.16430
X-12.31900 Y51.18970
X-12.34440 Y51.18970
X-12.34440 Y51.21510
X-12.36980 Y51.21510
X-12.36980 Y51.24050
X-12.39520 Y51.24050
X-12.39520 Y51.26590
X-12.42060 Y51.26590
X-12.42060 Y51.29130
X-12.44600 Y51.29130
X-12.44600 Y51.31670
X-12.47140 Y51.31670
X-12.47140 Y51.34210
X-12.49680 Y51.34210
X-12.49680 Y51.36750
X-12.52220 Y51.36750
X-12.52220 Y51.39290
X-12.54760 Y51.39290
X-12.54760 Y51.41830
X-12.57300 Y51.41830
X-12.57300 Y51.44370
X-12.59840 Y51.44370
X-12.59840 Y51.46910
X-12.62380 Y51.46910
X-12.62380 Y51.49450
X-12.64920 Y51.49450
X-12.64920 Y51.51990
X-12.67460 Y51.51990
X-12.67460 Y51.54530
X-12.70000 Y51.54530
X-12.70000 Y51.57070
X-12.72540 Y51.57070
X-12.72540 Y51.59610
X-12.75080 Y51.59610
X-12.75080 Y51.62150
X-12.77620 Y51.62150
X-12.77620 Y51.64690
X-12.80160 Y51.64690
X-12.80160 Y51.67230
X-12.82700 Y51.67230
X-12.82700 Y51.69770
X-12.85240 Y51.69770
X-12.85240 Y51.72310
X-12.87780 Y51.72310
X-12.87780 Y51.74850
X-12.90320 Y51.74850
X-12.90320 Y51.77390
X-12.92860 Y51.77390
X-12.92860 Y51.79930
X-12.95400 Y51.79930
X-12.95400 Y51.82470
X-12.97940 Y51.82470
X-12.97940 Y51.85010
X-13.00480 Y51.85010
X-13.00480 Y51.87550
X-13.03020 Y51.87550
X-13.03020 Y51.90090
X-13.05560 Y51.90090
X-13.05560 Y51.92630
X-13.08100 Y51.92630
X-13.08100 Y51.95170
X-13.10640 Y51.95170
X-13.10640 Y51.97710
X-13.13180 Y51.97710
X-13.13180 Y52.00250
X-13.15720 Y52.00250
X-13.15720 Y52.02790
X-13.18260 Y52.02790
X-13.18260 Y52.05330
X-13.20800 Y52.05330
X-13.20800 Y52.07870
X-13.23340 Y52.07870
X-13.23340 Y52.10410
X-13.25880 Y52.10410
X-13.25880 Y52.12950
X-13.28420 Y52.12950
X-13.28420 Y52.15490
X-13.30960 Y52.15490
X-13.30960 Y52.18030
X-13.33500 Y52.18030
X-13.33500 Y52.20570
X-13.36040 Y52.20570
X-13.36040 Y52.23110
X-13.38580 Y52.23110
X-13.38580 Y52.25650
X-13.41120 Y52.25650
X-13.41120 Y52.28190
X-13.43660 Y52.28190
X-13.43660 Y52.30730
X-13.46200 Y52.30730
X-13.46200 Y52.33270
X-13.48740 Y52.33270
X-13.48740 Y52.35810
X-13.51280 Y52.35810
X-13.51280 Y52.38350
X-13.53820 Y52.38350
X-13.53820 Y52.40890
X-13.56360 Y52.40890
X-13.56360 Y52.43430
X-13.58900 Y52.43430
X-13.58900 Y52.45970
X-13.61440 Y52.45970
X-13.61440 Y52.48510
X-13.63980 Y52.48510
X-13.63980 Y52.51050
X-13.69060 Y52.51050
X-13.69060 Y52.53590
X-13.74140 Y52.53590
X-13.74140 Y52.56130
X-13.84300 Y52.56130
X-13.84300 Y52.58670
X-18.18640 Y52.58670
X-18.18640 Y52.61210
X-18.21180 Y52.61210
X-18.21180 Y52.66290
X-18.23720 Y52.66290
X-18.23720 Y52.68830
X-18.26260 Y52.68830
X-18.26260 Y52.71370
X-18.28800 Y52.71370
X-18.28800 Y52.73910
X-18.31340 Y52.73910
X-18.31340 Y52.78990
X-18.33880 Y52.78990
X-18.33880 Y52.81530
X-18.38960 Y52.81530
X-18.38960 Y52.84070
X-18.44040 Y52.84070
X-18.44040 Y52.86610
X-18.46580 Y52.86610
X-18.46580 Y52.89150
X-18.51660 Y52.89150
X-18.51660 Y52.91690
X-18.56740 Y52.91690
X-18.56740 Y52.94230
X-18.59280 Y52.94230
X-18.59280 Y52.96770
X-18.64360 Y52.96770
X-18.64360 Y52.99310
X-18.77060 Y52.99310
X-18.77060 Y53.01850
X-18.92300 Y53.01850
X-18.92300 Y53.04390
X-19.10080 Y53.04390
X-19.10080 Y53.01850
G04 P0 ( dwell for no time -- G64 should not smooth over this point )
G00 Z3.00000 ( retract )

G00 X-28.06700 Y52.76450 ( rapid move to begin. )
G01 Z-0.10000
G04 P0 ( dwell for no time -- G64 should not smooth over this point )
X-28.06700 Y52.76450
X-28.19400 Y52.76450
X-28.19400 Y52.73910
X-28.21940 Y52.73910
X-28.21940 Y52.71370
X-28.27020 Y52.71370
X-28.27020 Y52.68830
X-28.32100 Y52.68830
X-28.32100 Y52.66290
X-28.34640 Y52.66290
X-28.34640 Y52.63750
X-28.39720 Y52.63750
X-28.39720 Y52.61210
X-28.42260 Y52.61210
X-28.42260 Y52.56130
X-28.44800 Y52.56130
X-28.44800 Y52.53590
X-28.47340 Y52.53590
X-28.47340 Y52.51050
X-28.49880 Y52.51050
X-28.49880 Y52.45970
X-28.52420 Y52.45970
X-28.52420 Y52.43430
X-28.54960 Y52.43430
X-28.54960 Y52.35810
X-28.57500 Y52.35810
X-28.57500 Y52.23110
X-28.60040 Y52.23110
X-28.60040 Y51.95170
X-28.57500 Y51.95170
X-28.57500 Y51.82470
X-28.54960 Y51.82470
X-28.54960 Y51.74850
X-28.52420 Y51.74850
X-28.52420 Y51.72310
X-28.49880 Y51.72310
X-28.49880 Y51.67230
X-28.47340 Y51.67230
X-28.47340 Y51.64690
X-28.44800 Y51.64690
X-28.44800 Y51.62150
X-28.42260 Y51.62150
X-28.42260 Y51.57070
X-28.39720 Y51.57070
X-28.39720 Y51.54530
X-28.34640 Y51.54530
X-28.34640 Y51.51990
X-28.32100 Y51.51990
X-28.32100 Y51.49450
X-28.27020 Y51.49450
X-28.27020 Y51.46910
X-28.21940 Y51.46910
X-28.21940 Y51.44370
X-28.19400 Y51.44370
X-28.19400 Y51.41830
X-28.06700 Y51.41830
X-28.06700 Y51.39290
X-27.73680 Y51.39290
X-27.73680 Y51.41830
X-27.60980 Y51.41830
X-27.60980 Y51.44370
X-27.58440 Y51.44370
X-27.58440 Y51.46910
X-27.53360 Y51.46910
X-27.53360 Y51.49450
X-27.48280 Y51.49450
X-27.48280 Y51.51990
X-27.45740 Y51.51990
X-27.45740 Y51.54530
X-27.40660 Y51.54530
X-27.40660 Y51.57070
X-27.38120 Y51.57070
X-27.38120 Y51.62150
X-27.35580 Y51.62150
X-27.35580 Y51.64690
X-27.33040 Y51.64690
X-27.33040 Y51.67230
X-27.30500 Y51.67230
X-27.30500 Y51.72310
X-27.27960 Y51.72310
X-27.27960 Y51.74850
X-27.25420 Y51.74850
X-27.25420 Y51.82470
X-27.22880 Y51.82470
X-27.22880 Y51.95170
X-27.20340 Y51.95170
X-27.20340 Y52.23110
X-27.22880 Y52.23110
X-27.22880 Y52.35810
X-27.25420 Y52.35810
X-27.25420 Y52.43430
X-27.27960 Y52.43430
X-27.27960 Y52.45970
X-27.30500 Y52.45970
X-27.30500 Y52.51050
X-27.33040 Y52.51050
X-27.33040 Y52.53590
X-27.35580 Y52.53590
X-27.35580 Y52.56130
X-27.38120 Y52.56130
X-27.38120 Y52.61210
X-27.40660 Y52.61210
X-27.40660 Y52.63750
X-27.45740 Y52.63750
X-27.45740 Y52.66290
X-27.48280 Y52.66290
X-27.48280 Y52.68830
X-27.53360 Y52.68830
X-27.53360 Y52.71370
X-27.58440 Y52.71370
X-27.58440 Y52.73910
X-27.60980 Y52.73910
X-27.60980 Y52.76450
X-27.73680 Y52.76450
X-27.73680 Y52.78990
X-28.06700 Y52.78990
X-28.06700 Y52.76450
G04 P0 ( dwell for no time -- G64 should not smooth over this point )
G00 Z3.00000 ( retract )

G00 X-3.86080 Y50.47850 ( rapid move to begin. )
G01 Z-0.10000
G04 P0 ( dwell for no time -- G64 should not smooth over this point )
X-3.86080 Y50.47850
X-4.01320 Y50.47850
X-4.01320 Y50.45310
X-4.14020 Y50.45310
X-4.14020 Y50.42770
X-4.19100 Y50.42770
X-4.19100 Y50.40230
X-4.21640 Y50.40230
X-4.21640 Y50.37690
X-4.26720 Y50.37690
X-4.26720 Y50.35150
X-4.31800 Y50.35150
X-4.31800 Y50.32610
X-4.34340 Y50.32610
X-4.34340 Y50.30070
X-4.39420 Y50.30070
X-4.39420 Y50.27530
X-4.44500 Y50.27530
X-4.44500 Y50.24990
X-4.47040 Y50.24990
X-4.47040 Y50.19910
X-4.49580 Y50.19910
X-4.49580 Y50.17370
X-4.52120 Y50.17370
X-4.52120 Y50.14830
X-4.54660 Y50.14830
X-4.54660 Y50.12290
X-4.57200 Y50.12290
X-4.57200 Y50.07210
X-4.59740 Y50.07210
X-4.59740 Y50.02130
X-4.62280 Y50.02130
X-4.62280 Y49.99590
X-4.64820 Y49.99590
X-4.64820 Y49.91970
X-4.67360 Y49.91970
X-4.67360 Y49.84350
X-4.69900 Y49.84350
X-4.69900 Y49.69110
X-4.72440 Y49.69110
X-4.72440 Y49.41170
X-4.69900 Y49.41170
X-4.69900 Y49.25930
X-4.67360 Y49.25930
X-4.67360 Y49.18310
X-4.64820 Y49.18310
X-4.64820 Y49.10690
X-4.62280 Y49.10690
X-4.62280 Y49.08150
X-4.59740 Y49.08150
X-4.59740 Y49.03070
X-4.57200 Y49.03070
X-4.57200 Y48.97990
X-4.54660 Y48.97990
X-4.54660 Y48.95450
X-4.52120 Y48.95450
X-4.52120 Y48.92910
X-4.49580 Y48.92910
X-4.49580 Y48.90370
X-4.47040 Y48.90370
X-4.47040 Y48.85290
X-4.44500 Y48.85290
X-4.44500 Y48.82750
X-4.39420 Y48.82750
X-4.39420 Y48.80210
X-4.34340 Y48.80210
X-4.34340 Y48.77670
X-4.31800 Y48.77670
X-4.31800 Y48.75130
X-4.26720 Y48.75130
X-4.26720 Y48.72590
X-4.21640 Y48.72590
X-4.21640 Y48.70050
X-4.19100 Y48.70050
X-4.19100 Y48.67510
X-4.14020 Y48.67510
X-4.14020 Y48.64970
X-4.01320 Y48.64970
X-4.01320 Y48.62430
X-3.86080 Y48.62430
X-3.86080 Y48.59890
X-3.68300 Y48.59890
X-3.68300 Y48.62430
X-3.53060 Y48.62430
X-3.53060 Y48.64970
X-3.40360 Y48.64970
X-3.40360 Y48.67510
X-3.35280 Y48.67510
X-3.35280 Y48.70050
X-3.32740 Y48.70050
X-3.32740 Y48.72590
X-3.27660 Y48.72590
X-3.27660 Y48.75130
X-3.22580 Y48.75130
X-3.22580 Y48.77670
X-3.20040 Y48.77670
X-3.20040 Y48.80210
X-3.14960 Y48.80210
X-3.14960 Y48.82750
X-3.09880 Y48.82750
X-3.09880 Y48.85290
X-3.07340 Y48.85290
X-3.07340 Y48.90370
X-3.04800 Y48.90370
X-3.04800 Y48.92910
X-3.02260 Y48.92910
X-3.02260 Y48.95450
X-2.99720 Y48.95450
X-2.99720 Y48.97990
X-2.97180 Y48.97990
X-2.97180 Y49.03070
X-2.94640 Y49.03070
X-2.94640 Y49.08150
X-2.92100 Y49.08150
X-2.92100 Y49.10690
X-2.89560 Y49.10690
X-2.89560 Y49.18310
X-2.87020 Y49.18310
X-2.87020 Y49.25930
X-2.84480 Y49.25930
X-2.84480 Y49.41170
X-2.81940 Y49.41170
X-2.81940 Y49.69110
X-2.84480 Y49.69110
X-2.84480 Y49.84350
X-2.87020 Y49.84350
X-2.87020 Y49.91970
X-2.89560 Y49.91970
X-2.89560 Y49.99590
X-2.92100 Y49.99590
X-2.92100 Y50.02130
X-2.94640 Y50.02130
X-2.94640 Y50.07210
X-2.97180 Y50.07210
X-2.97180 Y50.12290
X-2.99720 Y50.12290
X-2.99720 Y50.14830
X-3.02260 Y50.14830
X-3.02260 Y50.17370
X-3.04800 Y50.17370
X-3.04800 Y50.19910
X-3.07340 Y50.19910
X-3.07340 Y50.24990
X-3.09880 Y50.24990
X-3.09880 Y50.27530
X-3.14960 Y50.27530
X-3.14960 Y50.30070
X-3.20040 Y50.30070
X-3.20040 Y50.32610
X-3.22580 Y50.32610
X-3.22580 Y50.35150
X-3.27660 Y50.35150
X-3.27660 Y50.37690
X-3.32740 Y50.37690
X-3.32740 Y50.40230
X-3.35280 Y50.40230
X-3.35280 Y50.42770
X-3.40360 Y50.42770
X-3.40360 Y50.45310
X-3.53060 Y50.45310
X-3.53060 Y50.47850
X-3.68300 Y50.47850
X-3.68300 Y50.50390
X-3.86080 Y50.50390
X-3.86080 Y50.47850
G04 P0 ( dwell for no time -- G64 should not smooth over this point )
G00 Z3.00000 ( retract )

G00 X-19.10080 Y50.47850 ( rapid move to begin. )
G01 Z-0.10000
G04 P0 ( dwell for no time -- G64 should not smooth over this point )
X-19.10080 Y50.47850
X-19.25320 Y50.47850
X-19.25320 Y50.45310
X-19.38020 Y50.45310
X-19.38020 Y50.42770
X-19.43100 Y50.42770
X-19.43100 Y50.40230
X-19.45640 Y50.40230
X-19.45640 Y50.37690
X-19.50720 Y50.37690
X-19.50720 Y50.35150
X-19.55800 Y50.35150
X-19.55800 Y50.32610
X-19.58340 Y50.32610
X-19.58340 Y50.30070
X-19.63420 Y50.30070
X-19.63420 Y50.27530
X-19.68500 Y50.27530
X-19.68500 Y50.24990
X-19.71040 Y50.24990
X-19.71040 Y50.19910
X-19.73580 Y50.19910
X-19.73580 Y50.17370
X-19.76120 Y50.17370
X-19.76120 Y50.14830
X-19.78660 Y50.14830
X-19.78660 Y50.12290
X-19.81200 Y50.12290
X-19.81200 Y50.07210
X-19.83740 Y50.07210
X-19.83740 Y50.02130
X-19.86280 Y50.02130
X-19.86280 Y49.99590
X-19.88820 Y49.99590
X-19.88820 Y49.91970
X-19.91360 Y49.91970
X-19.91360 Y49.84350
X-19.93900 Y49.84350
X-19.93900 Y49.69110
X-19.96440 Y49.69110
X-19.96440 Y49.41170
X-19.93900 Y49.41170
X-19.93900 Y49.25930
X-19.91360 Y49.25930
X-19.91360 Y49.18310
X-19.88820 Y49.18310
X-19.88820 Y49.10690
X-19.86280 Y49.10690
X-19.86280 Y49.08150
X-19.83740 Y49.08150
X-19.83740 Y49.03070
X-19.81200 Y49.03070
X-19.81200 Y48.97990
X-19.78660 Y48.97990
X-19.78660 Y48.95450
X-19.76120 Y48.95450
X-19.76120 Y48.92910
X-19.73580 Y48.92910
X-19.73580 Y48.90370
X-19.71040 Y48.90370
X-19.71040 Y48.85290
X-19.68500 Y48.85290
X-19.68500 Y48.82750
X-19.63420 Y48.82750
X-19.63420 Y48.80210
X-19.58340 Y48.80210
X-19.58340 Y48.77670
X-19.55800 Y48.77670
X-19.55800 Y48.75130
X-19.50720 Y48.75130
X-19.50720 Y48.72590
X-19.45640 Y48.72590
X-19.45640 Y48.70050
X-19.43100 Y48.70050
X-19.43100 Y48.67510
X-19.38020 Y48.67510
X-19.38020 Y48.64970
X-19.25320 Y48.64970
X-19.25320 Y48.62430
X-19.10080 Y48.62430
X-19.10080 Y48.59890
X-18.92300 Y48.59890
X-18.92300 Y48.62430
X-18.77060 Y48.62430
X-18.77060 Y48.64970
X-18.64360 Y48.64970
X-18.64360 Y48.67510
X-18.59280 Y48.67510
X-18.59280 Y48.70050
X-18.56740 Y48.70050
X-18.56740 Y48.72590
X-18.51660 Y48.72590
X-18.51660 Y48.75130
X-18.46580 Y48.75130
X-18.46580 Y48.77670
X-18.44040 Y48.77670
X-18.44040 Y48.80210
X-18.38960 Y48.80210
X-18.38960 Y48.82750
X-18.33880 Y48.82750
X-18.33880 Y48.85290
X-18.31340 Y48.85290
X-18.31340 Y48.90370
X-18.28800 Y48.90370
X-18.28800 Y48.92910
X-18.26260 Y48.92910
X-18.26260 Y48.95450
X-18.23720 Y48.95450
X-18.23720 Y48.97990
X-18.21180 Y48.97990
X-18.21180 Y49.03070
X-18.18640 Y49.03070
X-18.18640 Y49.08150
X-18.16100 Y49.08150
X-18.16100 Y49.10690
X-18.13560 Y49.10690
X-18.13560 Y49.18310
X-18.11020 Y49.18310
X-18.11020 Y49.25930
X-18.08480 Y49.25930
X-18.08480 Y49.41170
X-18.05940 Y49.41170
X-18.05940 Y49.69110
X-18.08480 Y49.69110
X-18.08480 Y49.84350
X-18.11020 Y49.84350
X-18.11020 Y49.91970
X-18.13560 Y49.91970
X-18.13560 Y49.99590
X-18.16100 Y49.99590
X-18.16100 Y50.02130
X-18.18640 Y50.02130
X-18.18640 Y50.07210
X-18.21180 Y50.07210
X-18.21180 Y50.12290
X-18.23720 Y50.12290
X-18.23720 Y50.14830
X-18.26260 Y50.14830
X-18.26260 Y50.17370
X-18.28800 Y50.17370
X-18.28800 Y50.19910
X-18.31340 Y50.19910
X-18.31340 Y50.24990
X-18.33880 Y50.24990
X-18.33880 Y50.27530
X-18.38960 Y50.27530
X-18.38960 Y50.30070
X-18.44040 Y50.30070
X-18.44040 Y50.32610
X-18.46580 Y50.32610
X-18.46580 Y50.35150
X-18.51660 Y50.35150
X-18.51660 Y50.37690
X-18.56740 Y50.37690
X-18.56740 Y50.40230
X-18.59280 Y50.40230
X-18.59280 Y50.42770
X-18.64360 Y50.42770
X-18.64360 Y50.45310
X-18.77060 Y50.45310
X-18.77060 Y50.47850
X-18.92300 Y50.47850
X-18.92300 Y50.50390
X-19.10080 Y50.50390
X-19.10080 Y50.47850
G04 P0 ( dwell for no time -- G64 should not smooth over this point )
G00 Z3.00000 ( retract )

G00 X-3.86080 Y47.93850 ( rapid move to begin. )
G01 Z-0.10000
G04 P0 ( dwell for no time -- G64 should not smooth over this point )
X-3.86080 Y47.93850
X-4.01320 Y47.93850
X-4.01320 Y47.91310
X-4.14020 Y47.91310
X-4.14020 Y47.88770
X-4.19100 Y47.88770
X-4.19100 Y47.86230
X-4.21640 Y47.86230
X-4.21640 Y47.83690
X-4.26720 Y47.83690
X-4.26720 Y47.81150
X-4.31800 Y47.81150
X-4.31800 Y47.78610
X-4.34340 Y47.78610
X-4.34340 Y47.76070
X-4.39420 Y47.76070
X-4.39420 Y47.73530
X-4.44500 Y47.73530
X-4.44500 Y47.70990
X-4.47040 Y47.70990
X-4.47040 Y47.65910
X-4.49580 Y47.65910
X-4.49580 Y47.63370
X-4.52120 Y47.63370
X-4.52120 Y47.60830
X-4.54660 Y47.60830
X-4.54660 Y47.58290
X-4.57200 Y47.58290
X-4.57200 Y47.53210
X-4.59740 Y47.53210
X-4.59740 Y47.48130
X-4.62280 Y47.48130
X-4.62280 Y47.45590
X-4.64820 Y47.45590
X-4.64820 Y47.37970
X-4.67360 Y47.37970
X-4.67360 Y47.30350
X-4.69900 Y47.30350
X-4.69900 Y47.15110
X-4.72440 Y47.15110
X-4.72440 Y46.87170
X-4.69900 Y46.87170
X-4.69900 Y46.71930
X-4.67360 Y46.71930
X-4.67360 Y46.64310
X-4.64820 Y46.64310
X-4.64820 Y46.56690
X-4.62280 Y46.56690
X-4.62280 Y46.54150
X-4.59740 Y46.54150
X-4.59740 Y46.49070
X-4.57200 Y46.49070
X-4.57200 Y46.43990
X-4.54660 Y46.43990
X-4.54660 Y46.41450
X-4.52120 Y46.41450
X-4.52120 Y46.38910
X-4.49580 Y46.38910
X-4.49580 Y46.36370
X-4.47040 Y46.36370
X-4.47040 Y46.31290
X-4.44500 Y46.31290
X-4.44500 Y46.28750
X-4.39420 Y46.28750
X-4.39420 Y46.26210
X-4.34340 Y46.26210
X-4.34340 Y46.23670
X-4.31800 Y46.23670
X-4.31800 Y46.21130
X-4.26720 Y46.21130
X-4.26720 Y46.18590
X-4.21640 Y46.18590
X-4.21640 Y46.16050
X-4.19100 Y46.16050
X-4.19100 Y46.13510
X-4.14020 Y46.13510
X-4.14020 Y46.10970
X-4.01320 Y46.10970
X-4.01320 Y46.08430
X-3.86080 Y46.08430
X-3.86080 Y46.05890
X-3.68300 Y46.05890
X-3.68300 Y46.08430
X-3.53060 Y46.08430
X-3.53060 Y46.10970
X-3.40360 Y46.10970
X-3.40360 Y46.13510
X-3.35280 Y46.13510
X-3.35280 Y46.16050
X-3.32740 Y46.16050
X-3.32740 Y46.18590
X-3.27660 Y46.18590
X-3.27660 Y46.21130
X-3.22580 Y46.21130
X-3.22580 Y46.23670
X-3.20040 Y46.23670
X-3.20040 Y46.26210
X-3.14960 Y46.26210
X-3.14960 Y46.28750
X-3.09880 Y46.28750
X-3.09880 Y46.31290
X-3.07340 Y46.31290
X-3.07340 Y46.36370
X-3.04800 Y46.36370
X-3.04800 Y46.38910
X-3.02260 Y46.38910
X-3.02260 Y46.41450
X-2.99720 Y46.41450
X-2.99720 Y46.43990
X-2.97180 Y46.43990
X-2.97180 Y46.49070
X-2.94640 Y46.49070
X-2.94640 Y46.54150
X-2.92100 Y46.54150
X-2.92100 Y46.56690
X-2.89560 Y46.56690
X-2.89560 Y46.64310
X-2.87020 Y46.64310
X-2.87020 Y46.71930
X-2.84480 Y46.71930
X-2.84480 Y46.87170
X-2.81940 Y46.87170
X-2.81940 Y47.15110
X-2.84480 Y47.15110
X-2.84480 Y47.30350
X-2.87020 Y47.30350
X-2.87020 Y47.37970
X-2.89560 Y47.37970
X-2.89560 Y47.45590
X-2.92100 Y47.45590
X-2.92100 Y47.48130
X-2.94640 Y47.48130
X-2.94640 Y47.53210
X-2.97180 Y47.53210
X-2.97180 Y47.58290
X-2.99720 Y47.58290
X-2.99720 Y47.60830
X-3.02260 Y47.60830
X-3.02260 Y47.63370
X-3.04800 Y47.63370
X-3.04800 Y47.65910
X-3.07340 Y47.65910
X-3.07340 Y47.70990
X-3.09880 Y47.70990
X-3.09880 Y47.73530
X-3.14960 Y47.73530
X-3.14960 Y47.76070
X-3.20040 Y47.76070
X-3.20040 Y47.78610
X-3.22580 Y47.78610
X-3.22580 Y47.81150
X-3.27660 Y47.81150
X-3.27660 Y47.83690
X-3.32740 Y47.83690
X-3.32740 Y47.86230
X-3.35280 Y47.86230
X-3.35280 Y47.88770
X-3.40360 Y47.88770
X-3.40360 Y47.91310
X-3.53060 Y47.91310
X-3.53060 Y47.93850
X-3.68300 Y47.93850
X-3.68300 Y47.96390
X-3.86080 Y47.96390
X-3.86080 Y47.93850
G04 P0 ( dwell for no time -- G64 should not smooth over this point )
G00 Z3.00000 ( retract )

G00 X-19.10080 Y47.93850 ( rapid move to begin. )
G01 Z-0.10000
G04 P0 ( dwell for no time -- G64 should not smooth over this point )
X-19.10080 Y47.93850
X-19.25320 Y47.93850
X-19.25320 Y47.91310
X-19.38020 Y47.91310
X-19.38020 Y47.88770
X-19.43100 Y47.88770
X-19.43100 Y47.86230
X-19.45640 Y47.86230
X-19.45640 Y47.83690
X-19.50720 Y47.83690
X-19.50720 Y47.81150
X-19.55800 Y47.81150
X-19.55800 Y47.78610
X-19.58340 Y47.78610
X-19.58340 Y47.76070
X-19.63420 Y47.76070
X-19.63420 Y47.73530
X-19.68500 Y47.73530
X-19.68500 Y47.70990
X-19.71040 Y47.70990
X-19.71040 Y47.65910
X-19.73580 Y47.65910
X-19.73580 Y47.63370
X-19.76120 Y47.63370
X-19.76120 Y47.60830
X-19.78660 Y47.60830
X-19.78660 Y47.58290
X-19.81200 Y47.58290
X-19.81200 Y47.53210
X-19.83740 Y47.53210
X-19.83740 Y47.48130
X-19.86280 Y47.48130
X-19.86280 Y47.45590
X-19.88820 Y47.45590
X-19.88820 Y47.37970
X-19.91360 Y47.37970
X-19.91360 Y47.30350
X-19.93900 Y47.30350
X-19.93900 Y47.15110
X-19.96440 Y47.15110
X-19.96440 Y46.87170
X-19.93900 Y46.87170
X-19.93900 Y46.71930
X-19.91360 Y46.71930
X-19.91360 Y46.64310
X-19.88820 Y46.64310
X-19.88820 Y46.56690
X-19.86280 Y46.56690
X-19.86280 Y46.54150
X-19.83740 Y46.54150
X-19.83740 Y46.49070
X-19.81200 Y46.49070
X-19.81200 Y46.43990
X-19.78660 Y46.43990
X-19.78660 Y46.41450
X-19.76120 Y46.41450
X-19.76120 Y46.38910
X-19.73580 Y46.38910
X-19.73580 Y46.36370
X-19.71040 Y46.36370
X-19.71040 Y46.31290
X-19.68500 Y46.31290
X-19.68500 Y46.28750
X-19.63420 Y46.28750
X-19.63420 Y46.26210
X-19.58340 Y46.26210
X-19.58340 Y46.23670
X-19.55800 Y46.23670
X-19.55800 Y46.21130
X-19.50720 Y46.21130
X-19.50720 Y46.18590
X-19.45640 Y46.18590
X-19.45640 Y46.16050
X-19.43100 Y46.16050
X-19.43100 Y46.13510
X-19.38020 Y46.13510
X-19.38020 Y46.10970
X-19.25320 Y46.10970
X-19.25320 Y46.08430
X-19.10080 Y46.08430
X-19.10080 Y46.05890
X-18.92300 Y46.05890
X-18.92300 Y46.08430
X-18.77060 Y46.08430
X-18.77060 Y46.10970
X-18.64360 Y46.10970
X-18.64360 Y46.13510
X-18.59280 Y46.13510
X-18.59280 Y46.16050
X-18.56740 Y46.16050
X-18.56740 Y46.18590
X-18.51660 Y46.18590
X-18.51660 Y46.21130
X-18.46580 Y46.21130
X-18.46580 Y46.23670
X-18.44040 Y46.23670
X-18.44040 Y46.26210
X-18.38960 Y46.26210
X-18.38960 Y46.28750
X-18.33880 Y46.28750
X-18.33880 Y46.31290
X-18.31340 Y46.31290
X-18.31340 Y46.36370
X-18.28800 Y46.36370
X-18.28800 Y46.38910
X-18.26260 Y46.38910
X-18.26260 Y46.41450
X-18.23720 Y46.41450
X-18.23720 Y46.43990
X-18.21180 Y46.43990
X-18.21180 Y46.49070
X-18.18640 Y46.49070
X-18.18640 Y46.54150
X-18.16100 Y46.54150
X-18.16100 Y46.56690
X-18.13560 Y46.56690
X-18.13560 Y46.64310
X-18.11020 Y46.64310
X-18.11020 Y46.71930
X-18.08480 Y46.71930
X-18.08480 Y46.87170
X-18.05940 Y46.87170
X-18.05940 Y47.15110
X-18.08480 Y47.15110
X-18.08480 Y47.30350
X-18.11020 Y47.30350
X-18.11020 Y47.37970
X-18.13560 Y47.37970
X-18.13560 Y47.45590
X-18.16100 Y47.45590
X-18.16100 Y47.48130
X-18.18640 Y47.48130
X-18.18640 Y47.53210
X-18.21180 Y47.53210
X-18.21180 Y47.58290
X-18.23720 Y47.58290
X-18.23720 Y47.60830
X-18.26260 Y47.60830
X-18.26260 Y47.63370
X-18.28800 Y47.63370
X-18.28800 Y47.65910
X-18.31340 Y47.65910
X-18.31340 Y47.70990
X-18.33880 Y47.70990
X-18.33880 Y47.73530
X-18.38960 Y47.73530
X-18.38960 Y47.76070
X-18.44040 Y47.76070
X-18.44040 Y47.78610
X-18.46580 Y47.78610
X-18.46580 Y47.81150
X-18.51660 Y47.81150
X-18.51660 Y47.83690
X-18.56740 Y47.83690
X-18.56740 Y47.86230
X-18.59280 Y47.86230
X-18.59280 Y47.88770
X-18.64360 Y47.88770
X-18.64360 Y47.91310
X-18.77060 Y47.91310
X-18.77060 Y47.93850
X-18.92300 Y47.93850
X-18.92300 Y47.96390
X-19.10080 Y47.96390
X-19.10080 Y47.93850
G04 P0 ( dwell for no time -- G64 should not smooth over this point )
G00 Z3.00000 ( retract )

G00 X-3.86080 Y45.39850 ( rapid move to begin. )
G01 Z-0.10000
G04 P0 ( dwell for no time -- G64 should not smooth over this point )
X-3.86080 Y45.39850
X-4.01320 Y45.39850
X-4.01320 Y45.37310
X-4.14020 Y45.37310
X-4.14020 Y45.34770
X-4.19100 Y45.34770
X-4.19100 Y45.32230
X-4.21640 Y45.32230
X-4.21640 Y45.29690
X-4.26720 Y45.29690
X-4.26720 Y45.27150
X-4.31800 Y45.27150
X-4.31800 Y45.24610
X-4.34340 Y45.24610
X-4.34340 Y45.22070
X-4.39420 Y45.22070
X-4.39420 Y45.19530
X-4.44500 Y45.19530
X-4.44500 Y45.16990
X-4.47040 Y45.16990
X-4.47040 Y45.11910
X-4.49580 Y45.11910
X-4.49580 Y45.09370
X-4.52120 Y45.09370
X-4.52120 Y45.06830
X-4.54660 Y45.06830
X-4.54660 Y45.04290
X-4.57200 Y45.04290
X-4.57200 Y44.99210
X-4.59740 Y44.99210
X-4.59740 Y44.94130
X-4.62280 Y44.94130
X-4.62280 Y44.91590
X-4.64820 Y44.91590
X-4.64820 Y44.83970
X-4.67360 Y44.83970
X-4.67360 Y44.76350
X-4.69900 Y44.76350
X-4.69900 Y44.61110
X-4.72440 Y44.61110
X-4.72440 Y44.33170
X-4.69900 Y44.33170
X-4.69900 Y44.17930
X-4.67360 Y44.17930
X-4.67360 Y44.10310
X-4.64820 Y44.10310
X-4.64820 Y44.02690
X-4.62280 Y44.02690
X-4.62280 Y44.00150
X-4.59740 Y44.00150
X-4.59740 Y43.95070
X-4.57200 Y43.95070
X-4.57200 Y43.89990
X-4.54660 Y43.89990
X-4.54660 Y43.87450
X-4.52120 Y43.87450
X-4.52120 Y43.84910
X-4.49580 Y43.84910
X-4.49580 Y43.82370
X-4.47040 Y43.82370
X-4.47040 Y43.77290
X-4.44500 Y43.77290
X-4.44500 Y43.74750
X-4.39420 Y43.74750
X-4.39420 Y43.72210
X-4.34340 Y43.72210
X-4.34340 Y43.69670
X-4.31800 Y43.69670
X-4.31800 Y43.67130
X-4.26720 Y43.67130
X-4.26720 Y43.64590
X-4.21640 Y43.64590
X-4.21640 Y43.62050
X-4.19100 Y43.62050
X-4.19100 Y43.59510
X-4.14020 Y43.59510
X-4.14020 Y43.56970
X-4.01320 Y43.56970
X-4.01320 Y43.54430
X-3.86080 Y43.54430
X-3.86080 Y43.51890
X-3.68300 Y43.51890
X-3.68300 Y43.54430
X-3.53060 Y43.54430
X-3.53060 Y43.56970
X-3.40360 Y43.56970
X-3.40360 Y43.59510
X-3.35280 Y43.59510
X-3.35280 Y43.62050
X-3.32740 Y43.62050
X-3.32740 Y43.64590
X-3.27660 Y43.64590
X-3.27660 Y43.67130
X-3.22580 Y43.67130
X-3.22580 Y43.69670
X-3.20040 Y43.69670
X-3.20040 Y43.72210
X-3.14960 Y43.72210
X-3.14960 Y43.74750
X-3.09880 Y43.74750
X-3.09880 Y43.77290
X-3.07340 Y43.77290
X-3.07340 Y43.82370
X-3.04800 Y43.82370
X-3.04800 Y43.84910
X-3.02260 Y43.84910
X-3.02260 Y43.87450
X-2.99720 Y43.87450
X-2.99720 Y43.89990
X-2.97180 Y43.89990
X-2.97180 Y43.95070
X-2.94640 Y43.95070
X-2.94640 Y44.00150
X-2.92100 Y44.00150
X-2.92100 Y44.02690
X-2.89560 Y44.02690
X-2.89560 Y44.10310
X-2.87020 Y44.10310
X-2.87020 Y44.17930
X-2.84480 Y44.17930
X-2.84480 Y44.33170
X-2.81940 Y44.33170
X-2.81940 Y44.61110
X-2.84480 Y44.61110
X-2.84480 Y44.76350
X-2.87020 Y44.76350
X-2.87020 Y44.83970
X-2.89560 Y44.83970
X-2.89560 Y44.91590
X-2.92100 Y44.91590
X-2.92100 Y44.94130
X-2.94640 Y44.94130
X-2.94640 Y44.99210
X-2.97180 Y44.99210
X-2.97180 Y45.04290
X-2.99720 Y45.04290
X-2.99720 Y45.06830
X-3.02260 Y45.06830
X-3.02260 Y45.09370
X-3.04800 Y45.09370
X-3.04800 Y45.11910
X-3.07340 Y45.11910
X-3.07340 Y45.16990
X-3.09880 Y45.16990
X-3.09880 Y45.19530
X-3.14960 Y45.19530
X-3.14960 Y45.22070
X-3.20040 Y45.22070
X-3.20040 Y45.24610
X-3.22580 Y45.24610
X-3.22580 Y45.27150
X-3.27660 Y45.27150
X-3.27660 Y45.29690
X-3.32740 Y45.29690
X-3.32740 Y45.32230
X-3.35280 Y45.32230
X-3.35280 Y45.34770
X-3.40360 Y45.34770
X-3.40360 Y45.37310
X-3.53060 Y45.37310
X-3.53060 Y45.39850
X-3.68300 Y45.39850
X-3.68300 Y45.42390
X-3.86080 Y45.42390
X-3.86080 Y45.39850
G04 P0 ( dwell for no time -- G64 should not smooth over this point )
G00 Z3.00000 ( retract )

G00 X-19.10080 Y45.39850 ( rapid move to begin. )
G01 Z-0.10000
G04 P0 ( dwell for no time -- G64 should not smooth over this point )
X-19.10080 Y45.39850
X-19.25320 Y45.39850
X-19.25320 Y45.37310
X-19.38020 Y45.37310
X-19.38020 Y45.34770
X-19.43100 Y45.34770
X-19.43100 Y45.32230
X-19.45640 Y45.32230
X-19.45640 Y45.29690
X-19.50720 Y45.29690
X-19.50720 Y45.27150
X-19.55800 Y45.27150
X-19.55800 Y45.24610
X-19.58340 Y45.24610
X-19.58340 Y45.22070
X-19.63420 Y45.22070
X-19.63420 Y45.19530
X-19.68500 Y45.19530
X-19.68500 Y45.16990
X-19.71040 Y45.16990
X-19.71040 Y45.11910
X-19.73580 Y45.11910
X-19.73580 Y45.09370
X-19.76120 Y45.09370
X-19.76120 Y45.06830
X-19.78660 Y45.06830
X-19.78660 Y45.04290
X-19.81200 Y45.04290
X-19.81200 Y44.99210
X-19.83740 Y44.99210
X-19.83740 Y44.94130
X-19.86280 Y44.94130
X-19.86280 Y44.91590
X-19.88820 Y44.91590
X-19.88820 Y44.83970
X-19.91360 Y44.83970
X-19.91360 Y44.76350
X-19.93900 Y44.76350
X-19.93900 Y44.61110
X-19.96440 Y44.61110
X-19.96440 Y44.33170
X-19.93900 Y44.33170
X-19.93900 Y44.17930
X-19.91360 Y44.17930
X-19.91360 Y44.10310
X-19.88820 Y44.10310
X-19.88820 Y44.02690
X-19.86280 Y44.02690
X-19.86280 Y44.00150
X-19.83740 Y44.00150
X-19.83740 Y43.95070
X-19.81200 Y43.95070
X-19.81200 Y43.89990
X-19.78660 Y43.89990
X-19.78660 Y43.87450
X-19.76120 Y43.87450
X-19.76120 Y43.84910
X-19.73580 Y43.84910
X-19.73580 Y43.82370
X-19.71040 Y43.82370
X-19.71040 Y43.77290
X-19.68500 Y43.77290
X-19.68500 Y43.74750
X-19.63420 Y43.74750
X-19.63420 Y43.72210
X-19.58340 Y43.72210
X-19.58340 Y43.69670
X-19.55800 Y43.69670
X-19.55800 Y43.67130
X-19.50720 Y43.67130
X-19.50720 Y43.64590
X-19.45640 Y43.64590
X-19.45640 Y43.62050
X-19.43100 Y43.62050
X-19.43100 Y43.59510
X-19.38020 Y43.59510
X-19.38020 Y43.56970
X-19.25320 Y43.56970
X-19.25320 Y43.54430
X-19.10080 Y43.54430
X-19.10080 Y43.51890
X-18.92300 Y43.51890
X-18.92300 Y43.54430
X-18.77060 Y43.54430
X-18.77060 Y43.56970
X-18.64360 Y43.56970
X-18.64360 Y43.59510
X-18.59280 Y43.59510
X-18.59280 Y43.62050
X-18.56740 Y43.62050
X-18.56740 Y43.64590
X-18.51660 Y43.64590
X-18.51660 Y43.67130
X-18.46580 Y43.67130
X-18.46580 Y43.69670
X-18.44040 Y43.69670
X-18.44040 Y43.72210
X-18.38960 Y43.72210
X-18.38960 Y43.74750
X-18.33880 Y43.74750
X-18.33880 Y43.77290
X-18.31340 Y43.77290
X-18.31340 Y43.82370
X-18.28800 Y43.82370
X-18.28800 Y43.84910
X-18.26260 Y43.84910
X-18.26260 Y43.87450
X-18.23720 Y43.87450
X-18.23720 Y43.89990
X-18.21180 Y43.89990
X-18.21180 Y43.95070
X-18.18640 Y43.95070
X-18.18640 Y44.00150
X-18.16100 Y44.00150
X-18.16100 Y44.02690
X-18.13560 Y44.02690
X-18.13560 Y44.10310
X-18.11020 Y44.10310
X-18.11020 Y44.17930
X-18.08480 Y44.17930
X-18.08480 Y44.33170
X-18.05940 Y44.33170
X-18.05940 Y44.61110
X-18.08480 Y44.61110
X-18.08480 Y44.76350
X-18.11020 Y44.76350
X-18.11020 Y44.83970
X-18.13560 Y44.83970
X-18.13560 Y44.91590
X-18.16100 Y44.91590
X-18.16100 Y44.94130
X-18.18640 Y44.94130
X-18.18640 Y44.99210
X-18.21180 Y44.99210
X-18.21180 Y45.04290
X-18.23720 Y45.04290
X-18.23720 Y45.06830
X-18.26260 Y45.06830
X-18.26260 Y45.09370
X-18.28800 Y45.09370
X-18.28800 Y45.11910
X-18.31340 Y45.11910
X-18.31340 Y45.16990
X-18.33880 Y45.16990
X-18.33880 Y45.19530
X-18.38960 Y45.19530
X-18.38960 Y45.22070
X-18.44040 Y45.22070
X-18.44040 Y45.24610
X-18.46580 Y45.24610
X-18.46580 Y45.27150
X-18.51660 Y45.27150
X-18.51660 Y45.29690
X-18.56740 Y45.29690
X-18.56740 Y45.32230
X-18.59280 Y45.32230
X-18.59280 Y45.34770
X-18.64360 Y45.34770
X-18.64360 Y45.37310
X-18.77060 Y45.37310
X-18.77060 Y45.39850
X-18.92300 Y45.39850
X-18.92300 Y45.42390
X-19.10080 Y45.42390
X-19.10080 Y45.39850
G04 P0 ( dwell for no time -- G64 should not smooth over this point )
G00 Z3.00000 ( retract )

G00 X-3.86080 Y42.85850 ( rapid move to begin. )
G01 Z-0.10000
G04 P0 ( dwell for no time -- G64 should not smooth over this point )
X-3.86080 Y42.85850
X-4.01320 Y42.85850
X-4.01320 Y42.83310
X-4.14020 Y42.83310
X-4.14020 Y42.80770
X-4.19100 Y42.80770
X-4.19100 Y42.78230
X-4.21640 Y42.78230
X-4.21640 Y42.75690
X-4.26720 Y42.75690
X-4.26720 Y42.73150
X-4.31800 Y42.73150
X-4.31800 Y42.70610
X-4.34340 Y42.70610
X-4.34340 Y42.68070
X-4.39420 Y42.68070
X-4.39420 Y42.65530
X-4.44500 Y42.65530
X-4.44500 Y42.62990
X-4.47040 Y42.62990
X-4.47040 Y42.57910
X-4.49580 Y42.57910
X-4.49580 Y42.55370
X-4.52120 Y42.55370
X-4.52120 Y42.52830
X-4.54660 Y42.52830
X-4.54660 Y42.50290
X-4.57200 Y42.50290
X-4.57200 Y42.45210
X-4.59740 Y42.45210
X-4.59740 Y42.40130
X-4.62280 Y42.40130
X-4.62280 Y42.37590
X-4.64820 Y42.37590
X-4.64820 Y42.29970
X-4.67360 Y42.29970
X-4.67360 Y42.22350
X-4.69900 Y42.22350
X-4.69900 Y42.07110
X-4.72440 Y42.07110
X-4.72440 Y41.79170
X-4.69900 Y41.79170
X-4.69900 Y41.63930
X-4.67360 Y41.63930
X-4.67360 Y41.56310
X-4.64820 Y41.56310
X-4.64820 Y41.48690
X-4.62280 Y41.48690
X-4.62280 Y41.46150
X-4.59740 Y41.46150
X-4.59740 Y41.41070
X-4.57200 Y41.41070
X-4.57200 Y41.35990
X-4.54660 Y41.35990
X-4.54660 Y41.33450
X-4.52120 Y41.33450
X-4.52120 Y41.30910
X-4.49580 Y41.30910
X-4.49580 Y41.28370
X-4.47040 Y41.28370
X-4.47040 Y41.23290
X-4.44500 Y41.23290
X-4.44500 Y41.20750
X-4.39420 Y41.20750
X-4.39420 Y41.18210
X-4.34340 Y41.18210
X-4.34340 Y41.15670
X-4.31800 Y41.15670
X-4.31800 Y41.13130
X-4.26720 Y41.13130
X-4.26720 Y41.10590
X-4.21640 Y41.10590
X-4.21640 Y41.08050
X-4.19100 Y41.08050
X-4.19100 Y41.05510
X-4.14020 Y41.05510
X-4.14020 Y41.02970
X-4.01320 Y41.02970
X-4.01320 Y41.00430
X-3.86080 Y41.00430
X-3.86080 Y40.97890
X-3.68300 Y40.97890
X-3.68300 Y41.00430
X-3.53060 Y41.00430
X-3.53060 Y41.02970
X-3.40360 Y41.02970
X-3.40360 Y41.05510
X-3.35280 Y41.05510
X-3.35280 Y41.08050
X-3.32740 Y41.08050
X-3.32740 Y41.10590
X-3.27660 Y41.10590
X-3.27660 Y41.13130
X-3.22580 Y41.13130
X-3.22580 Y41.15670
X-3.20040 Y41.15670
X-3.20040 Y41.18210
X-3.14960 Y41.18210
X-3.14960 Y41.20750
X-3.09880 Y41.20750
X-3.09880 Y41.23290
X-3.07340 Y41.23290
X-3.07340 Y41.28370
X-3.04800 Y41.28370
X-3.04800 Y41.30910
X-3.02260 Y41.30910
X-3.02260 Y41.33450
X-2.99720 Y41.33450
X-2.99720 Y41.35990
X-2.97180 Y41.35990
X-2.97180 Y41.41070
X-2.94640 Y41.41070
X-2.94640 Y41.46150
X-2.92100 Y41.46150
X-2.92100 Y41.48690
X-2.89560 Y41.48690
X-2.89560 Y41.56310
X-2.87020 Y41.56310
X-2.87020 Y41.63930
X-2.84480 Y41.63930
X-2.84480 Y41.79170
X-2.81940 Y41.79170
X-2.81940 Y42.07110
X-2.84480 Y42.07110
X-2.84480 Y42.22350
X-2.87020 Y42.22350
X-2.87020 Y42.29970
X-2.89560 Y42.29970
X-2.89560 Y42.37590
X-2.92100 Y42.37590
X-2.92100 Y42.40130
X-2.94640 Y42.40130
X-2.94640 Y42.45210
X-2.97180 Y42.45210
X-2.97180 Y42.50290
X-2.99720 Y42.50290
X-2.99720 Y42.52830
X-3.02260 Y42.52830
X-3.02260 Y42.55370
X-3.04800 Y42.55370
X-3.04800 Y42.57910
X-3.07340 Y42.57910
X-3.07340 Y42.62990
X-3.09880 Y42.62990
X-3.09880 Y42.65530
X-3.14960 Y42.65530
X-3.14960 Y42.68070
X-3.20040 Y42.68070
X-3.20040 Y42.70610
X-3.22580 Y42.70610
X-3.22580 Y42.73150
X-3.27660 Y42.73150
X-3.27660 Y42.75690
X-3.32740 Y42.75690
X-3.32740 Y42.78230
X-3.35280 Y42.78230
X-3.35280 Y42.80770
X-3.40360 Y42.80770
X-3.40360 Y42.83310
X-3.53060 Y42.83310
X-3.53060 Y42.85850
X-3.68300 Y42.85850
X-3.68300 Y42.88390
X-3.86080 Y42.88390
X-3.86080 Y42.85850
G04 P0 ( dwell for no time -- G64 should not smooth over this point )
G00 Z3.00000 ( retract )

G00 X-19.10080 Y42.85850 ( rapid move to begin. )
G01 Z-0.10000
G04 P0 ( dwell for no time -- G64 should not smooth over this point )
X-19.10080 Y42.85850
X-19.25320 Y42.85850
X-19.25320 Y42.83310
X-19.38020 Y42.83310
X-19.38020 Y42.80770
X-19.43100 Y42.80770
X-19.43100 Y42.78230
X-19.45640 Y42.78230
X-19.45640 Y42.75690
X-19.50720 Y42.75690
X-19.50720 Y42.73150
X-19.55800 Y42.73150
X-19.55800 Y42.70610
X-19.58340 Y42.70610
X-19.58340 Y42.68070
X-19.63420 Y42.68070
X-19.63420 Y42.65530
X-19.68500 Y42.65530
X-19.68500 Y42.62990
X-19.71040 Y42.62990
X-19.71040 Y42.57910
X-19.73580 Y42.57910
X-19.73580 Y42.55370
X-19.76120 Y42.55370
X-19.76120 Y42.52830
X-19.78660 Y42.52830
X-19.78660 Y42.50290
X-19.81200 Y42.50290
X-19.81200 Y42.45210
X-19.83740 Y42.45210
X-19.83740 Y42.40130
