( pcb2gcode 1.1.4 )
      
G94     ( Millimeters per minute feed rate. )
G21     ( Units == Millimeters. )

G90     ( Absolute coordinates.        )
S30000  ( RPM spindle speed.           )
F300.00000
M3      ( Spindle on clockwise.        )

G64 P0.01000 ( set maximum deviation from commanded toolpath )

G04 P0 ( dwell for no time -- G64 should not smooth over this point )
G00 Z3.00000 ( retract )

G00 X3.88620 Y60.66028 ( rapid move to begin. )
G01 Z-0.10000
G04 P0 ( dwell for no time -- G64 should not smooth over this point )
X3.88620 Y60.66028
X4.03860 Y60.66028
X4.03860 Y60.63488
X4.16560 Y60.63488
X4.16560 Y60.60948
X4.21640 Y60.60948
X4.21640 Y60.58408
X4.24180 Y60.58408
X4.24180 Y60.55868
X4.29260 Y60.55868
X4.29260 Y60.53328
X4.34340 Y60.53328
X4.34340 Y60.50788
X4.36880 Y60.50788
X4.36880 Y60.48248
X4.41960 Y60.48248
X4.41960 Y60.45708
X4.47040 Y60.45708
X4.47040 Y60.43168
X4.49580 Y60.43168
X4.49580 Y60.38088
X4.52120 Y60.38088
X4.52120 Y60.35548
X4.54660 Y60.35548
X4.54660 Y60.33008
X4.57200 Y60.33008
X4.57200 Y60.30468
X4.59740 Y60.30468
X4.59740 Y60.25388
X4.62280 Y60.25388
X4.62280 Y60.20308
X4.64820 Y60.20308
X4.64820 Y60.17768
X4.67360 Y60.17768
X4.67360 Y60.10148
X4.69900 Y60.10148
X4.69900 Y60.02528
X4.72440 Y60.02528
X4.72440 Y59.87288
X4.74980 Y59.87288
X4.74980 Y59.59348
X4.72440 Y59.59348
X4.72440 Y59.44108
X4.69900 Y59.44108
X4.69900 Y59.36488
X4.67360 Y59.36488
X4.67360 Y59.28868
X4.64820 Y59.28868
X4.64820 Y59.26328
X4.62280 Y59.26328
X4.62280 Y59.21248
X4.59740 Y59.21248
X4.59740 Y59.16168
X4.57200 Y59.16168
X4.57200 Y59.13628
X4.54660 Y59.13628
X4.54660 Y59.11088
X4.52120 Y59.11088
X4.52120 Y59.08548
X4.49580 Y59.08548
X4.49580 Y59.03468
X4.47040 Y59.03468
X4.47040 Y59.00928
X4.41960 Y59.00928
X4.41960 Y58.98388
X4.36880 Y58.98388
X4.36880 Y58.95848
X4.34340 Y58.95848
X4.34340 Y58.93308
X4.29260 Y58.93308
X4.29260 Y58.90768
X4.24180 Y58.90768
X4.24180 Y58.88228
X4.21640 Y58.88228
X4.21640 Y58.85688
X4.16560 Y58.85688
X4.16560 Y58.83148
X4.03860 Y58.83148
X4.03860 Y58.80608
X3.88620 Y58.80608
X3.88620 Y58.78068
X3.70840 Y58.78068
X3.70840 Y58.80608
X3.55600 Y58.80608
X3.55600 Y58.83148
X3.42900 Y58.83148
X3.42900 Y58.85688
X3.37820 Y58.85688
X3.37820 Y58.88228
X3.35280 Y58.88228
X3.35280 Y58.90768
X3.30200 Y58.90768
X3.30200 Y58.88228
X3.27660 Y58.88228
X3.27660 Y58.85688
X3.25120 Y58.85688
X3.25120 Y58.83148
X3.20040 Y58.83148
X3.20040 Y58.80608
X3.17500 Y58.80608
X3.17500 Y58.78068
X3.14960 Y58.78068
X3.14960 Y58.75528
X3.12420 Y58.75528
X3.12420 Y58.72988
X3.07340 Y58.72988
X3.07340 Y58.70448
X3.04800 Y58.70448
X3.04800 Y58.67908
X3.02260 Y58.67908
X3.02260 Y58.65368
X2.97180 Y58.65368
X2.97180 Y58.62828
X2.94640 Y58.62828
X2.94640 Y58.60288
X2.92100 Y58.60288
X2.92100 Y58.57748
X2.87020 Y58.57748
X2.87020 Y58.55208
X2.84480 Y58.55208
X2.84480 Y58.52668
X2.81940 Y58.52668
X2.81940 Y58.50128
X2.79400 Y58.50128
X2.79400 Y58.47588
X2.74320 Y58.47588
X2.74320 Y58.45048
X2.71780 Y58.45048
X2.71780 Y58.42508
X2.69240 Y58.42508
X2.69240 Y58.39968
X2.64160 Y58.39968
X2.64160 Y58.37428
X2.61620 Y58.37428
X2.61620 Y58.34888
X2.59080 Y58.34888
X2.59080 Y58.32348
X2.54000 Y58.32348
X2.54000 Y58.29808
X2.51460 Y58.29808
X2.51460 Y58.27268
X2.48920 Y58.27268
X2.48920 Y58.24728
X2.46380 Y58.24728
X2.46380 Y58.22188
X2.41300 Y58.22188
X2.41300 Y58.19648
X2.38760 Y58.19648
X2.38760 Y58.17108
X2.36220 Y58.17108
X2.36220 Y58.14568
X2.31140 Y58.14568
X2.31140 Y58.12028
X2.28600 Y58.12028
X2.28600 Y58.09488
X2.26060 Y58.09488
X2.26060 Y58.06948
X2.20980 Y58.06948
X2.20980 Y58.04408
X2.18440 Y58.04408
X2.18440 Y58.01868
X2.15900 Y58.01868
X2.15900 Y57.99328
X2.13360 Y57.99328
X2.13360 Y57.96788
X2.08280 Y57.96788
X2.08280 Y57.94248
X2.05740 Y57.94248
X2.05740 Y57.91708
X2.03200 Y57.91708
X2.03200 Y57.89168
X1.98120 Y57.89168
X1.98120 Y57.86628
X1.95580 Y57.86628
X1.95580 Y57.84088
X1.93040 Y57.84088
X1.93040 Y57.81548
X1.87960 Y57.81548
X1.87960 Y57.79008
X1.85420 Y57.79008
X1.85420 Y57.76468
X1.82880 Y57.76468
X1.82880 Y57.73928
X1.80340 Y57.73928
X1.80340 Y57.71388
X1.75260 Y57.71388
X1.75260 Y57.68848
X1.72720 Y57.68848
X1.72720 Y57.66308
X1.70180 Y57.66308
X1.70180 Y57.63768
X1.65100 Y57.63768
X1.65100 Y57.61228
X1.62560 Y57.61228
X1.62560 Y57.58688
X1.60020 Y57.58688
X1.60020 Y57.56148
X1.54940 Y57.56148
X1.54940 Y57.53608
X1.52400 Y57.53608
X1.52400 Y57.51068
X1.49860 Y57.51068
X1.49860 Y57.48528
X1.47320 Y57.48528
X1.47320 Y57.45988
X1.42240 Y57.45988
X1.42240 Y57.43448
X1.39700 Y57.43448
X1.39700 Y57.40908
X1.37160 Y57.40908
X1.37160 Y57.38368
X1.32080 Y57.38368
X1.32080 Y57.35828
X1.29540 Y57.35828
X1.29540 Y57.33288
X1.27000 Y57.33288
X1.27000 Y57.30748
X1.21920 Y57.30748
X1.21920 Y57.28208
X1.19380 Y57.28208
X1.19380 Y57.25668
X1.16840 Y57.25668
X1.16840 Y57.23128
X1.14300 Y57.23128
X1.14300 Y57.20588
X1.11760 Y57.20588
X1.11760 Y55.47868
X1.09220 Y55.47868
X1.09220 Y51.74488
X1.06680 Y51.74488
X1.06680 Y48.01108
X1.04140 Y48.01108
X1.04140 Y44.30268
X1.01600 Y44.30268
X1.01600 Y40.56888
X0.99060 Y40.56888
X0.99060 Y36.83508
X0.96520 Y36.83508
X0.96520 Y33.10128
X0.93980 Y33.10128
X0.93980 Y29.36748
X0.91440 Y29.36748
X0.91440 Y25.63368
X0.88900 Y25.63368
X0.88900 Y21.89988
X0.86360 Y21.89988
X0.86360 Y18.19148
X0.83820 Y18.19148
X0.83820 Y14.45768
X0.81280 Y14.45768
X0.81280 Y10.72388
X0.78740 Y10.72388
X0.78740 Y6.99008
X0.76200 Y6.99008
X0.76200 Y5.26288
X0.78740 Y5.26288
X0.78740 Y5.23748
X0.81280 Y5.23748
X0.81280 Y5.21208
X0.83820 Y5.21208
X0.83820 Y5.18668
X0.86360 Y5.18668
X0.86360 Y5.16128
X0.91440 Y5.16128
X0.91440 Y5.13588
X0.93980 Y5.13588
X0.93980 Y5.11048
X0.96520 Y5.11048
X0.96520 Y5.08508
X1.01600 Y5.08508
X1.01600 Y5.05968
X1.04140 Y5.05968
X1.04140 Y5.03428
X1.06680 Y5.03428
X1.06680 Y5.00888
X1.11760 Y5.00888
X1.11760 Y4.98348
X1.14300 Y4.98348
X1.14300 Y4.95808
X1.16840 Y4.95808
X1.16840 Y4.93268
X1.19380 Y4.93268
X1.19380 Y4.90728
X1.24460 Y4.90728
X1.24460 Y4.88188
X1.27000 Y4.88188
X1.27000 Y4.85648
X1.29540 Y4.85648
X1.29540 Y4.83108
X1.34620 Y4.83108
X1.34620 Y4.80568
X1.37160 Y4.80568
X1.37160 Y4.78028
X1.39700 Y4.78028
X1.39700 Y4.75488
X1.44780 Y4.75488
X1.44780 Y4.72948
X1.47320 Y4.72948
X1.47320 Y4.70408
X1.49860 Y4.70408
X1.49860 Y4.67868
X1.52400 Y4.67868
X1.52400 Y4.65328
X1.57480 Y4.65328
X1.57480 Y4.62788
X1.60020 Y4.62788
X1.60020 Y4.60248
X1.62560 Y4.60248
X1.62560 Y4.57708
X1.67640 Y4.57708
X1.67640 Y4.55168
X1.70180 Y4.55168
X1.70180 Y4.52628
X1.72720 Y4.52628
X1.72720 Y4.50088
X1.77800 Y4.50088
X1.77800 Y4.47548
X1.80340 Y4.47548
X1.80340 Y4.45008
X1.82880 Y4.45008
X1.82880 Y4.42468
X1.85420 Y4.42468
X1.85420 Y4.39928
X1.90500 Y4.39928
X1.90500 Y4.37388
X1.93040 Y4.37388
X1.93040 Y4.34848
X1.95580 Y4.34848
X1.95580 Y4.32308
X2.00660 Y4.32308
X2.00660 Y4.29768
X2.03200 Y4.29768
X2.03200 Y4.27228
X2.05740 Y4.27228
X2.05740 Y4.24688
X2.10820 Y4.24688
X2.10820 Y4.22148
X2.13360 Y4.22148
X2.13360 Y4.19608
X2.15900 Y4.19608
X2.15900 Y4.17068
X2.18440 Y4.17068
X2.18440 Y4.14528
X2.23520 Y4.14528
X2.23520 Y4.11988
X2.26060 Y4.11988
X2.26060 Y4.09448
X2.28600 Y4.09448
X2.28600 Y4.06908
X2.33680 Y4.06908
X2.33680 Y4.04368
X2.36220 Y4.04368
X2.36220 Y4.01828
X2.38760 Y4.01828
X2.38760 Y3.99288
X2.43840 Y3.99288
X2.43840 Y3.96748
X2.46380 Y3.96748
X2.46380 Y3.94208
X2.48920 Y3.94208
X2.48920 Y3.91668
X2.51460 Y3.91668
X2.51460 Y3.89128
X2.56540 Y3.89128
X2.56540 Y3.86588
X2.59080 Y3.86588
X2.59080 Y3.84048
X2.61620 Y3.84048
X2.61620 Y3.81508
X2.66700 Y3.81508
X2.66700 Y3.78968
X2.69240 Y3.78968
X2.69240 Y3.76428
X2.71780 Y3.76428
X2.71780 Y3.73888
X2.76860 Y3.73888
X2.76860 Y3.71348
X2.79400 Y3.71348
X2.79400 Y3.68808
X2.81940 Y3.68808
X2.81940 Y3.66268
X2.84480 Y3.66268
X2.84480 Y3.63728
X2.89560 Y3.63728
X2.89560 Y3.61188
X2.92100 Y3.61188
X2.92100 Y3.58648
X2.94640 Y3.58648
X2.94640 Y3.56108
X2.99720 Y3.56108
X2.99720 Y3.53568
X3.02260 Y3.53568
X3.02260 Y3.51028
X3.04800 Y3.51028
X3.04800 Y3.48488
X3.09880 Y3.48488
X3.09880 Y3.45948
X3.12420 Y3.45948
X3.12420 Y3.43408
X3.14960 Y3.43408
X3.14960 Y3.40868
X3.17500 Y3.40868
X3.17500 Y3.38328
X3.22580 Y3.38328
X3.22580 Y3.35788
X3.25120 Y3.35788
X3.25120 Y3.33248
X3.27660 Y3.33248
X3.27660 Y3.30708
X3.32740 Y3.30708
X3.32740 Y3.28168
X3.35280 Y3.28168
X3.35280 Y3.25628
X3.37820 Y3.25628
X3.37820 Y3.23088
X3.42900 Y3.23088
X3.42900 Y3.20548
X3.45440 Y3.20548
X3.45440 Y3.18008
X3.47980 Y3.18008
X3.47980 Y3.15468
X3.50520 Y3.15468
X3.50520 Y3.12928
X3.55600 Y3.12928
X3.55600 Y3.10388
X3.58140 Y3.10388
X3.58140 Y3.07848
X3.60680 Y3.07848
X3.60680 Y3.05308
X3.65760 Y3.05308
X3.65760 Y3.02768
X3.96240 Y3.02768
X3.96240 Y3.00228
X4.01320 Y3.00228
X4.01320 Y2.97688
X4.06400 Y2.97688
X4.06400 Y2.95148
X4.08940 Y2.95148
X4.08940 Y2.92608
X4.11480 Y2.92608
X4.11480 Y2.90068
X4.14020 Y2.90068
X4.14020 Y2.87528
X4.16560 Y2.87528
X4.16560 Y2.84988
X4.19100 Y2.84988
X4.19100 Y2.79908
X4.21640 Y2.79908
X4.21640 Y2.72288
X4.24180 Y2.72288
X4.24180 Y2.44348
X4.21640 Y2.44348
X4.21640 Y2.36728
X4.19100 Y2.36728
X4.19100 Y2.31648
X4.16560 Y2.31648
X4.16560 Y2.29108
X4.14020 Y2.29108
X4.14020 Y2.26568
X4.11480 Y2.26568
X4.11480 Y2.24028
X4.08940 Y2.24028
X4.08940 Y2.21488
X4.06400 Y2.21488
X4.06400 Y2.18948
X4.01320 Y2.18948
X4.01320 Y2.16408
X3.96240 Y2.16408
X3.96240 Y2.13868
X3.63220 Y2.13868
X3.63220 Y2.16408
X3.58140 Y2.16408
X3.58140 Y2.18948
X3.53060 Y2.18948
X3.53060 Y2.21488
X3.50520 Y2.21488
X3.50520 Y2.24028
X3.47980 Y2.24028
X3.47980 Y2.26568
X3.45440 Y2.26568
X3.45440 Y2.29108
X3.42900 Y2.29108
X3.42900 Y2.31648
X3.40360 Y2.31648
X3.40360 Y2.36728
X3.37820 Y2.36728
X3.37820 Y2.44348
X3.35280 Y2.44348
X3.35280 Y2.59588
X3.32740 Y2.59588
X3.32740 Y2.62128
X3.27660 Y2.62128
X3.27660 Y2.64668
X3.25120 Y2.64668
X3.25120 Y2.67208
X3.22580 Y2.67208
X3.22580 Y2.69748
X3.17500 Y2.69748
X3.17500 Y2.72288
X3.14960 Y2.72288
X3.14960 Y2.74828
X3.12420 Y2.74828
X3.12420 Y2.77368
X3.09880 Y2.77368
X3.09880 Y2.79908
X3.04800 Y2.79908
X3.04800 Y2.82448
X3.02260 Y2.82448
X3.02260 Y2.84988
X2.99720 Y2.84988
X2.99720 Y2.87528
X2.94640 Y2.87528
X2.94640 Y2.90068
X2.92100 Y2.90068
X2.92100 Y2.92608
X2.89560 Y2.92608
X2.89560 Y2.95148
X2.84480 Y2.95148
X2.84480 Y2.97688
X2.81940 Y2.97688
X2.81940 Y3.00228
X2.79400 Y3.00228
X2.79400 Y3.02768
X2.76860 Y3.02768
X2.76860 Y3.05308
X2.71780 Y3.05308
X2.71780 Y3.07848
X2.69240 Y3.07848
X2.69240 Y3.10388
X2.66700 Y3.10388
X2.66700 Y3.12928
X2.61620 Y3.12928
X2.61620 Y3.15468
X2.59080 Y3.15468
X2.59080 Y3.18008
X2.56540 Y3.18008
X2.56540 Y3.20548
X2.51460 Y3.20548
X2.51460 Y3.23088
X2.48920 Y3.23088
X2.48920 Y3.25628
X2.46380 Y3.25628
X2.46380 Y3.28168
X2.43840 Y3.28168
X2.43840 Y3.30708
X2.38760 Y3.30708
X2.38760 Y3.33248
X2.36220 Y3.33248
X2.36220 Y3.35788
X2.33680 Y3.35788
X2.33680 Y3.38328
X2.28600 Y3.38328
X2.28600 Y3.40868
X2.26060 Y3.40868
X2.26060 Y3.43408
X2.23520 Y3.43408
X2.23520 Y3.45948
X2.18440 Y3.45948
X2.18440 Y3.48488
X2.15900 Y3.48488
X2.15900 Y3.51028
X2.13360 Y3.51028
X2.13360 Y3.53568
X2.10820 Y3.53568
X2.10820 Y3.56108
X2.05740 Y3.56108
X2.05740 Y3.58648
X2.03200 Y3.58648
X2.03200 Y3.61188
X2.00660 Y3.61188
X2.00660 Y3.63728
X1.95580 Y3.63728
X1.95580 Y3.66268
X1.93040 Y3.66268
X1.93040 Y3.68808
X1.90500 Y3.68808
X1.90500 Y3.71348
X1.85420 Y3.71348
X1.85420 Y3.73888
X1.82880 Y3.73888
X1.82880 Y3.76428
X1.80340 Y3.76428
X1.80340 Y3.78968
X1.77800 Y3.78968
X1.77800 Y3.81508
X1.72720 Y3.81508
X1.72720 Y3.84048
X1.70180 Y3.84048
X1.70180 Y3.86588
X1.67640 Y3.86588
X1.67640 Y3.89128
X1.62560 Y3.89128
X1.62560 Y3.91668
X1.60020 Y3.91668
X1.60020 Y3.94208
X1.57480 Y3.94208
X1.57480 Y3.96748
X1.52400 Y3.96748
X1.52400 Y3.99288
X1.49860 Y3.99288
X1.49860 Y4.01828
X1.47320 Y4.01828
X1.47320 Y4.04368
X1.44780 Y4.04368
X1.44780 Y4.06908
X1.39700 Y4.06908
X1.39700 Y4.09448
X1.37160 Y4.09448
X1.37160 Y4.11988
X1.34620 Y4.11988
X1.34620 Y4.14528
X1.29540 Y4.14528
X1.29540 Y4.17068
X1.27000 Y4.17068
X1.27000 Y4.19608
X1.24460 Y4.19608
X1.24460 Y4.22148
X1.19380 Y4.22148
X1.19380 Y4.24688
X1.16840 Y4.24688
X1.16840 Y4.27228
X1.14300 Y4.27228
X1.14300 Y4.29768
X1.11760 Y4.29768
X1.11760 Y4.32308
X1.06680 Y4.32308
X1.06680 Y4.34848
X1.04140 Y4.34848
X1.04140 Y4.37388
X1.01600 Y4.37388
X1.01600 Y4.39928
X0.96520 Y4.39928
X0.96520 Y4.42468
X0.93980 Y4.42468
X0.93980 Y4.45008
X0.91440 Y4.45008
X0.91440 Y4.47548
X0.86360 Y4.47548
X0.86360 Y4.50088
X0.83820 Y4.50088
X0.83820 Y4.52628
X0.81280 Y4.52628
X0.81280 Y4.55168
X0.78740 Y4.55168
X0.78740 Y4.57708
X0.73660 Y4.57708
X0.73660 Y4.60248
X0.71120 Y4.60248
X0.71120 Y4.62788
X0.68580 Y4.62788
X0.68580 Y4.65328
X0.63500 Y4.65328
X0.63500 Y4.67868
X0.60960 Y4.67868
X0.60960 Y4.70408
X0.58420 Y4.70408
X0.58420 Y4.72948
X0.53340 Y4.72948
X0.53340 Y4.75488
X0.50800 Y4.75488
X0.50800 Y4.78028
X0.48260 Y4.78028
X0.48260 Y4.80568
X0.45720 Y4.80568
X0.45720 Y4.83108
X0.40640 Y4.83108
X0.40640 Y4.85648
X0.38100 Y4.85648
X0.38100 Y4.88188
X0.35560 Y4.88188
X0.35560 Y4.90728
X0.33020 Y4.90728
X0.33020 Y4.93268
X0.30480 Y4.93268
X0.30480 Y4.95808
X0.27940 Y4.95808
X0.27940 Y4.98348
X0.25400 Y4.98348
X0.25400 Y5.05968
X0.22860 Y5.05968
X0.22860 Y7.01548
X0.25400 Y7.01548
X0.25400 Y10.74928
X0.27940 Y10.74928
X0.27940 Y14.48308
X0.30480 Y14.48308
X0.30480 Y18.21688
X0.33020 Y18.21688
X0.33020 Y21.92528
X0.35560 Y21.92528
X0.35560 Y25.65908
X0.38100 Y25.65908
X0.38100 Y29.39288
X0.40640 Y29.39288
X0.40640 Y33.12668
X0.43180 Y33.12668
X0.43180 Y36.86048
X0.45720 Y36.86048
X0.45720 Y40.59428
X0.48260 Y40.59428
X0.48260 Y44.32808
X0.50800 Y44.32808
X0.50800 Y48.03648
X0.53340 Y48.03648
X0.53340 Y51.77028
X0.55880 Y51.77028
X0.55880 Y55.50408
X0.58420 Y55.50408
X0.58420 Y57.40908
X0.60960 Y57.40908
X0.60960 Y57.48528
X0.63500 Y57.48528
X0.63500 Y57.51068
X0.66040 Y57.51068
X0.66040 Y57.53608
X0.68580 Y57.53608
X0.68580 Y57.56148
X0.71120 Y57.56148
X0.71120 Y57.58688
X0.73660 Y57.58688
X0.73660 Y57.61228
X0.76200 Y57.61228
X0.76200 Y57.63768
X0.81280 Y57.63768
X0.81280 Y57.66308
X0.83820 Y57.66308
X0.83820 Y57.68848
X0.86360 Y57.68848
X0.86360 Y57.71388
X0.88900 Y57.71388
X0.88900 Y57.73928
X0.93980 Y57.73928
X0.93980 Y57.76468
X0.96520 Y57.76468
X0.96520 Y57.79008
X0.99060 Y57.79008
X0.99060 Y57.81548
X1.04140 Y57.81548
X1.04140 Y57.84088
X1.06680 Y57.84088
X1.06680 Y57.86628
X1.09220 Y57.86628
X1.09220 Y57.89168
X1.14300 Y57.89168
X1.14300 Y57.91708
X1.16840 Y57.91708
X1.16840 Y57.94248
X1.19380 Y57.94248
X1.19380 Y57.96788
X1.21920 Y57.96788
X1.21920 Y57.99328
X1.27000 Y57.99328
X1.27000 Y58.01868
X1.29540 Y58.01868
X1.29540 Y58.04408
X1.32080 Y58.04408
X1.32080 Y58.06948
X1.37160 Y58.06948
X1.37160 Y58.09488
X1.39700 Y58.09488
X1.39700 Y58.12028
X1.42240 Y58.12028
X1.42240 Y58.14568
X1.47320 Y58.14568
X1.47320 Y58.17108
X1.49860 Y58.17108
X1.49860 Y58.19648
X1.52400 Y58.19648
X1.52400 Y58.22188
X1.54940 Y58.22188
X1.54940 Y58.24728
X1.60020 Y58.24728
X1.60020 Y58.27268
X1.62560 Y58.27268
X1.62560 Y58.29808
X1.65100 Y58.29808
X1.65100 Y58.32348
X1.70180 Y58.32348
X1.70180 Y58.34888
X1.72720 Y58.34888
X1.72720 Y58.37428
X1.75260 Y58.37428
X1.75260 Y58.39968
X1.80340 Y58.39968
X1.80340 Y58.42508
X1.82880 Y58.42508
X1.82880 Y58.45048
X1.85420 Y58.45048
X1.85420 Y58.47588
X1.87960 Y58.47588
X1.87960 Y58.50128
X1.93040 Y58.50128
X1.93040 Y58.52668
X1.95580 Y58.52668
X1.95580 Y58.55208
X1.98120 Y58.55208
X1.98120 Y58.57748
X2.03200 Y58.57748
X2.03200 Y58.60288
X2.05740 Y58.60288
X2.05740 Y58.62828
X2.08280 Y58.62828
X2.08280 Y58.65368
X2.13360 Y58.65368
X2.13360 Y58.67908
X2.15900 Y58.67908
X2.15900 Y58.70448
X2.18440 Y58.70448
X2.18440 Y58.72988
X2.20980 Y58.72988
X2.20980 Y58.75528
X2.26060 Y58.75528
X2.26060 Y58.78068
X2.28600 Y58.78068
X2.28600 Y58.80608
X2.31140 Y58.80608
X2.31140 Y58.83148
X2.36220 Y58.83148
X2.36220 Y58.85688
X2.38760 Y58.85688
X2.38760 Y58.88228
X2.41300 Y58.88228
X2.41300 Y58.90768
X2.46380 Y58.90768
X2.46380 Y58.93308
X2.48920 Y58.93308
X2.48920 Y58.95848
X2.51460 Y58.95848
X2.51460 Y58.98388
X2.54000 Y58.98388
X2.54000 Y59.00928
X2.59080 Y59.00928
X2.59080 Y59.03468
X2.61620 Y59.03468
X2.61620 Y59.06008
X2.64160 Y59.06008
X2.64160 Y59.08548
X2.69240 Y59.08548
X2.69240 Y59.11088
X2.71780 Y59.11088
X2.71780 Y59.13628
X2.74320 Y59.13628
X2.74320 Y59.16168
X2.79400 Y59.16168
X2.79400 Y59.18708
X2.81940 Y59.18708
X2.81940 Y59.21248
X2.84480 Y59.21248
X2.84480 Y59.23788
X2.87020 Y59.23788
X2.87020 Y59.26328
X2.92100 Y59.26328
X2.92100 Y59.28868
X2.92100 Y59.28868
X2.92100 Y59.36488
X2.89560 Y59.36488
X2.89560 Y59.44108
X2.87020 Y59.44108
X2.87020 Y59.59348
X2.84480 Y59.59348
X2.84480 Y59.87288
X2.87020 Y59.87288
X2.87020 Y60.02528
X2.89560 Y60.02528
X2.89560 Y60.10148
X2.92100 Y60.10148
X2.92100 Y60.17768
X2.94640 Y60.17768
X2.94640 Y60.20308
X2.97180 Y60.20308
X2.97180 Y60.25388
X2.99720 Y60.25388
X2.99720 Y60.30468
X3.02260 Y60.30468
X3.02260 Y60.33008
X3.04800 Y60.33008
X3.04800 Y60.35548
X3.07340 Y60.35548
X3.07340 Y60.38088
X3.09880 Y60.38088
X3.09880 Y60.43168
X3.12420 Y60.43168
X3.12420 Y60.45708
X3.17500 Y60.45708
X3.17500 Y60.48248
X3.22580 Y60.48248
X3.22580 Y60.50788
X3.25120 Y60.50788
X3.25120 Y60.53328
X3.30200 Y60.53328
X3.30200 Y60.55868
X3.35280 Y60.55868
X3.35280 Y60.58408
X3.37820 Y60.58408
X3.37820 Y60.60948
X3.42900 Y60.60948
X3.42900 Y60.63488
X3.55600 Y60.63488
X3.55600 Y60.66028
X3.70840 Y60.66028
X3.70840 Y60.68568
X3.88620 Y60.68568
X3.88620 Y60.66028
G04 P0 ( dwell for no time -- G64 should not smooth over this point )
G00 Z3.00000 ( retract )

G00 X19.12620 Y60.66028 ( rapid move to begin. )
G01 Z-0.10000
G04 P0 ( dwell for no time -- G64 should not smooth over this point )
X19.12620 Y60.66028
X19.27860 Y60.66028
X19.27860 Y60.63488
X19.40560 Y60.63488
X19.40560 Y60.60948
X19.45640 Y60.60948
X19.45640 Y60.58408
X19.48180 Y60.58408
X19.48180 Y60.55868
X19.53260 Y60.55868
X19.53260 Y60.53328
X19.58340 Y60.53328
X19.58340 Y60.50788
X19.60880 Y60.50788
X19.60880 Y60.48248
X19.65960 Y60.48248
X19.65960 Y60.45708
X19.71040 Y60.45708
X19.71040 Y60.43168
X19.73580 Y60.43168
X19.73580 Y60.38088
X19.76120 Y60.38088
X19.76120 Y60.35548
X19.78660 Y60.35548
X19.78660 Y60.33008
X19.81200 Y60.33008
X19.81200 Y60.30468
X19.83740 Y60.30468
X19.83740 Y60.25388
X19.86280 Y60.25388
X19.86280 Y60.20308
X19.88820 Y60.20308
X19.88820 Y60.17768
X19.91360 Y60.17768
X19.91360 Y60.10148
X19.93900 Y60.10148
X19.93900 Y60.02528
X19.96440 Y60.02528
X19.96440 Y59.87288
X19.98980 Y59.87288
X19.98980 Y59.59348
X19.96440 Y59.59348
X19.96440 Y59.44108
X19.93900 Y59.44108
X19.93900 Y59.36488
X19.91360 Y59.36488
X19.91360 Y59.28868
X19.88820 Y59.28868
X19.88820 Y59.26328
X19.86280 Y59.26328
X19.86280 Y59.21248
X19.83740 Y59.21248
X19.83740 Y59.16168
X19.81200 Y59.16168
X19.81200 Y59.13628
X19.78660 Y59.13628
X19.78660 Y59.11088
X19.76120 Y59.11088
X19.76120 Y59.08548
X19.73580 Y59.08548
X19.73580 Y59.03468
X19.71040 Y59.03468
X19.71040 Y59.00928
X19.65960 Y59.00928
X19.65960 Y58.98388
X19.60880 Y58.98388
X19.60880 Y58.95848
X19.58340 Y58.95848
X19.58340 Y58.93308
X19.53260 Y58.93308
X19.53260 Y58.90768
X19.48180 Y58.90768
X19.48180 Y58.88228
X19.45640 Y58.88228
X19.45640 Y58.85688
X19.40560 Y58.85688
X19.40560 Y58.83148
X19.27860 Y58.83148
X19.27860 Y58.80608
X19.12620 Y58.80608
X19.12620 Y58.78068
X18.94840 Y58.78068
X18.94840 Y58.80608
X18.79600 Y58.80608
X18.79600 Y58.83148
X18.66900 Y58.83148
X18.66900 Y58.85688
X18.61820 Y58.85688
X18.61820 Y58.88228
X18.59280 Y58.88228
X18.59280 Y58.90768
X18.54200 Y58.90768
X18.54200 Y58.93308
X18.49120 Y58.93308
X18.49120 Y58.95848
X18.46580 Y58.95848
X18.46580 Y58.98388
X18.41500 Y58.98388
X18.41500 Y59.00928
X18.36420 Y59.00928
X18.36420 Y59.03468
X18.33880 Y59.03468
X18.33880 Y59.08548
X18.31340 Y59.08548
X18.31340 Y59.11088
X18.28800 Y59.11088
X18.28800 Y59.13628
X18.26260 Y59.13628
X18.26260 Y59.16168
X18.23720 Y59.16168
X18.23720 Y59.21248
X18.21180 Y59.21248
X18.21180 Y59.26328
X18.18640 Y59.26328
X18.18640 Y59.28868
X18.16100 Y59.28868
X18.16100 Y59.36488
X18.13560 Y59.36488
X18.13560 Y59.44108
X18.11020 Y59.44108
X18.11020 Y59.59348
X18.08480 Y59.59348
X18.08480 Y59.87288
X18.11020 Y59.87288
X18.11020 Y60.02528
X18.13560 Y60.02528
X18.13560 Y60.10148
X18.16100 Y60.10148
X18.16100 Y60.17768
X18.18640 Y60.17768
X18.18640 Y60.20308
X18.21180 Y60.20308
X18.21180 Y60.25388
X18.23720 Y60.25388
X18.23720 Y60.30468
X18.26260 Y60.30468
X18.26260 Y60.33008
X18.28800 Y60.33008
X18.28800 Y60.35548
X18.31340 Y60.35548
X18.31340 Y60.38088
X18.33880 Y60.38088
X18.33880 Y60.43168
X18.36420 Y60.43168
X18.36420 Y60.45708
X18.41500 Y60.45708
X18.41500 Y60.48248
X18.46580 Y60.48248
X18.46580 Y60.50788
X18.49120 Y60.50788
X18.49120 Y60.53328
X18.54200 Y60.53328
X18.54200 Y60.55868
X18.59280 Y60.55868
X18.59280 Y60.58408
X18.61820 Y60.58408
X18.61820 Y60.60948
X18.66900 Y60.60948
X18.66900 Y60.63488
X18.79600 Y60.63488
X18.79600 Y60.66028
X18.94840 Y60.66028
X18.94840 Y60.68568
X19.12620 Y60.68568
X19.12620 Y60.66028
G04 P0 ( dwell for no time -- G64 should not smooth over this point )
G00 Z3.00000 ( retract )

G00 X3.88620 Y58.12028 ( rapid move to begin. )
G01 Z-0.10000
G04 P0 ( dwell for no time -- G64 should not smooth over this point )
X3.88620 Y58.12028
X4.03860 Y58.12028
X4.03860 Y58.09488
X4.16560 Y58.09488
X4.16560 Y58.06948
X4.21640 Y58.06948
X4.21640 Y58.04408
X4.24180 Y58.04408
X4.24180 Y58.01868
X4.29260 Y58.01868
X4.29260 Y57.99328
X4.34340 Y57.99328
X4.34340 Y57.96788
X4.36880 Y57.96788
X4.36880 Y57.94248
X4.41960 Y57.94248
X4.41960 Y57.91708
X4.47040 Y57.91708
X4.47040 Y57.89168
X4.49580 Y57.89168
X4.49580 Y57.84088
X4.52120 Y57.84088
X4.52120 Y57.81548
X4.54660 Y57.81548
X4.54660 Y57.79008
X4.57200 Y57.79008
X4.57200 Y57.76468
X4.59740 Y57.76468
X4.59740 Y57.71388
X4.62280 Y57.71388
X4.62280 Y57.66308
X4.64820 Y57.66308
X4.64820 Y57.63768
X4.67360 Y57.63768
X4.67360 Y57.56148
X4.69900 Y57.56148
X4.69900 Y57.48528
X4.72440 Y57.48528
X4.72440 Y57.33288
X4.74980 Y57.33288
X4.74980 Y57.05348
X4.72440 Y57.05348
X4.72440 Y56.90108
X4.69900 Y56.90108
X4.69900 Y56.82488
X4.67360 Y56.82488
X4.67360 Y56.74868
X4.64820 Y56.74868
X4.64820 Y56.72328
X4.62280 Y56.72328
X4.62280 Y56.67248
X4.59740 Y56.67248
X4.59740 Y56.62168
X4.57200 Y56.62168
X4.57200 Y56.59628
X4.54660 Y56.59628
X4.54660 Y56.57088
X4.52120 Y56.57088
X4.52120 Y56.54548
X4.49580 Y56.54548
X4.49580 Y56.49468
X4.47040 Y56.49468
X4.47040 Y56.46928
X4.41960 Y56.46928
X4.41960 Y56.44388
X4.36880 Y56.44388
X4.36880 Y56.41848
X4.34340 Y56.41848
X4.34340 Y56.39308
X4.29260 Y56.39308
X4.29260 Y56.36768
X4.24180 Y56.36768
X4.24180 Y56.34228
X4.21640 Y56.34228
X4.21640 Y56.31688
X4.16560 Y56.31688
X4.16560 Y56.29148
X4.03860 Y56.29148
X4.03860 Y56.26608
X3.88620 Y56.26608
X3.88620 Y56.24068
X3.70840 Y56.24068
X3.70840 Y56.26608
X3.55600 Y56.26608
X3.55600 Y56.29148
X3.42900 Y56.29148
X3.42900 Y56.31688
X3.37820 Y56.31688
X3.37820 Y56.34228
X3.35280 Y56.34228
X3.35280 Y56.36768
X3.30200 Y56.36768
X3.30200 Y56.39308
X3.25120 Y56.39308
X3.25120 Y56.41848
X3.22580 Y56.41848
X3.22580 Y56.44388
X3.17500 Y56.44388
X3.17500 Y56.46928
X3.12420 Y56.46928
X3.12420 Y56.49468
X3.09880 Y56.49468
X3.09880 Y56.54548
X3.07340 Y56.54548
X3.07340 Y56.57088
X3.04800 Y56.57088
X3.04800 Y56.59628
X3.02260 Y56.59628
X3.02260 Y56.62168
X2.99720 Y56.62168
X2.99720 Y56.67248
X2.97180 Y56.67248
X2.97180 Y56.72328
X2.94640 Y56.72328
X2.94640 Y56.74868
X2.92100 Y56.74868
X2.92100 Y56.82488
X2.89560 Y56.82488
X2.89560 Y56.90108
X2.87020 Y56.90108
X2.87020 Y57.05348
X2.84480 Y57.05348
X2.84480 Y57.33288
X2.87020 Y57.33288
X2.87020 Y57.48528
X2.89560 Y57.48528
X2.89560 Y57.56148
X2.92100 Y57.56148
X2.92100 Y57.63768
X2.94640 Y57.63768
X2.94640 Y57.66308
X2.97180 Y57.66308
X2.97180 Y57.71388
X2.99720 Y57.71388
X2.99720 Y57.76468
X3.02260 Y57.76468
X3.02260 Y57.79008
X3.04800 Y57.79008
X3.04800 Y57.81548
X3.07340 Y57.81548
X3.07340 Y57.84088
X3.09880 Y57.84088
X3.09880 Y57.89168
X3.12420 Y57.89168
X3.12420 Y57.91708
X3.17500 Y57.91708
X3.17500 Y57.94248
X3.22580 Y57.94248
X3.22580 Y57.96788
X3.25120 Y57.96788
X3.25120 Y57.99328
X3.30200 Y57.99328
X3.30200 Y58.01868
X3.35280 Y58.01868
X3.35280 Y58.04408
X3.37820 Y58.04408
X3.37820 Y58.06948
X3.42900 Y58.06948
X3.42900 Y58.09488
X3.55600 Y58.09488
X3.55600 Y58.12028
X3.70840 Y58.12028
X3.70840 Y58.14568
X3.88620 Y58.14568
X3.88620 Y58.12028
G04 P0 ( dwell for no time -- G64 should not smooth over this point )
G00 Z3.00000 ( retract )

G00 X19.12620 Y58.12028 ( rapid move to begin. )
G01 Z-0.10000
G04 P0 ( dwell for no time -- G64 should not smooth over this point )
X19.12620 Y58.12028
X19.27860 Y58.12028
X19.27860 Y58.09488
X19.40560 Y58.09488
X19.40560 Y58.06948
X19.45640 Y58.06948
X19.45640 Y58.04408
X19.48180 Y58.04408
X19.48180 Y58.01868
X19.53260 Y58.01868
X19.53260 Y57.99328
X19.58340 Y57.99328
X19.58340 Y57.96788
X19.60880 Y57.96788
X19.60880 Y57.94248
X19.65960 Y57.94248
X19.65960 Y57.91708
X19.71040 Y57.91708
X19.71040 Y57.89168
X19.73580 Y57.89168
X19.73580 Y57.84088
X19.76120 Y57.84088
X19.76120 Y57.81548
X19.78660 Y57.81548
X19.78660 Y57.79008
X19.81200 Y57.79008
X19.81200 Y57.76468
X19.83740 Y57.76468
X19.83740 Y57.71388
X19.86280 Y57.71388
X19.86280 Y57.68848
X31.85160 Y57.68848
X31.85160 Y57.66308
X31.95320 Y57.66308
X31.95320 Y57.63768
X32.00400 Y57.63768
X32.00400 Y57.61228
X32.05480 Y57.61228
X32.05480 Y57.58688
X32.08020 Y57.58688
X32.08020 Y57.56148
X32.10560 Y57.56148
X32.10560 Y57.53608
X32.13100 Y57.53608
X32.13100 Y57.51068
X32.15640 Y57.51068
X32.15640 Y57.48528
X32.18180 Y57.48528
X32.18180 Y57.43448
X32.20720 Y57.43448
X32.20720 Y57.38368
X32.23260 Y57.38368
X32.23260 Y57.28208
X32.25800 Y57.28208
X32.25800 Y55.80888
X32.23260 Y55.80888
X32.23260 Y55.70728
X32.20720 Y55.70728
X32.20720 Y55.65648
X32.18180 Y55.65648
X32.18180 Y55.60568
X32.15640 Y55.60568
X32.15640 Y55.58028
X32.13100 Y55.58028
X32.13100 Y55.55488
X32.10560 Y55.55488
X32.10560 Y55.52948
X32.08020 Y55.52948
X32.08020 Y55.50408
X32.05480 Y55.50408
X32.05480 Y55.47868
X32.02940 Y55.47868
X32.02940 Y55.45328
X32.00400 Y55.45328
X32.00400 Y55.42788
X31.97860 Y55.42788
X31.97860 Y55.40248
X31.95320 Y55.40248
X31.95320 Y55.37708
X31.92780 Y55.37708
X31.92780 Y55.35168
X31.90240 Y55.35168
X31.90240 Y55.32628
X31.87700 Y55.32628
X31.87700 Y55.30088
X31.85160 Y55.30088
X31.85160 Y55.27548
X31.82620 Y55.27548
X31.82620 Y55.25008
X31.80080 Y55.25008
X31.80080 Y55.22468
X31.77540 Y55.22468
X31.77540 Y55.19928
X31.75000 Y55.19928
X31.75000 Y55.17388
X31.72460 Y55.17388
X31.72460 Y55.14848
X31.69920 Y55.14848
X31.69920 Y55.12308
X31.67380 Y55.12308
X31.67380 Y55.09768
X31.64840 Y55.09768
X31.64840 Y55.07228
X31.62300 Y55.07228
X31.62300 Y55.04688
X31.59760 Y55.04688
X31.59760 Y55.02148
X31.57220 Y55.02148
X31.57220 Y54.99608
X31.54680 Y54.99608
X31.54680 Y54.97068
X31.52140 Y54.97068
X31.52140 Y54.94528
X31.49600 Y54.94528
X31.49600 Y54.91988
X31.47060 Y54.91988
X31.47060 Y54.89448
X31.44520 Y54.89448
X31.44520 Y54.86908
X31.41980 Y54.86908
X31.41980 Y54.84368
X31.39440 Y54.84368
X31.39440 Y54.81828
X31.36900 Y54.81828
X31.36900 Y54.79288
X31.34360 Y54.79288
X31.34360 Y54.76748
X31.31820 Y54.76748
X31.31820 Y54.74208
X31.29280 Y54.74208
X31.29280 Y54.71668
X31.26740 Y54.71668
X31.26740 Y54.69128
X31.24200 Y54.69128
X31.24200 Y54.66588
X31.21660 Y54.66588
X31.21660 Y54.64048
X31.19120 Y54.64048
X31.19120 Y54.61508
X31.16580 Y54.61508
X31.16580 Y53.95468
X29.76880 Y53.95468
X29.76880 Y55.35168
X30.48000 Y55.35168
X30.48000 Y55.37708
X30.50540 Y55.37708
X30.50540 Y55.40248
X30.53080 Y55.40248
X30.53080 Y55.42788
X30.55620 Y55.42788
X30.55620 Y55.45328
X30.58160 Y55.45328
X30.58160 Y55.47868
X30.60700 Y55.47868
X30.60700 Y55.50408
X30.63240 Y55.50408
X30.63240 Y55.52948
X30.65780 Y55.52948
X30.65780 Y55.55488
X30.68320 Y55.55488
X30.68320 Y55.58028
X30.70860 Y55.58028
X30.70860 Y55.60568
X30.73400 Y55.60568
X30.73400 Y55.63108
X30.75940 Y55.63108
X30.75940 Y55.65648
X30.78480 Y55.65648
X30.78480 Y55.68188
X30.81020 Y55.68188
X30.81020 Y55.70728
X30.83560 Y55.70728
X30.83560 Y55.73268
X30.86100 Y55.73268
X30.86100 Y55.75808
X30.88640 Y55.75808
X30.88640 Y55.78348
X30.91180 Y55.78348
X30.91180 Y55.80888
X30.93720 Y55.80888
X30.93720 Y55.83428
X30.96260 Y55.83428
X30.96260 Y55.85968
X30.98800 Y55.85968
X30.98800 Y55.88508
X31.01340 Y55.88508
X31.01340 Y55.91048
X31.03880 Y55.91048
X31.03880 Y55.93588
X31.06420 Y55.93588
X31.06420 Y55.96128
X31.08960 Y55.96128
X31.08960 Y55.98668
X31.11500 Y55.98668
X31.11500 Y56.01208
X31.14040 Y56.01208
X31.14040 Y56.03748
X31.16580 Y56.03748
X31.16580 Y56.06288
X31.19120 Y56.06288
X31.19120 Y56.08828
X31.21660 Y56.08828
X31.21660 Y56.11368
X31.24200 Y56.11368
X31.24200 Y56.67248
X19.83740 Y56.67248
X19.83740 Y56.62168
X19.81200 Y56.62168
X19.81200 Y56.59628
X19.78660 Y56.59628
X19.78660 Y56.57088
X19.76120 Y56.57088
X19.76120 Y56.54548
X19.73580 Y56.54548
X19.73580 Y56.49468
X19.71040 Y56.49468
X19.71040 Y56.46928
X19.65960 Y56.46928
X19.65960 Y56.44388
X19.60880 Y56.44388
X19.60880 Y56.41848
X19.58340 Y56.41848
X19.58340 Y56.39308
X19.53260 Y56.39308
X19.53260 Y56.36768
X19.48180 Y56.36768
X19.48180 Y56.34228
X19.45640 Y56.34228
X19.45640 Y56.31688
X19.40560 Y56.31688
X19.40560 Y56.29148
X19.27860 Y56.29148
X19.27860 Y56.26608
X19.12620 Y56.26608
X19.12620 Y56.24068
X18.94840 Y56.24068
X18.94840 Y56.26608
X18.79600 Y56.26608
X18.79600 Y56.29148
X18.66900 Y56.29148
X18.66900 Y56.31688
X18.61820 Y56.31688
X18.61820 Y56.34228
X18.59280 Y56.34228
X18.59280 Y56.36768
X18.54200 Y56.36768
X18.54200 Y56.39308
X18.49120 Y56.39308
X18.49120 Y56.41848
X18.46580 Y56.41848
X18.46580 Y56.44388
X18.41500 Y56.44388
X18.41500 Y56.46928
X18.36420 Y56.46928
X18.36420 Y56.49468
X18.33880 Y56.49468
X18.33880 Y56.54548
X18.31340 Y56.54548
X18.31340 Y56.57088
X18.28800 Y56.57088
X18.28800 Y56.59628
X18.26260 Y56.59628
X18.26260 Y56.62168
X18.23720 Y56.62168
X18.23720 Y56.67248
X18.21180 Y56.67248
X18.21180 Y56.72328
X18.18640 Y56.72328
X18.18640 Y56.74868
X18.16100 Y56.74868
X18.16100 Y56.82488
X18.13560 Y56.82488
X18.13560 Y56.90108
X18.11020 Y56.90108
X18.11020 Y57.05348
X18.08480 Y57.05348
X18.08480 Y57.33288
X18.11020 Y57.33288
X18.11020 Y57.48528
X18.13560 Y57.48528
X18.13560 Y57.56148
X18.16100 Y57.56148
X18.16100 Y57.63768
X18.18640 Y57.63768
X18.18640 Y57.66308
X18.21180 Y57.66308
X18.21180 Y57.71388
X18.23720 Y57.71388
X18.23720 Y57.76468
X18.26260 Y57.76468
X18.26260 Y57.79008
X18.28800 Y57.79008
X18.28800 Y57.81548
X18.31340 Y57.81548
X18.31340 Y57.84088
X18.33880 Y57.84088
X18.33880 Y57.89168
X18.36420 Y57.89168
X18.36420 Y57.91708
X18.41500 Y57.91708
X18.41500 Y57.94248
X18.46580 Y57.94248
X18.46580 Y57.96788
X18.49120 Y57.96788
X18.49120 Y57.99328
X18.54200 Y57.99328
X18.54200 Y58.01868
X18.59280 Y58.01868
X18.59280 Y58.04408
X18.61820 Y58.04408
X18.61820 Y58.06948
X18.66900 Y58.06948
X18.66900 Y58.09488
X18.79600 Y58.09488
X18.79600 Y58.12028
X18.94840 Y58.12028
X18.94840 Y58.14568
X19.12620 Y58.14568
X19.12620 Y58.12028
G04 P0 ( dwell for no time -- G64 should not smooth over this point )
G00 Z3.00000 ( retract )

G00 X3.88620 Y55.58028 ( rapid move to begin. )
G01 Z-0.10000
G04 P0 ( dwell for no time -- G64 should not smooth over this point )
X3.88620 Y55.58028
X4.03860 Y55.58028
X4.03860 Y55.55488
X4.16560 Y55.55488
X4.16560 Y55.52948
X4.21640 Y55.52948
X4.21640 Y55.50408
X4.24180 Y55.50408
X4.24180 Y55.47868
X4.29260 Y55.47868
X4.29260 Y55.45328
X4.34340 Y55.45328
X4.34340 Y55.42788
X4.36880 Y55.42788
X4.36880 Y55.40248
X4.41960 Y55.40248
X4.41960 Y55.37708
X4.47040 Y55.37708
X4.47040 Y55.35168
X4.49580 Y55.35168
X4.49580 Y55.30088
X4.52120 Y55.30088
X4.52120 Y55.27548
X4.54660 Y55.27548
X4.54660 Y55.25008
X4.57200 Y55.25008
X4.57200 Y55.22468
X4.59740 Y55.22468
X4.59740 Y55.17388
X4.62280 Y55.17388
X4.62280 Y55.12308
X4.64820 Y55.12308
X4.64820 Y55.09768
X4.67360 Y55.09768
X4.67360 Y55.02148
X4.69900 Y55.02148
X4.69900 Y54.94528
X4.72440 Y54.94528
X4.72440 Y54.79288
X4.74980 Y54.79288
X4.74980 Y54.51348
X4.72440 Y54.51348
X4.72440 Y54.36108
X4.69900 Y54.36108
X4.69900 Y54.28488
X4.67360 Y54.28488
X4.67360 Y54.20868
X4.64820 Y54.20868
X4.64820 Y54.18328
X4.62280 Y54.18328
X4.62280 Y54.13248
X4.59740 Y54.13248
X4.59740 Y54.08168
X4.57200 Y54.08168
X4.57200 Y54.05628
X4.54660 Y54.05628
X4.54660 Y54.03088
X4.52120 Y54.03088
X4.52120 Y54.00548
X4.49580 Y54.00548
X4.49580 Y53.95468
X4.47040 Y53.95468
X4.47040 Y53.92928
X4.41960 Y53.92928
X4.41960 Y53.90388
X4.36880 Y53.90388
X4.36880 Y53.87848
X4.34340 Y53.87848
X4.34340 Y53.85308
X4.29260 Y53.85308
X4.29260 Y53.82768
X4.24180 Y53.82768
X4.24180 Y53.80228
X4.21640 Y53.80228
X4.21640 Y53.77688
X4.16560 Y53.77688
X4.16560 Y53.75148
X4.03860 Y53.75148
X4.03860 Y53.72608
X3.88620 Y53.72608
X3.88620 Y53.70068
X3.70840 Y53.70068
X3.70840 Y53.72608
X3.55600 Y53.72608
X3.55600 Y53.75148
X3.42900 Y53.75148
X3.42900 Y53.77688
X3.37820 Y53.77688
X3.37820 Y53.80228
X3.35280 Y53.80228
X3.35280 Y53.82768
X3.30200 Y53.82768
X3.30200 Y53.85308
X3.25120 Y53.85308
X3.25120 Y53.87848
X3.22580 Y53.87848
X3.22580 Y53.90388
X3.17500 Y53.90388
X3.17500 Y53.92928
X3.12420 Y53.92928
X3.12420 Y53.95468
X3.09880 Y53.95468
X3.09880 Y54.00548
X3.07340 Y54.00548
X3.07340 Y54.03088
X3.04800 Y54.03088
X3.04800 Y54.05628
X3.02260 Y54.05628
X3.02260 Y54.08168
X2.99720 Y54.08168
X2.99720 Y54.13248
X2.97180 Y54.13248
X2.97180 Y54.18328
X2.94640 Y54.18328
X2.94640 Y54.20868
X2.92100 Y54.20868
X2.92100 Y54.28488
X2.89560 Y54.28488
X2.89560 Y54.36108
X2.87020 Y54.36108
X2.87020 Y54.51348
X2.84480 Y54.51348
X2.84480 Y54.79288
X2.87020 Y54.79288
X2.87020 Y54.94528
X2.89560 Y54.94528
X2.89560 Y55.02148
X2.92100 Y55.02148
X2.92100 Y55.09768
X2.94640 Y55.09768
X2.94640 Y55.12308
X2.97180 Y55.12308
X2.97180 Y55.17388
X2.99720 Y55.17388
X2.99720 Y55.22468
X3.02260 Y55.22468
X3.02260 Y55.25008
X3.04800 Y55.25008
X3.04800 Y55.27548
X3.07340 Y55.27548
X3.07340 Y55.30088
X3.09880 Y55.30088
X3.09880 Y55.35168
X3.12420 Y55.35168
X3.12420 Y55.37708
X3.17500 Y55.37708
X3.17500 Y55.40248
X3.22580 Y55.40248
X3.22580 Y55.42788
X3.25120 Y55.42788
X3.25120 Y55.45328
X3.30200 Y55.45328
X3.30200 Y55.47868
X3.35280 Y55.47868
X3.35280 Y55.50408
X3.37820 Y55.50408
X3.37820 Y55.52948
X3.42900 Y55.52948
X3.42900 Y55.55488
X3.55600 Y55.55488
X3.55600 Y55.58028
X3.70840 Y55.58028
X3.70840 Y55.60568
X3.88620 Y55.60568
X3.88620 Y55.58028
G04 P0 ( dwell for no time -- G64 should not smooth over this point )
G00 Z3.00000 ( retract )

G00 X19.12620 Y55.58028 ( rapid move to begin. )
G01 Z-0.10000
G04 P0 ( dwell for no time -- G64 should not smooth over this point )
X19.12620 Y55.58028
X19.27860 Y55.58028
X19.27860 Y55.55488
X19.40560 Y55.55488
X19.40560 Y55.52948
X19.45640 Y55.52948
X19.45640 Y55.50408
X19.48180 Y55.50408
X19.48180 Y55.47868
X19.53260 Y55.47868
X19.53260 Y55.45328
X19.58340 Y55.45328
X19.58340 Y55.42788
X19.60880 Y55.42788
X19.60880 Y55.40248
X19.65960 Y55.40248
X19.65960 Y55.37708
X19.71040 Y55.37708
X19.71040 Y55.35168
X19.73580 Y55.35168
X19.73580 Y55.30088
X19.76120 Y55.30088
X19.76120 Y55.27548
X19.78660 Y55.27548
X19.78660 Y55.25008
X19.81200 Y55.25008
X19.81200 Y55.22468
X19.83740 Y55.22468
X19.83740 Y55.17388
X19.86280 Y55.17388
X19.86280 Y55.12308
X19.88820 Y55.12308
X19.88820 Y55.09768
X19.91360 Y55.09768
X19.91360 Y55.02148
X19.93900 Y55.02148
X19.93900 Y54.94528
X19.96440 Y54.94528
X19.96440 Y54.79288
X19.98980 Y54.79288
X19.98980 Y54.51348
X19.96440 Y54.51348
X19.96440 Y54.36108
X19.93900 Y54.36108
X19.93900 Y54.28488
X19.91360 Y54.28488
X19.91360 Y54.20868
X19.88820 Y54.20868
X19.88820 Y54.18328
X19.86280 Y54.18328
X19.86280 Y54.13248
X19.83740 Y54.13248
X19.83740 Y54.08168
X19.81200 Y54.08168
X19.81200 Y54.05628
X19.78660 Y54.05628
X19.78660 Y54.03088
X19.76120 Y54.03088
X19.76120 Y54.00548
X19.73580 Y54.00548
X19.73580 Y53.95468
X19.71040 Y53.95468
X19.71040 Y53.92928
X19.65960 Y53.92928
X19.65960 Y53.90388
X19.60880 Y53.90388
X19.60880 Y53.87848
X19.58340 Y53.87848
X19.58340 Y53.85308
X19.53260 Y53.85308
X19.53260 Y53.82768
X19.48180 Y53.82768
X19.48180 Y53.80228
X19.45640 Y53.80228
X19.45640 Y53.77688
X19.40560 Y53.77688
X19.40560 Y53.75148
X19.27860 Y53.75148
X19.27860 Y53.72608
X19.12620 Y53.72608
X19.12620 Y53.70068
X18.94840 Y53.70068
X18.94840 Y53.72608
X18.79600 Y53.72608
X18.79600 Y53.75148
X18.66900 Y53.75148
X18.66900 Y53.77688
X18.61820 Y53.77688
X18.61820 Y53.80228
X18.59280 Y53.80228
X18.59280 Y53.82768
X18.54200 Y53.82768
X18.54200 Y53.85308
X18.49120 Y53.85308
X18.49120 Y53.87848
X18.46580 Y53.87848
X18.46580 Y53.90388
X18.41500 Y53.90388
X18.41500 Y53.92928
X18.36420 Y53.92928
X18.36420 Y53.95468
X18.33880 Y53.95468
X18.33880 Y54.00548
X18.31340 Y54.00548
X18.31340 Y54.03088
X18.28800 Y54.03088
X18.28800 Y54.05628
X18.26260 Y54.05628
X18.26260 Y54.08168
X18.23720 Y54.08168
X18.23720 Y54.13248
X18.21180 Y54.13248
X18.21180 Y54.18328
X18.18640 Y54.18328
X18.18640 Y54.20868
X18.16100 Y54.20868
X18.16100 Y54.28488
X18.13560 Y54.28488
X18.13560 Y54.36108
X18.11020 Y54.36108
X18.11020 Y54.51348
X18.08480 Y54.51348
X18.08480 Y54.79288
X18.11020 Y54.79288
X18.11020 Y54.94528
X18.13560 Y54.94528
X18.13560 Y55.02148
X18.16100 Y55.02148
X18.16100 Y55.09768
X18.18640 Y55.09768
X18.18640 Y55.12308
X18.21180 Y55.12308
X18.21180 Y55.17388
X18.23720 Y55.17388
X18.23720 Y55.22468
X18.26260 Y55.22468
X18.26260 Y55.25008
X18.28800 Y55.25008
X18.28800 Y55.27548
X18.31340 Y55.27548
X18.31340 Y55.30088
X18.33880 Y55.30088
X18.33880 Y55.35168
X18.36420 Y55.35168
X18.36420 Y55.37708
X18.41500 Y55.37708
X18.41500 Y55.40248
X18.46580 Y55.40248
X18.46580 Y55.42788
X18.49120 Y55.42788
X18.49120 Y55.45328
X18.54200 Y55.45328
X18.54200 Y55.47868
X18.59280 Y55.47868
X18.59280 Y55.50408
X18.61820 Y55.50408
X18.61820 Y55.52948
X18.66900 Y55.52948
X18.66900 Y55.55488
X18.79600 Y55.55488
X18.79600 Y55.58028
X18.94840 Y55.58028
X18.94840 Y55.60568
X19.12620 Y55.60568
X19.12620 Y55.58028
G04 P0 ( dwell for no time -- G64 should not smooth over this point )
G00 Z3.00000 ( retract )

G00 X28.09240 Y55.32628 ( rapid move to begin. )
G01 Z-0.10000
G04 P0 ( dwell for no time -- G64 should not smooth over this point )
X28.09240 Y55.32628
X28.21940 Y55.32628
X28.21940 Y55.30088
X28.24480 Y55.30088
X28.24480 Y55.27548
X28.29560 Y55.27548
X28.29560 Y55.25008
X28.34640 Y55.25008
X28.34640 Y55.22468
X28.37180 Y55.22468
X28.37180 Y55.19928
X28.42260 Y55.19928
X28.42260 Y55.17388
X28.44800 Y55.17388
X28.44800 Y55.12308
X28.47340 Y55.12308
X28.47340 Y55.09768
X28.49880 Y55.09768
X28.49880 Y55.07228
X28.52420 Y55.07228
X28.52420 Y55.02148
X28.54960 Y55.02148
X28.54960 Y54.99608
X28.57500 Y54.99608
X28.57500 Y54.91988
X28.60040 Y54.91988
X28.60040 Y54.79288
X28.62580 Y54.79288
X28.62580 Y54.51348
X28.60040 Y54.51348
X28.60040 Y54.38648
X28.57500 Y54.38648
X28.57500 Y54.31028
X28.54960 Y54.31028
X28.54960 Y54.28488
X28.52420 Y54.28488
X28.52420 Y54.23408
X28.49880 Y54.23408
X28.49880 Y54.20868
X28.47340 Y54.20868
X28.47340 Y54.18328
X28.44800 Y54.18328
X28.44800 Y54.13248
X28.42260 Y54.13248
X28.42260 Y54.10708
X28.37180 Y54.10708
X28.37180 Y54.08168
X28.34640 Y54.08168
X28.34640 Y54.05628
X28.29560 Y54.05628
X28.29560 Y54.03088
X28.24480 Y54.03088
X28.24480 Y54.00548
X28.21940 Y54.00548
X28.21940 Y53.98008
X28.09240 Y53.98008
X28.09240 Y53.95468
X27.76220 Y53.95468
X27.76220 Y53.98008
X27.63520 Y53.98008
X27.63520 Y54.00548
X27.60980 Y54.00548
X27.60980 Y54.03088
X27.55900 Y54.03088
X27.55900 Y54.05628
X27.50820 Y54.05628
X27.50820 Y54.08168
X27.48280 Y54.08168
X27.48280 Y54.10708
X27.43200 Y54.10708
X27.43200 Y54.13248
X24.63800 Y54.13248
X24.63800 Y47.93488
X24.81580 Y47.93488
X24.81580 Y45.62348
X23.41880 Y45.62348
X23.41880 Y47.93488
X23.62200 Y47.93488
X23.62200 Y54.74208
X23.64740 Y54.74208
X23.64740 Y54.84368
X23.67280 Y54.84368
X23.67280 Y54.89448
X23.69820 Y54.89448
X23.69820 Y54.94528
X23.72360 Y54.94528
X23.72360 Y54.97068
X23.74900 Y54.97068
X23.74900 Y54.99608
X23.77440 Y54.99608
X23.77440 Y55.02148
X23.79980 Y55.02148
X23.79980 Y55.04688
X23.82520 Y55.04688
X23.82520 Y55.07228
X23.87600 Y55.07228
X23.87600 Y55.09768
X23.92680 Y55.09768
X23.92680 Y55.12308
X24.02840 Y55.12308
X24.02840 Y55.14848
X27.40660 Y55.14848
X27.40660 Y55.17388
X27.43200 Y55.17388
X27.43200 Y55.19928
X27.48280 Y55.19928
X27.48280 Y55.22468
X27.50820 Y55.22468
X27.50820 Y55.25008
X27.55900 Y55.25008
X27.55900 Y55.27548
X27.60980 Y55.27548
X27.60980 Y55.30088
X27.63520 Y55.30088
X27.63520 Y55.32628
X27.76220 Y55.32628
X27.76220 Y55.35168
X28.09240 Y55.35168
X28.09240 Y55.32628
G04 P0 ( dwell for no time -- G64 should not smooth over this point )
G00 Z3.00000 ( retract )

G00 X3.88620 Y53.04028 ( rapid move to begin. )
G01 Z-0.10000
G04 P0 ( dwell for no time -- G64 should not smooth over this point )
X3.88620 Y53.04028
X4.03860 Y53.04028
X4.03860 Y53.01488
X4.16560 Y53.01488
X4.16560 Y52.98948
X4.21640 Y52.98948
X4.21640 Y52.96408
X4.24180 Y52.96408
X4.24180 Y52.93868
X4.29260 Y52.93868
X4.29260 Y52.91328
X4.34340 Y52.91328
X4.34340 Y52.88788
X4.36880 Y52.88788
X4.36880 Y52.86248
X4.41960 Y52.86248
X4.41960 Y52.83708
X4.47040 Y52.83708
X4.47040 Y52.81168
X4.49580 Y52.81168
X4.49580 Y52.76088
X4.52120 Y52.76088
X4.52120 Y52.73548
X4.54660 Y52.73548
X4.54660 Y52.71008
X4.57200 Y52.71008
X4.57200 Y52.68468
X4.59740 Y52.68468
X4.59740 Y52.63388
X4.62280 Y52.63388
X4.62280 Y52.58308
X4.64820 Y52.58308
X4.64820 Y52.55768
X4.67360 Y52.55768
X4.67360 Y52.48148
X4.69900 Y52.48148
X4.69900 Y52.40528
X4.72440 Y52.40528
X4.72440 Y52.25288
X4.74980 Y52.25288
X4.74980 Y51.97348
X4.72440 Y51.97348
X4.72440 Y51.82108
X4.69900 Y51.82108
X4.69900 Y51.74488
X4.67360 Y51.74488
X4.67360 Y51.66868
X4.64820 Y51.66868
X4.64820 Y51.64328
X4.62280 Y51.64328
X4.62280 Y51.59248
X4.59740 Y51.59248
X4.59740 Y51.54168
X4.57200 Y51.54168
X4.57200 Y51.51628
X4.54660 Y51.51628
X4.54660 Y51.49088
X4.52120 Y51.49088
X4.52120 Y51.46548
X4.49580 Y51.46548
X4.49580 Y51.41468
X4.47040 Y51.41468
X4.47040 Y51.38928
X4.41960 Y51.38928
X4.41960 Y51.36388
X4.36880 Y51.36388
X4.36880 Y51.33848
X4.34340 Y51.33848
X4.34340 Y51.31308
X4.29260 Y51.31308
X4.29260 Y51.28768
X4.24180 Y51.28768
X4.24180 Y51.26228
X4.21640 Y51.26228
X4.21640 Y51.23688
X4.16560 Y51.23688
X4.16560 Y51.21148
X4.03860 Y51.21148
X4.03860 Y51.18608
X3.88620 Y51.18608
X3.88620 Y51.16068
X3.70840 Y51.16068
X3.70840 Y51.18608
X3.55600 Y51.18608
X3.55600 Y51.21148
X3.42900 Y51.21148
X3.42900 Y51.23688
X3.37820 Y51.23688
X3.37820 Y51.26228
X3.35280 Y51.26228
X3.35280 Y51.28768
X3.30200 Y51.28768
X3.30200 Y51.31308
X3.25120 Y51.31308
X3.25120 Y51.33848
X3.22580 Y51.33848
X3.22580 Y51.36388
X3.17500 Y51.36388
X3.17500 Y51.38928
X3.12420 Y51.38928
X3.12420 Y51.41468
X3.09880 Y51.41468
X3.09880 Y51.46548
X3.07340 Y51.46548
X3.07340 Y51.49088
X3.04800 Y51.49088
X3.04800 Y51.51628
X3.02260 Y51.51628
X3.02260 Y51.54168
X2.99720 Y51.54168
X2.99720 Y51.59248
X2.97180 Y51.59248
X2.97180 Y51.64328
X2.94640 Y51.64328
X2.94640 Y51.66868
X2.92100 Y51.66868
X2.92100 Y51.74488
X2.89560 Y51.74488
X2.89560 Y51.82108
X2.87020 Y51.82108
X2.87020 Y51.97348
X2.84480 Y51.97348
X2.84480 Y52.25288
X2.87020 Y52.25288
X2.87020 Y52.40528
X2.89560 Y52.40528
X2.89560 Y52.48148
X2.92100 Y52.48148
X2.92100 Y52.55768
X2.94640 Y52.55768
X2.94640 Y52.58308
X2.97180 Y52.58308
X2.97180 Y52.63388
X2.99720 Y52.63388
X2.99720 Y52.68468
X3.02260 Y52.68468
X3.02260 Y52.71008
X3.04800 Y52.71008
X3.04800 Y52.73548
X3.07340 Y52.73548
X3.07340 Y52.76088
X3.09880 Y52.76088
X3.09880 Y52.81168
X3.12420 Y52.81168
X3.12420 Y52.83708
X3.17500 Y52.83708
X3.17500 Y52.86248
X3.22580 Y52.86248
X3.22580 Y52.88788
X3.25120 Y52.88788
X3.25120 Y52.91328
X3.30200 Y52.91328
X3.30200 Y52.93868
X3.35280 Y52.93868
X3.35280 Y52.96408
X3.37820 Y52.96408
X3.37820 Y52.98948
X3.42900 Y52.98948
X3.42900 Y53.01488
X3.55600 Y53.01488
X3.55600 Y53.04028
X3.70840 Y53.04028
X3.70840 Y53.06568
X3.88620 Y53.06568
X3.88620 Y53.04028
G04 P0 ( dwell for no time -- G64 should not smooth over this point )
G00 Z3.00000 ( retract )

G00 X19.12620 Y53.04028 ( rapid move to begin. )
G01 Z-0.10000
G04 P0 ( dwell for no time -- G64 should not smooth over this point )
X19.12620 Y53.04028
X19.27860 Y53.04028
X19.27860 Y53.01488
X19.40560 Y53.01488
X19.40560 Y52.98948
X19.45640 Y52.98948
X19.45640 Y52.96408
X19.48180 Y52.96408
X19.48180 Y52.93868
X19.53260 Y52.93868
X19.53260 Y52.91328
X19.58340 Y52.91328
X19.58340 Y52.88788
X19.60880 Y52.88788
X19.60880 Y52.86248
X19.65960 Y52.86248
X19.65960 Y52.83708
X19.71040 Y52.83708
X19.71040 Y52.81168
X19.73580 Y52.81168
X19.73580 Y52.76088
X19.76120 Y52.76088
X19.76120 Y52.73548
X19.78660 Y52.73548
X19.78660 Y52.71008
X19.81200 Y52.71008
X19.81200 Y52.68468
X19.83740 Y52.68468
X19.83740 Y52.63388
X19.86280 Y52.63388
X19.86280 Y52.58308
X19.88820 Y52.58308
X19.88820 Y52.55768
X19.91360 Y52.55768
X19.91360 Y52.48148
X19.93900 Y52.48148
X19.93900 Y52.40528
X19.96440 Y52.40528
X19.96440 Y52.25288
X19.98980 Y52.25288
X19.98980 Y51.97348
X19.96440 Y51.97348
X19.96440 Y51.82108
X19.93900 Y51.82108
X19.93900 Y51.74488
X19.91360 Y51.74488
X19.91360 Y51.66868
X19.88820 Y51.66868
X19.88820 Y51.64328
X19.86280 Y51.64328
X19.86280 Y51.59248
X19.83740 Y51.59248
X19.83740 Y51.54168
X19.81200 Y51.54168
X19.81200 Y51.51628
X19.78660 Y51.51628
X19.78660 Y51.49088
X19.76120 Y51.49088
X19.76120 Y51.46548
X19.73580 Y51.46548
X19.73580 Y51.41468
X19.71040 Y51.41468
X19.71040 Y51.38928
X19.65960 Y51.38928
X19.65960 Y51.36388
X19.60880 Y51.36388
X19.60880 Y51.33848
X19.58340 Y51.33848
X19.58340 Y51.31308
X19.53260 Y51.31308
X19.53260 Y51.28768
X19.48180 Y51.28768
X19.48180 Y51.26228
X19.45640 Y51.26228
X19.45640 Y51.23688
X19.40560 Y51.23688
X19.40560 Y51.21148
X19.27860 Y51.21148
X19.27860 Y51.18608
X19.12620 Y51.18608
X19.12620 Y51.16068
X18.94840 Y51.16068
X18.94840 Y51.18608
X18.79600 Y51.18608
X18.79600 Y51.21148
X18.66900 Y51.21148
X18.66900 Y51.23688
X18.61820 Y51.23688
X18.61820 Y51.26228
X18.59280 Y51.26228
X18.59280 Y51.28768
X18.54200 Y51.28768
X18.54200 Y51.31308
X18.49120 Y51.31308
X18.49120 Y51.33848
X18.46580 Y51.33848
X18.46580 Y51.36388
X18.41500 Y51.36388
X18.41500 Y51.38928
X18.36420 Y51.38928
X18.36420 Y51.41468
X18.33880 Y51.41468
X18.33880 Y51.46548
X18.31340 Y51.46548
X18.31340 Y51.49088
X18.28800 Y51.49088
X18.28800 Y51.51628
X18.26260 Y51.51628
X18.26260 Y51.54168
X18.23720 Y51.54168
X18.23720 Y51.59248
X18.21180 Y51.59248
X18.21180 Y51.64328
X18.18640 Y51.64328
X18.18640 Y51.66868
X18.16100 Y51.66868
X18.16100 Y51.74488
X18.13560 Y51.74488
X18.13560 Y51.82108
X18.11020 Y51.82108
X18.11020 Y51.97348
X18.08480 Y51.97348
X18.08480 Y52.25288
X18.11020 Y52.25288
X18.11020 Y52.40528
X18.13560 Y52.40528
X18.13560 Y52.48148
X18.16100 Y52.48148
X18.16100 Y52.55768
X18.18640 Y52.55768
X18.18640 Y52.58308
X18.21180 Y52.58308
X18.21180 Y52.63388
X18.23720 Y52.63388
X18.23720 Y52.68468
X18.26260 Y52.68468
X18.26260 Y52.71008
X18.28800 Y52.71008
X18.28800 Y52.73548
X18.31340 Y52.73548
X18.31340 Y52.76088
X18.33880 Y52.76088
X18.33880 Y52.81168
X18.36420 Y52.81168
X18.36420 Y52.83708
X18.41500 Y52.83708
X18.41500 Y52.86248
X18.46580 Y52.86248
X18.46580 Y52.88788
X18.49120 Y52.88788
X18.49120 Y52.91328
X18.54200 Y52.91328
X18.54200 Y52.93868
X18.59280 Y52.93868
X18.59280 Y52.96408
X18.61820 Y52.96408
X18.61820 Y52.98948
X18.66900 Y52.98948
X18.66900 Y53.01488
X18.79600 Y53.01488
X18.79600 Y53.04028
X18.94840 Y53.04028
X18.94840 Y53.06568
X19.12620 Y53.06568
X19.12620 Y53.04028
G04 P0 ( dwell for no time -- G64 should not smooth over this point )
G00 Z3.00000 ( retract )

G00 X28.09240 Y52.78628 ( rapid move to begin. )
G01 Z-0.10000
G04 P0 ( dwell for no time -- G64 should not smooth over this point )
X28.09240 Y52.78628
X28.21940 Y52.78628
X28.21940 Y52.76088
X28.24480 Y52.76088
X28.24480 Y52.73548
X28.29560 Y52.73548
X28.29560 Y52.71008
X28.34640 Y52.71008
X28.34640 Y52.68468
X28.37180 Y52.68468
X28.37180 Y52.65928
X28.42260 Y52.65928
X28.42260 Y52.63388
X28.44800 Y52.63388
X28.44800 Y52.58308
X28.47340 Y52.58308
X28.47340 Y52.55768
X28.49880 Y52.55768
X28.49880 Y52.53228
X28.52420 Y52.53228
X28.52420 Y52.48148
X28.54960 Y52.48148
X28.54960 Y52.45608
X28.57500 Y52.45608
X28.57500 Y52.37988
X28.60040 Y52.37988
X28.60040 Y52.25288
X28.62580 Y52.25288
X28.62580 Y52.12588
X28.65120 Y52.12588
X28.65120 Y52.10048
X28.67660 Y52.10048
X28.67660 Y52.07508
X28.70200 Y52.07508
X28.70200 Y52.04968
X28.72740 Y52.04968
X28.72740 Y52.02428
X28.75280 Y52.02428
X28.75280 Y51.99888
X28.77820 Y51.99888
X28.77820 Y51.97348
X28.80360 Y51.97348
X28.80360 Y51.94808
X28.82900 Y51.94808
X28.82900 Y51.92268
X28.85440 Y51.92268
X28.85440 Y51.89728
X28.87980 Y51.89728
X28.87980 Y51.87188
X28.90520 Y51.87188
X28.90520 Y51.84648
X28.93060 Y51.84648
X28.93060 Y51.82108
X28.95600 Y51.82108
X28.95600 Y51.79568
X28.98140 Y51.79568
X28.98140 Y51.77028
X29.00680 Y51.77028
X29.00680 Y51.74488
X29.03220 Y51.74488
X29.03220 Y51.71948
X29.05760 Y51.71948
X29.05760 Y51.69408
X29.08300 Y51.69408
X29.08300 Y51.66868
X29.10840 Y51.66868
X29.10840 Y51.64328
X29.13380 Y51.64328
X29.13380 Y51.61788
X29.15920 Y51.61788
X29.15920 Y51.59248
X29.18460 Y51.59248
X29.18460 Y51.56708
X29.21000 Y51.56708
X29.21000 Y51.54168
X29.23540 Y51.54168
X29.23540 Y51.51628
X29.26080 Y51.51628
X29.26080 Y51.49088
X29.28620 Y51.49088
X29.28620 Y51.46548
X29.31160 Y51.46548
X29.31160 Y51.44008
X29.33700 Y51.44008
X29.33700 Y51.41468
X29.36240 Y51.41468
X29.36240 Y51.38928
X29.38780 Y51.38928
X29.38780 Y51.36388
X29.41320 Y51.36388
X29.41320 Y51.33848
X29.43860 Y51.33848
X29.43860 Y51.31308
X29.46400 Y51.31308
X29.46400 Y51.28768
X29.48940 Y51.28768
X29.48940 Y51.26228
X29.51480 Y51.26228
X29.51480 Y51.23688
X29.54020 Y51.23688
X29.54020 Y51.21148
X29.56560 Y51.21148
X29.56560 Y51.18608
X29.59100 Y51.18608
X29.59100 Y51.16068
X29.61640 Y51.16068
X29.61640 Y51.13528
X29.64180 Y51.13528
X29.64180 Y51.10988
X29.66720 Y51.10988
X29.66720 Y51.08448
X29.69260 Y51.08448
X29.69260 Y51.05908
X29.71800 Y51.05908
X29.71800 Y51.03368
X29.74340 Y51.03368
X29.74340 Y51.00828
X29.76880 Y51.00828
X29.76880 Y50.98288
X29.79420 Y50.98288
X29.79420 Y50.95748
X29.81960 Y50.95748
X29.81960 Y50.93208
X29.84500 Y50.93208
X29.84500 Y50.90668
X29.87040 Y50.90668
X29.87040 Y50.88128
X29.89580 Y50.88128
X29.89580 Y50.85588
X29.92120 Y50.85588
X29.92120 Y50.83048
X29.94660 Y50.83048
X29.94660 Y50.80508
X29.97200 Y50.80508
X29.97200 Y50.77968
X29.99740 Y50.77968
X29.99740 Y50.75428
X30.02280 Y50.75428
X30.02280 Y50.72888
X30.04820 Y50.72888
X30.04820 Y50.70348
X30.07360 Y50.70348
X30.07360 Y50.67808
X30.09900 Y50.67808
X30.09900 Y50.65268
X30.12440 Y50.65268
X30.12440 Y50.62728
X30.14980 Y50.62728
X30.14980 Y50.60188
X30.17520 Y50.60188
X30.17520 Y50.57648
X30.20060 Y50.57648
X30.20060 Y50.55108
X30.22600 Y50.55108
X30.22600 Y50.52568
X30.25140 Y50.52568
X30.25140 Y50.50028
X30.27680 Y50.50028
X30.27680 Y50.47488
X30.30220 Y50.47488
X30.30220 Y50.44948
X30.32760 Y50.44948
X30.32760 Y50.42408
X30.35300 Y50.42408
X30.35300 Y50.39868
X30.37840 Y50.39868
X30.37840 Y50.37328
X30.40380 Y50.37328
X30.40380 Y50.34788
X30.42920 Y50.34788
X30.42920 Y50.32248
X30.45460 Y50.32248
X30.45460 Y50.29708
X30.48000 Y50.29708
X30.48000 Y50.27168
X30.50540 Y50.27168
X30.50540 Y50.24628
X30.53080 Y50.24628
X30.53080 Y50.22088
X30.55620 Y50.22088
X30.55620 Y50.19548
X30.58160 Y50.19548
X30.58160 Y50.17008
X30.60700 Y50.17008
X30.60700 Y50.14468
X30.63240 Y50.14468
X30.63240 Y50.11928
X30.65780 Y50.11928
X30.65780 Y50.09388
X30.68320 Y50.09388
X30.68320 Y50.06848
X30.70860 Y50.06848
X30.70860 Y50.04308
X30.73400 Y50.04308
X30.73400 Y50.01768
X30.75940 Y50.01768
X30.75940 Y49.99228
X30.78480 Y49.99228
X30.78480 Y49.96688
X30.81020 Y49.96688
X30.81020 Y49.94148
X30.83560 Y49.94148
X30.83560 Y49.91608
X30.86100 Y49.91608
X30.86100 Y49.89068
X30.88640 Y49.89068
X30.88640 Y49.86528
X30.91180 Y49.86528
X30.91180 Y49.83988
X30.93720 Y49.83988
X30.93720 Y49.81448
X30.96260 Y49.81448
X30.96260 Y49.78908
X30.98800 Y49.78908
X30.98800 Y49.76368
X31.01340 Y49.76368
X31.01340 Y49.73828
X31.03880 Y49.73828
X31.03880 Y49.71288
X31.06420 Y49.71288
X31.06420 Y49.68748
X31.08960 Y49.68748
X31.08960 Y49.66208
X31.11500 Y49.66208
X31.11500 Y49.63668
X31.14040 Y49.63668
X31.14040 Y49.61128
X31.16580 Y49.61128
X31.16580 Y49.58588
X31.19120 Y49.58588
X31.19120 Y49.56048
X31.21660 Y49.56048
X31.21660 Y49.53508
X31.24200 Y49.53508
X31.24200 Y49.50968
X31.26740 Y49.50968
X31.26740 Y49.48428
X31.29280 Y49.48428
X31.29280 Y49.45888
X31.31820 Y49.45888
X31.31820 Y49.43348
X31.34360 Y49.43348
X31.34360 Y49.40808
X31.36900 Y49.40808
X31.36900 Y49.38268
X31.39440 Y49.38268
X31.39440 Y49.35728
X31.41980 Y49.35728
X31.41980 Y49.33188
X31.44520 Y49.33188
X31.44520 Y49.30648
X31.47060 Y49.30648
X31.47060 Y49.28108
X31.49600 Y49.28108
X31.49600 Y49.25568
X31.52140 Y49.25568
X31.52140 Y49.23028
X31.54680 Y49.23028
X31.54680 Y49.20488
X31.57220 Y49.20488
X31.57220 Y49.17948
X31.59760 Y49.17948
X31.59760 Y49.15408
X31.62300 Y49.15408
X31.62300 Y49.12868
X31.64840 Y49.12868
X31.64840 Y49.10328
X31.67380 Y49.10328
X31.67380 Y49.07788
X31.69920 Y49.07788
X31.69920 Y49.05248
X31.72460 Y49.05248
X31.72460 Y49.02708
X31.75000 Y49.02708
X31.75000 Y49.00168
X31.77540 Y49.00168
X31.77540 Y48.97628
X31.80080 Y48.97628
X31.80080 Y48.95088
X31.82620 Y48.95088
X31.82620 Y48.92548
X31.85160 Y48.92548
X31.85160 Y48.90008
X31.87700 Y48.90008
X31.87700 Y48.87468
X31.90240 Y48.87468
X31.90240 Y48.84928
X31.92780 Y48.84928
X31.92780 Y48.82388
X31.95320 Y48.82388
X31.95320 Y48.79848
X31.97860 Y48.79848
X31.97860 Y48.77308
X32.00400 Y48.77308
X32.00400 Y48.74768
X32.02940 Y48.74768
X32.02940 Y48.72228
X32.05480 Y48.72228
X32.05480 Y48.69688
X32.08020 Y48.69688
X32.08020 Y48.67148
X32.10560 Y48.67148
X32.10560 Y48.64608
X32.13100 Y48.64608
X32.13100 Y48.62068
X32.15640 Y48.62068
X32.15640 Y48.59528
X32.18180 Y48.59528
X32.18180 Y48.54448
X32.20720 Y48.54448
X32.20720 Y48.49368
X32.23260 Y48.49368
X32.23260 Y48.39208
X32.25800 Y48.39208
X32.25800 Y43.31208
X32.28340 Y43.31208
X32.28340 Y43.26128
X32.30880 Y43.26128
X32.30880 Y43.21048
X32.33420 Y43.21048
X32.33420 Y43.15968
X32.35960 Y43.15968
X32.35960 Y43.10888
X32.38500 Y43.10888
X32.38500 Y43.05808
X32.41040 Y43.05808
X32.41040 Y43.00728
X32.43580 Y43.00728
X32.43580 Y42.95648
X32.46120 Y42.95648
X32.46120 Y42.90568
X32.48660 Y42.90568
X32.48660 Y42.85488
X32.51200 Y42.85488
X32.51200 Y42.80408
X32.53740 Y42.80408
X32.53740 Y42.75328
X32.56280 Y42.75328
X32.56280 Y42.70248
X32.58820 Y42.70248
X32.58820 Y42.65168
X32.61360 Y42.65168
X32.61360 Y42.60088
X32.63900 Y42.60088
X32.63900 Y42.55008
X32.66440 Y42.55008
X32.66440 Y42.49928
X32.68980 Y42.49928
X32.68980 Y42.44848
X32.71520 Y42.44848
X32.71520 Y42.39768
X32.74060 Y42.39768
X32.74060 Y42.34688
X32.76600 Y42.34688
X32.76600 Y42.29608
X32.79140 Y42.29608
X32.79140 Y42.24528
X32.81680 Y42.24528
X32.81680 Y42.19448
X32.84220 Y42.19448
X32.84220 Y42.14368
X32.86760 Y42.14368
X32.86760 Y42.09288
X32.89300 Y42.09288
X32.89300 Y42.04208
X32.91840 Y42.04208
X32.91840 Y41.99128
X32.94380 Y41.99128
X32.94380 Y41.94048
X32.96920 Y41.94048
X32.96920 Y41.88968
X32.99460 Y41.88968
X32.99460 Y41.83888
X33.02000 Y41.83888
X33.02000 Y41.78808
X33.04540 Y41.78808
X33.04540 Y41.73728
X33.07080 Y41.73728
X33.07080 Y41.68648
X33.09620 Y41.68648
X33.09620 Y41.63568
X33.12160 Y41.63568
X33.12160 Y41.58488
X33.14700 Y41.58488
X33.14700 Y41.53408
X33.17240 Y41.53408
X33.17240 Y41.48328
X33.19780 Y41.48328
X33.19780 Y41.43248
X33.22320 Y41.43248
X33.22320 Y41.38168
X33.24860 Y41.38168
X33.24860 Y41.33088
X33.27400 Y41.33088
X33.27400 Y41.28008
X33.29940 Y41.28008
X33.29940 Y41.22928
X33.32480 Y41.22928
X33.32480 Y41.17848
X33.35020 Y41.17848
X33.35020 Y41.12768
X33.37560 Y41.12768
X33.37560 Y41.07688
X33.40100 Y41.07688
X33.40100 Y41.02608
X33.42640 Y41.02608
X33.42640 Y40.97528
X33.45180 Y40.97528
X33.45180 Y40.92448
X33.47720 Y40.92448
X33.47720 Y40.87368
X33.50260 Y40.87368
X33.50260 Y40.77208
X33.52800 Y40.77208
X33.52800 Y22.78888
X33.50260 Y22.78888
X33.50260 Y22.68728
X33.47720 Y22.68728
X33.47720 Y22.63648
X33.45180 Y22.63648
X33.45180 Y22.58568
X33.42640 Y22.58568
X33.42640 Y22.56028
X33.40100 Y22.56028
X33.40100 Y22.53488
X33.37560 Y22.53488
X33.37560 Y22.50948
X33.35020 Y22.50948
X33.35020 Y22.48408
X33.32480 Y22.48408
X33.32480 Y22.45868
X33.29940 Y22.45868
X33.29940 Y22.43328
X33.27400 Y22.43328
X33.27400 Y22.40788
X33.22320 Y22.40788
X33.22320 Y22.38248
X33.19780 Y22.38248
X33.19780 Y22.35708
X33.17240 Y22.35708
X33.17240 Y22.33168
X33.14700 Y22.33168
X33.14700 Y22.30628
X33.12160 Y22.30628
X33.12160 Y22.28088
X33.09620 Y22.28088
X33.09620 Y22.25548
X33.07080 Y22.25548
X33.07080 Y22.23008
X33.02000 Y22.23008
X33.02000 Y22.20468
X32.99460 Y22.20468
X32.99460 Y22.17928
X32.96920 Y22.17928
X32.96920 Y22.15388
X32.94380 Y22.15388
X32.94380 Y22.12848
X32.91840 Y22.12848
X32.91840 Y22.10308
X32.89300 Y22.10308
X32.89300 Y22.07768
X32.86760 Y22.07768
X32.86760 Y22.05228
X32.84220 Y22.05228
X32.84220 Y22.02688
X32.79140 Y22.02688
X32.79140 Y22.00148
X32.76600 Y22.00148
X32.76600 Y21.97608
X32.74060 Y21.97608
X32.74060 Y21.95068
X32.71520 Y21.95068
X32.71520 Y21.92528
X32.68980 Y21.92528
X32.68980 Y21.89988
X32.66440 Y21.89988
X32.66440 Y21.87448
X32.63900 Y21.87448
X32.63900 Y21.84908
X32.58820 Y21.84908
X32.58820 Y21.82368
X32.56280 Y21.82368
X32.56280 Y21.79828
X32.53740 Y21.79828
X32.53740 Y21.77288
X32.51200 Y21.77288
X32.51200 Y21.74748
X32.48660 Y21.74748
X32.48660 Y21.72208
X32.46120 Y21.72208
X32.46120 Y21.69668
X32.43580 Y21.69668
X32.43580 Y21.67128
X32.38500 Y21.67128
X32.38500 Y21.62048
X32.41040 Y21.62048
X32.41040 Y21.56968
X32.43580 Y21.56968
X32.43580 Y21.51888
X32.46120 Y21.51888
X32.46120 Y21.46808
X32.48660 Y21.46808
X32.48660 Y21.41728
X32.51200 Y21.41728
X32.51200 Y21.36648
X32.53740 Y21.36648
X32.53740 Y21.31568
X32.56280 Y21.31568
X32.56280 Y21.26488
X32.58820 Y21.26488
X32.58820 Y21.21408
X32.61360 Y21.21408
X32.61360 Y21.16328
X32.63900 Y21.16328
X32.63900 Y21.11248
X32.66440 Y21.11248
X32.66440 Y21.06168
X32.68980 Y21.06168
X32.68980 Y21.01088
X32.71520 Y21.01088
X32.71520 Y20.96008
X32.74060 Y20.96008
X32.74060 Y20.90928
X32.76600 Y20.90928
X32.76600 Y20.85848
X32.79140 Y20.85848
X32.79140 Y20.80768
X32.81680 Y20.80768
X32.81680 Y20.75688
X32.84220 Y20.75688
X32.84220 Y20.70608
X32.86760 Y20.70608
X32.86760 Y20.65528
X32.89300 Y20.65528
X32.89300 Y20.60448
X32.91840 Y20.60448
X32.91840 Y20.55368
X32.94380 Y20.55368
X32.94380 Y20.50288
X32.96920 Y20.50288
X32.96920 Y20.45208
X32.99460 Y20.45208
X32.99460 Y20.40128
X33.02000 Y20.40128
X33.02000 Y20.35048
X33.04540 Y20.35048
X33.04540 Y20.29968
X33.07080 Y20.29968
X33.07080 Y20.24888
X33.09620 Y20.24888
X33.09620 Y20.19808
X33.12160 Y20.19808
X33.12160 Y20.14728
X33.14700 Y20.14728
X33.14700 Y20.09648
X33.17240 Y20.09648
X33.17240 Y20.04568
X33.90900 Y20.04568
X33.90900 Y18.44548
X32.10560 Y18.44548
X32.10560 Y19.94408
X32.08020 Y19.94408
X32.08020 Y19.99488
X32.05480 Y19.99488
X32.05480 Y20.04568
X32.02940 Y20.04568
X32.02940 Y20.09648
X32.00400 Y20.09648
X32.00400 Y20.14728
X31.97860 Y20.14728
X31.97860 Y20.19808
X31.95320 Y20.19808
X31.95320 Y20.24888
X31.92780 Y20.24888
X31.92780 Y20.29968
X31.90240 Y20.29968
X31.90240 Y20.35048
X31.87700 Y20.35048
X31.87700 Y20.40128
X31.85160 Y20.40128
X31.85160 Y20.45208
X31.82620 Y20.45208
X31.82620 Y20.50288
X31.80080 Y20.50288
X31.80080 Y20.55368
X31.77540 Y20.55368
X31.77540 Y20.60448
X31.75000 Y20.60448
X31.75000 Y20.65528
X31.72460 Y20.65528
X31.72460 Y20.70608
X31.69920 Y20.70608
X31.69920 Y20.75688
X31.67380 Y20.75688
X31.67380 Y20.80768
X31.64840 Y20.80768
X31.64840 Y20.85848
X31.62300 Y20.85848
X31.62300 Y20.90928
X31.59760 Y20.90928
X31.59760 Y20.96008
X31.57220 Y20.96008
X31.57220 Y21.01088
X31.54680 Y21.01088
X31.54680 Y21.06168
X31.52140 Y21.06168
X31.52140 Y21.11248
X31.49600 Y21.11248
X31.49600 Y21.16328
X31.47060 Y21.16328
X31.47060 Y21.21408
X31.44520 Y21.21408
X31.44520 Y21.26488
X31.41980 Y21.26488
X31.41980 Y21.31568
X31.39440 Y21.31568
X31.39440 Y21.36648
X31.36900 Y21.36648
X31.36900 Y21.41728
X31.34360 Y21.41728
X31.34360 Y21.46808
X31.31820 Y21.46808
X31.31820 Y21.51888
X31.29280 Y21.51888
X31.29280 Y21.56968
X31.26740 Y21.56968
X31.26740 Y21.67128
X31.24200 Y21.67128
X31.24200 Y21.87448
X31.26740 Y21.87448
X31.26740 Y21.97608
X31.29280 Y21.97608
X31.29280 Y22.02688
X31.31820 Y22.02688
X31.31820 Y22.05228
X31.29280 Y22.05228
X31.29280 Y22.07768
X31.24200 Y22.07768
X31.24200 Y22.10308
X31.19120 Y22.10308
X31.19120 Y22.12848
X31.16580 Y22.12848
X31.16580 Y22.15388
X31.11500 Y22.15388
X31.11500 Y22.17928
X31.06420 Y22.17928
X31.06420 Y22.20468
X31.03880 Y22.20468
X31.03880 Y22.25548
X31.01340 Y22.25548
X31.01340 Y22.28088
X30.98800 Y22.28088
X30.98800 Y22.30628
X30.96260 Y22.30628
X30.96260 Y22.33168
X30.93720 Y22.33168
X30.93720 Y22.38248
X30.91180 Y22.38248
X30.91180 Y22.43328
X30.88640 Y22.43328
X30.88640 Y22.45868
X30.86100 Y22.45868
X30.86100 Y22.53488
X30.83560 Y22.53488
X30.83560 Y22.61108
X30.81020 Y22.61108
X30.81020 Y22.76348
X30.78480 Y22.76348
X30.78480 Y23.04288
X30.81020 Y23.04288
X30.81020 Y23.19528
X30.83560 Y23.19528
X30.83560 Y23.27148
X30.86100 Y23.27148
X30.86100 Y23.34768
X30.88640 Y23.34768
X30.88640 Y23.37308
X30.91180 Y23.37308
X30.91180 Y23.42388
X30.93720 Y23.42388
X30.93720 Y23.47468
X30.96260 Y23.47468
X30.96260 Y23.50008
X30.98800 Y23.50008
X30.98800 Y23.52548
X31.01340 Y23.52548
X31.01340 Y23.55088
X31.03880 Y23.55088
X31.03880 Y23.60168
X31.06420 Y23.60168
X31.06420 Y23.62708
X31.11500 Y23.62708
X31.11500 Y23.65248
X31.16580 Y23.65248
X31.16580 Y23.67788
X31.19120 Y23.67788
X31.19120 Y23.70328
X31.24200 Y23.70328
X31.24200 Y23.72868
X31.29280 Y23.72868
X31.29280 Y23.75408
X31.31820 Y23.75408
X31.31820 Y23.77948
X31.36900 Y23.77948
X31.36900 Y23.80488
X31.49600 Y23.80488
X31.49600 Y23.83028
X31.64840 Y23.83028
X31.64840 Y23.85568
X31.82620 Y23.85568
X31.82620 Y23.83028
X31.97860 Y23.83028
X31.97860 Y23.80488
X32.10560 Y23.80488
X32.10560 Y23.77948
X32.15640 Y23.77948
X32.15640 Y23.75408
X32.18180 Y23.75408
X32.18180 Y23.72868
X32.23260 Y23.72868
X32.23260 Y23.70328
X32.28340 Y23.70328
X32.28340 Y23.67788
X32.30880 Y23.67788
X32.30880 Y23.65248
X32.35960 Y23.65248
X32.35960 Y23.62708
X32.41040 Y23.62708
X32.41040 Y23.60168
X32.43580 Y23.60168
X32.43580 Y23.55088
X32.46120 Y23.55088
X32.46120 Y23.52548
X32.48660 Y23.52548
X32.48660 Y23.50008
X32.51200 Y23.50008
X32.51200 Y40.56888
X32.48660 Y40.56888
X32.48660 Y40.61968
X32.46120 Y40.61968
X32.46120 Y40.67048
X32.43580 Y40.67048
X32.43580 Y40.72128
X32.41040 Y40.72128
X32.41040 Y40.77208
X32.38500 Y40.77208
X32.38500 Y40.82288
X32.35960 Y40.82288
X32.35960 Y40.87368
X32.33420 Y40.87368
X32.33420 Y40.92448
X32.30880 Y40.92448
X32.30880 Y40.97528
X32.28340 Y40.97528
X32.28340 Y41.02608
X32.25800 Y41.02608
X32.25800 Y41.07688
X32.23260 Y41.07688
X32.23260 Y41.12768
X32.20720 Y41.12768
X32.20720 Y41.17848
X32.18180 Y41.17848
X32.18180 Y41.22928
X32.15640 Y41.22928
X32.15640 Y41.28008
X32.13100 Y41.28008
X32.13100 Y41.33088
X32.10560 Y41.33088
X32.10560 Y41.38168
X32.08020 Y41.38168
X32.08020 Y41.43248
X32.05480 Y41.43248
X32.05480 Y41.48328
X32.02940 Y41.48328
X32.02940 Y41.53408
X32.00400 Y41.53408
X32.00400 Y41.58488
X31.97860 Y41.58488
X31.97860 Y41.63568
X31.95320 Y41.63568
X31.95320 Y41.68648
X31.92780 Y41.68648
X31.92780 Y41.73728
X31.90240 Y41.73728
X31.90240 Y41.78808
X31.87700 Y41.78808
X31.87700 Y41.83888
X31.85160 Y41.83888
X31.85160 Y41.88968
X31.82620 Y41.88968
X31.82620 Y41.94048
X31.80080 Y41.94048
X31.80080 Y41.99128
X31.77540 Y41.99128
X31.77540 Y42.04208
X31.75000 Y42.04208
X31.75000 Y42.09288
X31.72460 Y42.09288
X31.72460 Y42.14368
X31.69920 Y42.14368
X31.69920 Y42.19448
X31.67380 Y42.19448
X31.67380 Y42.24528
X31.64840 Y42.24528
X31.64840 Y42.29608
X31.62300 Y42.29608
X31.62300 Y42.34688
X31.59760 Y42.34688
X31.59760 Y42.39768
X31.57220 Y42.39768
X31.57220 Y42.44848
X31.54680 Y42.44848
X31.54680 Y42.49928
X31.52140 Y42.49928
X31.52140 Y42.55008
X31.49600 Y42.55008
X31.49600 Y42.60088
X31.47060 Y42.60088
X31.47060 Y42.65168
X31.44520 Y42.65168
X31.44520 Y42.70248
X31.41980 Y42.70248
X31.41980 Y42.75328
X31.39440 Y42.75328
X31.39440 Y42.80408
X31.36900 Y42.80408
X31.36900 Y42.85488
X31.34360 Y42.85488
X31.34360 Y42.90568
X31.31820 Y42.90568
X31.31820 Y42.95648
X31.29280 Y42.95648
X31.29280 Y43.00728
X31.26740 Y43.00728
X31.26740 Y43.10888
X31.24200 Y43.10888
X31.24200 Y48.08728
X31.21660 Y48.08728
X31.21660 Y48.11268
X31.19120 Y48.11268
X31.19120 Y48.13808
X31.16580 Y48.13808
X31.16580 Y48.16348
X31.14040 Y48.16348
X31.14040 Y48.18888
X31.11500 Y48.18888
X31.11500 Y48.21428
X31.08960 Y48.21428
X31.08960 Y48.23968
X31.06420 Y48.23968
X31.06420 Y48.26508
X31.03880 Y48.26508
X31.03880 Y48.29048
X31.01340 Y48.29048
X31.01340 Y48.31588
X30.98800 Y48.31588
X30.98800 Y48.34128
X30.96260 Y48.34128
X30.96260 Y48.36668
X30.93720 Y48.36668
X30.93720 Y48.39208
X30.91180 Y48.39208
X30.91180 Y48.41748
X30.88640 Y48.41748
X30.88640 Y48.44288
X30.86100 Y48.44288
X30.86100 Y48.46828
X30.83560 Y48.46828
X30.83560 Y48.49368
X30.81020 Y48.49368
X30.81020 Y48.51908
X30.78480 Y48.51908
X30.78480 Y48.54448
X30.75940 Y48.54448
X30.75940 Y48.56988
X30.73400 Y48.56988
X30.73400 Y48.59528
X30.70860 Y48.59528
X30.70860 Y48.62068
X30.68320 Y48.62068
X30.68320 Y48.64608
X30.65780 Y48.64608
X30.65780 Y48.67148
X30.63240 Y48.67148
X30.63240 Y48.69688
X30.60700 Y48.69688
X30.60700 Y48.72228
X30.58160 Y48.72228
X30.58160 Y48.74768
X30.55620 Y48.74768
X30.55620 Y48.77308
X30.53080 Y48.77308
X30.53080 Y48.79848
X30.50540 Y48.79848
X30.50540 Y48.82388
X30.48000 Y48.82388
X30.48000 Y48.84928
X30.45460 Y48.84928
X30.45460 Y48.87468
X30.42920 Y48.87468
X30.42920 Y48.90008
X30.40380 Y48.90008
X30.40380 Y48.92548
X30.37840 Y48.92548
X30.37840 Y48.95088
X30.35300 Y48.95088
X30.35300 Y48.97628
X30.32760 Y48.97628
X30.32760 Y49.00168
X30.30220 Y49.00168
X30.30220 Y49.02708
X30.27680 Y49.02708
X30.27680 Y49.05248
X30.25140 Y49.05248
X30.25140 Y49.07788
X30.22600 Y49.07788
X30.22600 Y49.10328
X30.20060 Y49.10328
X30.20060 Y49.12868
X30.17520 Y49.12868
X30.17520 Y49.15408
X30.14980 Y49.15408
X30.14980 Y49.17948
X30.12440 Y49.17948
X30.12440 Y49.20488
X30.09900 Y49.20488
X30.09900 Y49.23028
X30.07360 Y49.23028
X30.07360 Y49.25568
X30.04820 Y49.25568
X30.04820 Y49.28108
X30.02280 Y49.28108
X30.02280 Y49.30648
X29.99740 Y49.30648
X29.99740 Y49.33188
X29.97200 Y49.33188
X29.97200 Y49.35728
X29.94660 Y49.35728
X29.94660 Y49.38268
X29.92120 Y49.38268
X29.92120 Y49.40808
X29.89580 Y49.40808
X29.89580 Y49.43348
X29.87040 Y49.43348
X29.87040 Y49.45888
X29.84500 Y49.45888
X29.84500 Y49.48428
X29.81960 Y49.48428
X29.81960 Y49.50968
X29.79420 Y49.50968
X29.79420 Y49.53508
X29.76880 Y49.53508
X29.76880 Y49.56048
X29.74340 Y49.56048
X29.74340 Y49.58588
X29.71800 Y49.58588
X29.71800 Y49.61128
X29.69260 Y49.61128
X29.69260 Y49.63668
X29.66720 Y49.63668
X29.66720 Y49.66208
X29.64180 Y49.66208
X29.64180 Y49.68748
X29.61640 Y49.68748
X29.61640 Y49.71288
X29.59100 Y49.71288
X29.59100 Y49.73828
X29.56560 Y49.73828
X29.56560 Y49.76368
X29.54020 Y49.76368
X29.54020 Y49.78908
X29.51480 Y49.78908
X29.51480 Y49.81448
X29.48940 Y49.81448
X29.48940 Y49.83988
X29.46400 Y49.83988
X29.46400 Y49.86528
X29.43860 Y49.86528
X29.43860 Y49.89068
X29.41320 Y49.89068
X29.41320 Y49.91608
X29.38780 Y49.91608
X29.38780 Y49.94148
X29.36240 Y49.94148
X29.36240 Y49.96688
X29.33700 Y49.96688
X29.33700 Y49.99228
X29.31160 Y49.99228
X29.31160 Y50.01768
X29.28620 Y50.01768
X29.28620 Y50.04308
X29.26080 Y50.04308
X29.26080 Y50.06848
X29.23540 Y50.06848
X29.23540 Y50.09388
X29.21000 Y50.09388
X29.21000 Y50.11928
X29.18460 Y50.11928
X29.18460 Y50.14468
X29.15920 Y50.14468
X29.15920 Y50.17008
X29.13380 Y50.17008
X29.13380 Y50.19548
X29.10840 Y50.19548
X29.10840 Y50.22088
X29.08300 Y50.22088
X29.08300 Y50.24628
X29.05760 Y50.24628
X29.05760 Y50.27168
X29.03220 Y50.27168
X29.03220 Y50.29708
X29.00680 Y50.29708
X29.00680 Y50.32248
X28.98140 Y50.32248
X28.98140 Y50.34788
X28.95600 Y50.34788
X28.95600 Y50.37328
X28.93060 Y50.37328
X28.93060 Y50.39868
X28.90520 Y50.39868
X28.90520 Y50.42408
X28.87980 Y50.42408
X28.87980 Y50.44948
X28.85440 Y50.44948
X28.85440 Y50.47488
X28.82900 Y50.47488
X28.82900 Y50.50028
X28.80360 Y50.50028
X28.80360 Y50.52568
X28.77820 Y50.52568
X28.77820 Y50.55108
X28.75280 Y50.55108
X28.75280 Y50.57648
X28.72740 Y50.57648
X28.72740 Y50.60188
X28.70200 Y50.60188
X28.70200 Y50.62728
X28.67660 Y50.62728
X28.67660 Y50.65268
X28.65120 Y50.65268
X28.65120 Y50.67808
X28.62580 Y50.67808
X28.62580 Y50.70348
X28.60040 Y50.70348
X28.60040 Y50.72888
X28.57500 Y50.72888
X28.57500 Y50.75428
X28.54960 Y50.75428
X28.54960 Y50.77968
X28.52420 Y50.77968
X28.52420 Y50.80508
X28.49880 Y50.80508
X28.49880 Y50.83048
X28.47340 Y50.83048
X28.47340 Y50.85588
X28.44800 Y50.85588
X28.44800 Y50.88128
X28.42260 Y50.88128
X28.42260 Y50.90668
X28.39720 Y50.90668
X28.39720 Y50.93208
X28.37180 Y50.93208
X28.37180 Y50.95748
X28.34640 Y50.95748
X28.34640 Y50.98288
X28.32100 Y50.98288
X28.32100 Y51.00828
X28.29560 Y51.00828
X28.29560 Y51.03368
X28.27020 Y51.03368
X28.27020 Y51.05908
X28.24480 Y51.05908
X28.24480 Y51.08448
X28.21940 Y51.08448
X28.21940 Y51.10988
X28.19400 Y51.10988
X28.19400 Y51.13528
X28.16860 Y51.13528
X28.16860 Y51.16068
X28.14320 Y51.16068
X28.14320 Y51.18608
X28.11780 Y51.18608
X28.11780 Y51.21148
X28.09240 Y51.21148
X28.09240 Y51.23688
X28.06700 Y51.23688
X28.06700 Y51.26228
X28.04160 Y51.26228
X28.04160 Y51.28768
X28.01620 Y51.28768
X28.01620 Y51.31308
X27.99080 Y51.31308
X27.99080 Y51.33848
X27.96540 Y51.33848
X27.96540 Y51.36388
X27.94000 Y51.36388
X27.94000 Y51.38928
X27.91460 Y51.38928
X27.91460 Y51.41468
X27.76220 Y51.41468
X27.76220 Y51.44008
X27.63520 Y51.44008
X27.63520 Y51.46548
X27.60980 Y51.46548
X27.60980 Y51.49088
X27.55900 Y51.49088
X27.55900 Y51.51628
X27.50820 Y51.51628
X27.50820 Y51.54168
X27.48280 Y51.54168
X27.48280 Y51.56708
X27.43200 Y51.56708
X27.43200 Y51.59248
X27.40660 Y51.59248
X27.40660 Y51.64328
X27.38120 Y51.64328
X27.38120 Y51.66868
X27.35580 Y51.66868
X27.35580 Y51.69408
X27.33040 Y51.69408
X27.33040 Y51.74488
X27.30500 Y51.74488
X27.30500 Y51.77028
X27.27960 Y51.77028
X27.27960 Y51.84648
X27.25420 Y51.84648
X27.25420 Y51.97348
X27.22880 Y51.97348
X27.22880 Y52.25288
X27.25420 Y52.25288
X27.25420 Y52.37988
X27.27960 Y52.37988
X27.27960 Y52.45608
X27.30500 Y52.45608
X27.30500 Y52.48148
X27.33040 Y52.48148
X27.33040 Y52.53228
X27.35580 Y52.53228
X27.35580 Y52.55768
X27.38120 Y52.55768
X27.38120 Y52.58308
X27.40660 Y52.58308
X27.40660 Y52.63388
X27.43200 Y52.63388
X27.43200 Y52.65928
X27.48280 Y52.65928
X27.48280 Y52.68468
X27.50820 Y52.68468
X27.50820 Y52.71008
X27.55900 Y52.71008
X27.55900 Y52.73548
X27.60980 Y52.73548
X27.60980 Y52.76088
X27.63520 Y52.76088
X27.63520 Y52.78628
X27.76220 Y52.78628
X27.76220 Y52.81168
X28.09240 Y52.81168
X28.09240 Y52.78628
G04 P0 ( dwell for no time -- G64 should not smooth over this point )
G00 Z3.00000 ( retract )

G00 X3.88620 Y50.50028 ( rapid move to begin. )
G01 Z-0.10000
G04 P0 ( dwell for no time -- G64 should not smooth over this point )
X3.88620 Y50.50028
X4.03860 Y50.50028
X4.03860 Y50.47488
X4.16560 Y50.47488
X4.16560 Y50.44948
X4.21640 Y50.44948
X4.21640 Y50.42408
X4.24180 Y50.42408
X4.24180 Y50.39868
X4.29260 Y50.39868
X4.29260 Y50.37328
X4.34340 Y50.37328
X4.34340 Y50.34788
X4.36880 Y50.34788
X4.36880 Y50.32248
X4.41960 Y50.32248
X4.41960 Y50.29708
X4.47040 Y50.29708
X4.47040 Y50.27168
X4.49580 Y50.27168
X4.49580 Y50.22088
X4.52120 Y50.22088
X4.52120 Y50.19548
X4.54660 Y50.19548
X4.54660 Y50.17008
X4.57200 Y50.17008
X4.57200 Y50.14468
X4.59740 Y50.14468
X4.59740 Y50.09388
X4.62280 Y50.09388
X4.62280 Y50.04308
X4.64820 Y50.04308
X4.64820 Y50.01768
X4.67360 Y50.01768
X4.67360 Y49.94148
X4.69900 Y49.94148
X4.69900 Y49.86528
X4.72440 Y49.86528
X4.72440 Y49.71288
X4.74980 Y49.71288
X4.74980 Y49.43348
X4.72440 Y49.43348
X4.72440 Y49.28108
X4.69900 Y49.28108
X4.69900 Y49.20488
X4.67360 Y49.20488
X4.67360 Y49.12868
X4.64820 Y49.12868
X4.64820 Y49.10328
X4.62280 Y49.10328
X4.62280 Y49.05248
X4.59740 Y49.05248
X4.59740 Y49.00168
X4.57200 Y49.00168
X4.57200 Y48.97628
X4.54660 Y48.97628
X4.54660 Y48.95088
X4.52120 Y48.95088
X4.52120 Y48.92548
X4.49580 Y48.92548
X4.49580 Y48.87468
X4.47040 Y48.87468
X4.47040 Y48.84928
X4.41960 Y48.84928
X4.41960 Y48.82388
X4.36880 Y48.82388
X4.36880 Y48.79848
X4.34340 Y48.79848
X4.34340 Y48.77308
X4.29260 Y48.77308
X4.29260 Y48.74768
X4.24180 Y48.74768
X4.24180 Y48.72228
X4.21640 Y48.72228
X4.21640 Y48.69688
X4.16560 Y48.69688
X4.16560 Y48.67148
X4.03860 Y48.67148
X4.03860 Y48.64608
X3.88620 Y48.64608
X3.88620 Y48.62068
X3.70840 Y48.62068
X3.70840 Y48.64608
X3.55600 Y48.64608
X3.55600 Y48.67148
X3.42900 Y48.67148
X3.42900 Y48.69688
X3.37820 Y48.69688
X3.37820 Y48.72228
X3.35280 Y48.72228
X3.35280 Y48.74768
X3.30200 Y48.74768
X3.30200 Y48.77308
X3.25120 Y48.77308
X3.25120 Y48.79848
X3.22580 Y48.79848
X3.22580 Y48.82388
X3.17500 Y48.82388
X3.17500 Y48.84928
X3.12420 Y48.84928
X3.12420 Y48.87468
X3.09880 Y48.87468
X3.09880 Y48.92548
X3.07340 Y48.92548
X3.07340 Y48.95088
X3.04800 Y48.95088
X3.04800 Y48.97628
X3.02260 Y48.97628
X3.02260 Y49.00168
X2.99720 Y49.00168
X2.99720 Y49.05248
X2.97180 Y49.05248
X2.97180 Y49.10328
X2.94640 Y49.10328
X2.94640 Y49.12868
X2.92100 Y49.12868
X2.92100 Y49.20488
X2.89560 Y49.20488
X2.89560 Y49.28108
X2.87020 Y49.28108
X2.87020 Y49.43348
X2.84480 Y49.43348
X2.84480 Y49.71288
X2.87020 Y49.71288
X2.87020 Y49.86528
X2.89560 Y49.86528
X2.89560 Y49.94148
X2.92100 Y49.94148
X2.92100 Y50.01768
X2.94640 Y50.01768
X2.94640 Y50.04308
X2.97180 Y50.04308
X2.97180 Y50.09388
X2.99720 Y50.09388
X2.99720 Y50.14468
X3.02260 Y50.14468
X3.02260 Y50.17008
X3.04800 Y50.17008
X3.04800 Y50.19548
X3.07340 Y50.19548
X3.07340 Y50.22088
X3.09880 Y50.22088
X3.09880 Y50.27168
X3.12420 Y50.27168
X3.12420 Y50.29708
X3.17500 Y50.29708
X3.17500 Y50.32248
X3.22580 Y50.32248
X3.22580 Y50.34788
X3.25120 Y50.34788
X3.25120 Y50.37328
X3.30200 Y50.37328
X3.30200 Y50.39868
X3.35280 Y50.39868
X3.35280 Y50.42408
X3.37820 Y50.42408
X3.37820 Y50.44948
X3.42900 Y50.44948
X3.42900 Y50.47488
X3.55600 Y50.47488
X3.55600 Y50.50028
X3.70840 Y50.50028
X3.70840 Y50.52568
X3.88620 Y50.52568
X3.88620 Y50.50028
G04 P0 ( dwell for no time -- G64 should not smooth over this point )
G00 Z3.00000 ( retract )

G00 X19.12620 Y50.50028 ( rapid move to begin. )
G01 Z-0.10000
G04 P0 ( dwell for no time -- G64 should not smooth over this point )
X19.12620 Y50.50028
X19.27860 Y50.50028
X19.27860 Y50.47488
X19.40560 Y50.47488
X19.40560 Y50.44948
X19.45640 Y50.44948
X19.45640 Y50.42408
X19.48180 Y50.42408
X19.48180 Y50.39868
X19.53260 Y50.39868
X19.53260 Y50.37328
X19.58340 Y50.37328
X19.58340 Y50.34788
X19.60880 Y50.34788
X19.60880 Y50.32248
X19.65960 Y50.32248
X19.65960 Y50.29708
X19.71040 Y50.29708
X19.71040 Y50.27168
X19.73580 Y50.27168
X19.73580 Y50.22088
X19.76120 Y50.22088
X19.76120 Y50.19548
X19.78660 Y50.19548
X19.78660 Y50.17008
X19.81200 Y50.17008
X19.81200 Y50.14468
X19.83740 Y50.14468
X19.83740 Y50.09388
X19.86280 Y50.09388
X19.86280 Y50.04308
X19.88820 Y50.04308
X19.88820 Y50.01768
X19.91360 Y50.01768
X19.91360 Y49.94148
X19.93900 Y49.94148
X19.93900 Y49.86528
X19.96440 Y49.86528
X19.96440 Y49.71288
X19.98980 Y49.71288
X19.98980 Y49.43348
X19.96440 Y49.43348
X19.96440 Y49.28108
X19.93900 Y49.28108
X19.93900 Y49.20488
X19.91360 Y49.20488
X19.91360 Y49.12868
X19.88820 Y49.12868
X19.88820 Y49.10328
X19.86280 Y49.10328
X19.86280 Y49.05248
X19.83740 Y49.05248
X19.83740 Y49.00168
X19.81200 Y49.00168
X19.81200 Y48.97628
X19.78660 Y48.97628
X19.78660 Y48.95088
X19.76120 Y48.95088
X19.76120 Y48.92548
X19.73580 Y48.92548
X19.73580 Y48.87468
X19.71040 Y48.87468
X19.71040 Y48.84928
X19.65960 Y48.84928
X19.65960 Y48.82388
X19.60880 Y48.82388
X19.60880 Y48.79848
X19.58340 Y48.79848
X19.58340 Y48.77308
X19.53260 Y48.77308
X19.53260 Y48.74768
X19.48180 Y48.74768
X19.48180 Y48.72228
X19.45640 Y48.72228
X19.45640 Y48.69688
X19.40560 Y48.69688
X19.40560 Y48.67148
X19.27860 Y48.67148
X19.27860 Y48.64608
X19.12620 Y48.64608
X19.12620 Y48.62068
X18.94840 Y48.62068
X18.94840 Y48.64608
X18.79600 Y48.64608
X18.79600 Y48.67148
X18.66900 Y48.67148
X18.66900 Y48.69688
X18.61820 Y48.69688
X18.61820 Y48.72228
X18.59280 Y48.72228
X18.59280 Y48.74768
X18.54200 Y48.74768
X18.54200 Y48.77308
X18.49120 Y48.77308
X18.49120 Y48.79848
X18.46580 Y48.79848
X18.46580 Y48.82388
X18.41500 Y48.82388
X18.41500 Y48.84928
X18.36420 Y48.84928
X18.36420 Y48.87468
X18.33880 Y48.87468
X18.33880 Y48.92548
X18.31340 Y48.92548
X18.31340 Y48.95088
X18.28800 Y48.95088
X18.28800 Y48.97628
X18.26260 Y48.97628
X18.26260 Y49.00168
X18.23720 Y49.00168
X18.23720 Y49.05248
X18.21180 Y49.05248
X18.21180 Y49.10328
X18.18640 Y49.10328
X18.18640 Y49.12868
X18.16100 Y49.12868
X18.16100 Y49.20488
X18.13560 Y49.20488
X18.13560 Y49.28108
X18.11020 Y49.28108
X18.11020 Y49.43348
X18.08480 Y49.43348
X18.08480 Y49.71288
X18.11020 Y49.71288
X18.11020 Y49.86528
X18.13560 Y49.86528
X18.13560 Y49.94148
X18.16100 Y49.94148
X18.16100 Y50.01768
X18.18640 Y50.01768
X18.18640 Y50.04308
X18.21180 Y50.04308
X18.21180 Y50.09388
X18.23720 Y50.09388
X18.23720 Y50.14468
X18.26260 Y50.14468
X18.26260 Y50.17008
X18.28800 Y50.17008
X18.28800 Y50.19548
X18.31340 Y50.19548
X18.31340 Y50.22088
X18.33880 Y50.22088
X18.33880 Y50.27168
X18.36420 Y50.27168
X18.36420 Y50.29708
X18.41500 Y50.29708
X18.41500 Y50.32248
X18.46580 Y50.32248
X18.46580 Y50.34788
X18.49120 Y50.34788
X18.49120 Y50.37328
X18.54200 Y50.37328
X18.54200 Y50.39868
X18.59280 Y50.39868
X18.59280 Y50.42408
X18.61820 Y50.42408
X18.61820 Y50.44948
X18.66900 Y50.44948
X18.66900 Y50.47488
X18.79600 Y50.47488
X18.79600 Y50.50028
X18.94840 Y50.50028
X18.94840 Y50.52568
X19.12620 Y50.52568
X19.12620 Y50.50028
G04 P0 ( dwell for no time -- G64 should not smooth over this point )
G00 Z3.00000 ( retract )

G00 X3.88620 Y47.96028 ( rapid move to begin. )
G01 Z-0.10000
G04 P0 ( dwell for no time -- G64 should not smooth over this point )
X3.88620 Y47.96028
X4.03860 Y47.96028
X4.03860 Y47.93488
X4.16560 Y47.93488
X4.16560 Y47.90948
X4.21640 Y47.90948
X4.21640 Y47.88408
X4.24180 Y47.88408
X4.24180 Y47.85868
X4.29260 Y47.85868
X4.29260 Y47.83328
X4.34340 Y47.83328
X4.34340 Y47.80788
X4.36880 Y47.80788
X4.36880 Y47.78248
X4.41960 Y47.78248
X4.41960 Y47.75708
X4.47040 Y47.75708
X4.47040 Y47.73168
X4.49580 Y47.73168
X4.49580 Y47.68088
X4.52120 Y47.68088
X4.52120 Y47.65548
X4.54660 Y47.65548
X4.54660 Y47.63008
X4.57200 Y47.63008
X4.57200 Y47.60468
X4.59740 Y47.60468
X4.59740 Y47.55388
X4.62280 Y47.55388
X4.62280 Y47.50308
X4.64820 Y47.50308
X4.64820 Y47.47768
X4.67360 Y47.47768
X4.67360 Y47.40148
X4.69900 Y47.40148
X4.69900 Y47.32528
X4.72440 Y47.32528
X4.72440 Y47.17288
X4.74980 Y47.17288
X4.74980 Y46.89348
X4.72440 Y46.89348
X4.72440 Y46.74108
X4.69900 Y46.74108
X4.69900 Y46.66488
X4.67360 Y46.66488
X4.67360 Y46.58868
X4.64820 Y46.58868
X4.64820 Y46.56328
X4.62280 Y46.56328
X4.62280 Y46.51248
X4.59740 Y46.51248
X4.59740 Y46.46168
X4.57200 Y46.46168
X4.57200 Y46.43628
X4.54660 Y46.43628
X4.54660 Y46.41088
X4.52120 Y46.41088
X4.52120 Y46.38548
X4.49580 Y46.38548
X4.49580 Y46.33468
X4.47040 Y46.33468
X4.47040 Y46.30928
X4.41960 Y46.30928
X4.41960 Y46.28388
X4.36880 Y46.28388
X4.36880 Y46.25848
X4.34340 Y46.25848
X4.34340 Y46.23308
X4.29260 Y46.23308
X4.29260 Y46.20768
X4.24180 Y46.20768
X4.24180 Y46.18228
X4.21640 Y46.18228
X4.21640 Y46.15688
X4.16560 Y46.15688
X4.16560 Y46.13148
X4.03860 Y46.13148
X4.03860 Y46.10608
X3.88620 Y46.10608
X3.88620 Y46.08068
X3.70840 Y46.08068
X3.70840 Y46.10608
X3.55600 Y46.10608
X3.55600 Y46.13148
X3.42900 Y46.13148
X3.42900 Y46.15688
X3.37820 Y46.15688
X3.37820 Y46.18228
X3.35280 Y46.18228
X3.35280 Y46.20768
X3.30200 Y46.20768
X3.30200 Y46.23308
X3.25120 Y46.23308
X3.25120 Y46.25848
X3.22580 Y46.25848
X3.22580 Y46.28388
X3.17500 Y46.28388
X3.17500 Y46.30928
X3.12420 Y46.30928
X3.12420 Y46.33468
X3.09880 Y46.33468
X3.09880 Y46.38548
X3.07340 Y46.38548
X3.07340 Y46.41088
X3.04800 Y46.41088
X3.04800 Y46.43628
X3.02260 Y46.43628
X3.02260 Y46.46168
X2.99720 Y46.46168
X2.99720 Y46.51248
X2.97180 Y46.51248
X2.97180 Y46.56328
X2.94640 Y46.56328
X2.94640 Y46.58868
X2.92100 Y46.58868
X2.92100 Y46.66488
X2.89560 Y46.66488
X2.89560 Y46.74108
X2.87020 Y46.74108
X2.87020 Y46.89348
X2.84480 Y46.89348
X2.84480 Y47.17288
X2.87020 Y47.17288
X2.87020 Y47.32528
X2.89560 Y47.32528
X2.89560 Y47.40148
X2.92100 Y47.40148
X2.92100 Y47.47768
X2.94640 Y47.47768
X2.94640 Y47.50308
X2.97180 Y47.50308
X2.97180 Y47.55388
X2.99720 Y47.55388
X2.99720 Y47.60468
X3.02260 Y47.60468
X3.02260 Y47.63008
X3.04800 Y47.63008
X3.04800 Y47.65548
X3.07340 Y47.65548
X3.07340 Y47.68088
X3.09880 Y47.68088
X3.09880 Y47.73168
X3.12420 Y47.73168
X3.12420 Y47.75708
X3.17500 Y47.75708
X3.17500 Y47.78248
X3.22580 Y47.78248
X3.22580 Y47.80788
X3.25120 Y47.80788
X3.25120 Y47.83328
X3.30200 Y47.83328
X3.30200 Y47.85868
X3.35280 Y47.85868
X3.35280 Y47.88408
X3.37820 Y47.88408
X3.37820 Y47.90948
X3.42900 Y47.90948
X3.42900 Y47.93488
X3.55600 Y47.93488
X3.55600 Y47.96028
X3.70840 Y47.96028
X3.70840 Y47.98568
X3.88620 Y47.98568
X3.88620 Y47.96028
G04 P0 ( dwell for no time -- G64 should not smooth over this point )
G00 Z3.00000 ( retract )

G00 X19.12620 Y47.96028 ( rapid move to begin. )
G01 Z-0.10000
G04 P0 ( dwell for no time -- G64 should not smooth over this point )
X19.12620 Y47.96028
X19.27860 Y47.96028
X19.27860 Y47.93488
X19.40560 Y47.93488
X19.40560 Y47.90948
X19.45640 Y47.90948
X19.45640 Y47.88408
X19.48180 Y47.88408
X19.48180 Y47.85868
X19.53260 Y47.85868
X19.53260 Y47.83328
X19.58340 Y47.83328
X19.58340 Y47.80788
X19.60880 Y47.80788
X19.60880 Y47.78248
X19.65960 Y47.78248
X19.65960 Y47.75708
X19.71040 Y47.75708
X19.71040 Y47.73168
X19.73580 Y47.73168
X19.73580 Y47.68088
X19.76120 Y47.68088
X19.76120 Y47.65548
X19.78660 Y47.65548
X19.78660 Y47.63008
X19.81200 Y47.63008
X19.81200 Y47.60468
X19.83740 Y47.60468
X19.83740 Y47.55388
X19.86280 Y47.55388
X19.86280 Y47.50308
X19.88820 Y47.50308
X19.88820 Y47.47768
X19.91360 Y47.47768
X19.91360 Y47.40148
X19.93900 Y47.40148
X19.93900 Y47.32528
X19.96440 Y47.32528
X19.96440 Y47.17288
X19.98980 Y47.17288
X19.98980 Y46.89348
X19.96440 Y46.89348
X19.96440 Y46.74108
X19.93900 Y46.74108
X19.93900 Y46.66488
X19.91360 Y46.66488
X19.91360 Y46.58868
X19.88820 Y46.58868
X19.88820 Y46.56328
X19.86280 Y46.56328
X19.86280 Y46.51248
X19.83740 Y46.51248
X19.83740 Y46.46168
X19.81200 Y46.46168
X19.81200 Y46.43628
X19.78660 Y46.43628
X19.78660 Y46.41088
X19.76120 Y46.41088
X19.76120 Y46.38548
X19.73580 Y46.38548
X19.73580 Y46.33468
X19.71040 Y46.33468
X19.71040 Y46.30928
X19.65960 Y46.30928
X19.65960 Y46.28388
X19.60880 Y46.28388
X19.60880 Y46.25848
X19.58340 Y46.25848
X19.58340 Y46.23308
X19.53260 Y46.23308
X19.53260 Y46.20768
X19.48180 Y46.20768
X19.48180 Y46.18228
X19.45640 Y46.18228
X19.45640 Y46.15688
X19.40560 Y46.15688
X19.40560 Y46.13148
X19.27860 Y46.13148
X19.27860 Y46.10608
X19.12620 Y46.10608
X19.12620 Y46.08068
X18.94840 Y46.08068
X18.94840 Y46.10608
X18.79600 Y46.10608
X18.79600 Y46.13148
X18.66900 Y46.13148
X18.66900 Y46.15688
X18.61820 Y46.15688
X18.61820 Y46.18228
X18.59280 Y46.18228
X18.59280 Y46.20768
X18.54200 Y46.20768
X18.54200 Y46.23308
X18.49120 Y46.23308
X18.49120 Y46.25848
X18.46580 Y46.25848
X18.46580 Y46.28388
X18.41500 Y46.28388
X18.41500 Y46.30928
X18.36420 Y46.30928
X18.36420 Y46.33468
X18.33880 Y46.33468
X18.33880 Y46.38548
X18.31340 Y46.38548
X18.31340 Y46.41088
X18.28800 Y46.41088
X18.28800 Y46.43628
X18.26260 Y46.43628
X18.26260 Y46.46168
X18.23720 Y46.46168
X18.23720 Y46.51248
X18.21180 Y46.51248
X18.21180 Y46.56328
X18.18640 Y46.56328
X18.18640 Y46.58868
X18.16100 Y46.58868
X18.16100 Y46.66488
X18.13560 Y46.66488
X18.13560 Y46.74108
X18.11020 Y46.74108
X18.11020 Y46.89348
X18.08480 Y46.89348
X18.08480 Y47.17288
X18.11020 Y47.17288
X18.11020 Y47.32528
X18.13560 Y47.32528
X18.13560 Y47.40148
X18.16100 Y47.40148
X18.16100 Y47.47768
X18.18640 Y47.47768
X18.18640 Y47.50308
X18.21180 Y47.50308
X18.21180 Y47.55388
X18.23720 Y47.55388
X18.23720 Y47.60468
X18.26260 Y47.60468
X18.26260 Y47.63008
X18.28800 Y47.63008
X18.28800 Y47.65548
X18.31340 Y47.65548
X18.31340 Y47.68088
X18.33880 Y47.68088
X18.33880 Y47.73168
X18.36420 Y47.73168
X18.36420 Y47.75708
X18.41500 Y47.75708
X18.41500 Y47.78248
X18.46580 Y47.78248
X18.46580 Y47.80788
X18.49120 Y47.80788
X18.49120 Y47.83328
X18.54200 Y47.83328
X18.54200 Y47.85868
X18.59280 Y47.85868
X18.59280 Y47.88408
X18.61820 Y47.88408
X18.61820 Y47.90948
X18.66900 Y47.90948
X18.66900 Y47.93488
X18.79600 Y47.93488
X18.79600 Y47.96028
X18.94840 Y47.96028
X18.94840 Y47.98568
X19.12620 Y47.98568
X19.12620 Y47.96028
G04 P0 ( dwell for no time -- G64 should not smooth over this point )
G00 Z3.00000 ( retract )

G00 X3.88620 Y45.42028 ( rapid move to begin. )
G01 Z-0.10000
G04 P0 ( dwell for no time -- G64 should not smooth over this point )
X3.88620 Y45.42028
X4.03860 Y45.42028
X4.03860 Y45.39488
X4.16560 Y45.39488
X4.16560 Y45.36948
X4.21640 Y45.36948
X4.21640 Y45.34408
X4.24180 Y45.34408
X4.24180 Y45.31868
X4.29260 Y45.31868
X4.29260 Y45.29328
X4.34340 Y45.29328
X4.34340 Y45.26788
X4.36880 Y45.26788
X4.36880 Y45.24248
X4.41960 Y45.24248
X4.41960 Y45.21708
X4.47040 Y45.21708
X4.47040 Y45.19168
X4.49580 Y45.19168
X4.49580 Y45.14088
X4.52120 Y45.14088
X4.52120 Y45.11548
X4.54660 Y45.11548
X4.54660 Y45.09008
X4.57200 Y45.09008
X4.57200 Y45.06468
X4.59740 Y45.06468
X4.59740 Y45.01388
X4.62280 Y45.01388
X4.62280 Y44.96308
X4.64820 Y44.96308
X4.64820 Y44.93768
X4.67360 Y44.93768
X4.67360 Y44.86148
X4.69900 Y44.86148
X4.69900 Y44.78528
X4.72440 Y44.78528
X4.72440 Y44.63288
X4.74980 Y44.63288
X4.74980 Y44.35348
X4.72440 Y44.35348
X4.72440 Y44.20108
X4.69900 Y44.20108
X4.69900 Y44.12488
X4.67360 Y44.12488
X4.67360 Y44.04868
X4.64820 Y44.04868
X4.64820 Y44.02328
X4.62280 Y44.02328
X4.62280 Y43.97248
X4.59740 Y43.97248
X4.59740 Y43.92168
X4.57200 Y43.92168
X4.57200 Y43.89628
X4.54660 Y43.89628
X4.54660 Y43.87088
X4.52120 Y43.87088
X4.52120 Y43.84548
X4.49580 Y43.84548
X4.49580 Y43.79468
X4.47040 Y43.79468
X4.47040 Y43.76928
X4.41960 Y43.76928
X4.41960 Y43.74388
X4.36880 Y43.74388
X4.36880 Y43.71848
X4.34340 Y43.71848
X4.34340 Y43.69308
X4.29260 Y43.69308
X4.29260 Y43.66768
X4.24180 Y43.66768
X4.24180 Y43.64228
X4.21640 Y43.64228
X4.21640 Y43.61688
X4.16560 Y43.61688
X4.16560 Y43.59148
X4.03860 Y43.59148
X4.03860 Y43.56608
X3.88620 Y43.56608
X3.88620 Y43.54068
X3.70840 Y43.54068
X3.70840 Y43.56608
X3.55600 Y43.56608
X3.55600 Y43.59148
X3.42900 Y43.59148
X3.42900 Y43.61688
X3.37820 Y43.61688
X3.37820 Y43.64228
X3.35280 Y43.64228
X3.35280 Y43.66768
X3.30200 Y43.66768
X3.30200 Y43.69308
X3.25120 Y43.69308
X3.25120 Y43.71848
X3.22580 Y43.71848
X3.22580 Y43.74388
X3.17500 Y43.74388
X3.17500 Y43.76928
X3.12420 Y43.76928
X3.12420 Y43.79468
X3.09880 Y43.79468
X3.09880 Y43.84548
X3.07340 Y43.84548
X3.07340 Y43.87088
X3.04800 Y43.87088
X3.04800 Y43.89628
X3.02260 Y43.89628
X3.02260 Y43.92168
X2.99720 Y43.92168
X2.99720 Y43.97248
X2.97180 Y43.97248
X2.97180 Y44.02328
X2.94640 Y44.02328
X2.94640 Y44.04868
X2.92100 Y44.04868
X2.92100 Y44.12488
X2.89560 Y44.12488
X2.89560 Y44.20108
X2.87020 Y44.20108
X2.87020 Y44.35348
X2.84480 Y44.35348
X2.84480 Y44.63288
X2.87020 Y44.63288
X2.87020 Y44.78528
X2.89560 Y44.78528
X2.89560 Y44.86148
X2.92100 Y44.86148
X2.92100 Y44.93768
X2.94640 Y44.93768
X2.94640 Y44.96308
X2.97180 Y44.96308
X2.97180 Y45.01388
X2.99720 Y45.01388
X2.99720 Y45.06468
X3.02260 Y45.06468
X3.02260 Y45.09008
X3.04800 Y45.09008
X3.04800 Y45.11548
X3.07340 Y45.11548
X3.07340 Y45.14088
X3.09880 Y45.14088
X3.09880 Y45.19168
X3.12420 Y45.19168
X3.12420 Y45.21708
X3.17500 Y45.21708
X3.17500 Y45.24248
X3.22580 Y45.24248
X3.22580 Y45.26788
X3.25120 Y45.26788
X3.25120 Y45.29328
X3.30200 Y45.29328
X3.30200 Y45.31868
X3.35280 Y45.31868
X3.35280 Y45.34408
X3.37820 Y45.34408
X3.37820 Y45.36948
X3.42900 Y45.36948
X3.42900 Y45.39488
X3.55600 Y45.39488
X3.55600 Y45.42028
X3.70840 Y45.42028
X3.70840 Y45.44568
X3.88620 Y45.44568
X3.88620 Y45.42028
G04 P0 ( dwell for no time -- G64 should not smooth over this point )
G00 Z3.00000 ( retract )

G00 X19.12620 Y45.42028 ( rapid move to begin. )
G01 Z-0.10000
G04 P0 ( dwell for no time -- G64 should not smooth over this point )
X19.12620 Y45.42028
X19.27860 Y45.42028
X19.27860 Y45.39488
X19.40560 Y45.39488
X19.40560 Y45.36948
X19.45640 Y45.36948
X19.45640 Y45.34408
X19.48180 Y45.34408
X19.48180 Y45.31868
X19.53260 Y45.31868
X19.53260 Y45.29328
X19.58340 Y45.29328
X19.58340 Y45.26788
X19.60880 Y45.26788
X19.60880 Y45.24248
X19.65960 Y45.24248
X19.65960 Y45.21708
X19.71040 Y45.21708
X19.71040 Y45.19168
X19.73580 Y45.19168
X19.73580 Y45.14088
X19.76120 Y45.14088
X19.76120 Y45.11548
X19.78660 Y45.11548
X19.78660 Y45.09008
X19.81200 Y45.09008
X19.81200 Y45.06468
X19.83740 Y45.06468
X19.83740 Y45.01388
X19.86280 Y45.01388
X19.86280 Y44.96308
X19.88820 Y44.96308
X19.88820 Y44.93768
X19.91360 Y44.93768
X19.91360 Y44.86148
X19.93900 Y44.86148
X19.93900 Y44.78528
X19.96440 Y44.78528
X19.96440 Y44.63288
X19.98980 Y44.63288
X19.98980 Y44.35348
X19.96440 Y44.35348
X19.96440 Y44.20108
X19.93900 Y44.20108
X19.93900 Y44.12488
X19.91360 Y44.12488
X19.91360 Y44.04868
X19.88820 Y44.04868
X19.88820 Y44.02328
X19.86280 Y44.02328
X19.86280 Y43.97248
X19.83740 Y43.97248
X19.83740 Y43.92168
X19.81200 Y43.92168
X19.81200 Y43.89628
X19.78660 Y43.89628
X19.78660 Y43.87088
X19.76120 Y43.87088
X19.76120 Y43.84548
X19.73580 Y43.84548
X19.73580 Y43.79468
X19.71040 Y43.79468
X19.71040 Y43.76928
X19.65960 Y43.76928
X19.65960 Y43.74388
X19.60880 Y43.74388
X19.60880 Y43.71848
X19.58340 Y43.71848
X19.58340 Y43.69308
X19.53260 Y43.69308
X19.53260 Y43.66768
X19.48180 Y43.66768
X19.48180 Y43.64228
X19.45640 Y43.64228
X19.45640 Y43.61688
X19.40560 Y43.61688
X19.40560 Y43.59148
X19.27860 Y43.59148
X19.27860 Y43.56608
X19.12620 Y43.56608
X19.12620 Y43.54068
X18.94840 Y43.54068
X18.94840 Y43.56608
X18.79600 Y43.56608
X18.79600 Y43.59148
X18.66900 Y43.59148
X18.66900 Y43.61688
X18.61820 Y43.61688
X18.61820 Y43.64228
X18.59280 Y43.64228
X18.59280 Y43.66768
X18.54200 Y43.66768
X18.54200 Y43.69308
X18.49120 Y43.69308
X18.49120 Y43.71848
X18.46580 Y43.71848
X18.46580 Y43.74388
X18.41500 Y43.74388
X18.41500 Y43.76928
X18.36420 Y43.76928
X18.36420 Y43.79468
X18.33880 Y43.79468
X18.33880 Y43.84548
X18.31340 Y43.84548
X18.31340 Y43.87088
X18.28800 Y43.87088
X18.28800 Y43.89628
X18.26260 Y43.89628
X18.26260 Y43.92168
X18.23720 Y43.92168
X18.23720 Y43.97248
X18.21180 Y43.97248
X18.21180 Y44.02328
X18.18640 Y44.02328
X18.18640 Y44.04868
X18.16100 Y44.04868
X18.16100 Y44.12488
X18.13560 Y44.12488
X18.13560 Y44.20108
X18.11020 Y44.20108
X18.11020 Y44.35348
X18.08480 Y44.35348
X18.08480 Y44.63288
X18.11020 Y44.63288
X18.11020 Y44.78528
X18.13560 Y44.78528
X18.13560 Y44.86148
X18.16100 Y44.86148
X18.16100 Y44.93768
X18.18640 Y44.93768
X18.18640 Y44.96308
X18.21180 Y44.96308
X18.21180 Y45.01388
X18.23720 Y45.01388
X18.23720 Y45.06468
X18.26260 Y45.06468
X18.26260 Y45.09008
X18.28800 Y45.09008
X18.28800 Y45.11548
X18.31340 Y45.11548
X18.31340 Y45.14088
X18.33880 Y45.14088
X18.33880 Y45.19168
X18.36420 Y45.19168
X18.36420 Y45.21708
X18.41500 Y45.21708
X18.41500 Y45.24248
X18.46580 Y45.24248
X18.46580 Y45.26788
X18.49120 Y45.26788
X18.49120 Y45.29328
X18.54200 Y45.29328
X18.54200 Y45.31868
X18.59280 Y45.31868
X18.59280 Y45.34408
X18.61820 Y45.34408
X18.61820 Y45.36948
X18.66900 Y45.36948
X18.66900 Y45.39488
X18.79600 Y45.39488
X18.79600 Y45.42028
X18.94840 Y45.42028
X18.94840 Y45.44568
X19.12620 Y45.44568
X19.12620 Y45.42028
G04 P0 ( dwell for no time -- G64 should not smooth over this point )
G00 Z3.00000 ( retract )

G00 X24.81580 Y43.31208 ( rapid move to begin. )
G01 Z-0.10000
G04 P0 ( dwell for no time -- G64 should not smooth over this point )
X24.81580 Y43.31208
X24.81580 Y41.02608
X24.63800 Y41.02608
X24.63800 Y36.75888
X24.61260 Y36.75888
X24.61260 Y36.65728
X24.58720 Y36.65728
X24.58720 Y36.60648
X24.56180 Y36.60648
X24.56180 Y36.55568
X24.53640 Y36.55568
X24.53640 Y36.53028
X24.51100 Y36.53028
X24.51100 Y36.50488
X24.48560 Y36.50488
X24.48560 Y36.47948
X24.46020 Y36.47948
X24.46020 Y36.45408
X24.43480 Y36.45408
X24.43480 Y36.42868
X24.38400 Y36.42868
X24.38400 Y36.40328
X24.33320 Y36.40328
X24.33320 Y36.37788
X24.23160 Y36.37788
X24.23160 Y36.35248
X19.83740 Y36.35248
X19.83740 Y36.30168
X19.81200 Y36.30168
X19.81200 Y36.27628
X19.78660 Y36.27628
X19.78660 Y36.25088
X19.76120 Y36.25088
X19.76120 Y36.22548
X19.73580 Y36.22548
X19.73580 Y36.17468
X19.71040 Y36.17468
X19.71040 Y36.14928
X19.65960 Y36.14928
X19.65960 Y36.12388
X19.60880 Y36.12388
X19.60880 Y36.09848
X19.58340 Y36.09848
X19.58340 Y36.07308
X19.53260 Y36.07308
X19.53260 Y36.04768
X19.48180 Y36.04768
X19.48180 Y36.02228
X19.45640 Y36.02228
X19.45640 Y35.99688
X19.40560 Y35.99688
X19.40560 Y35.97148
X19.27860 Y35.97148
X19.27860 Y35.94608
X19.12620 Y35.94608
X19.12620 Y35.92068
X18.94840 Y35.92068
X18.94840 Y35.94608
X18.79600 Y35.94608
X18.79600 Y35.97148
X18.66900 Y35.97148
X18.66900 Y35.99688
X18.61820 Y35.99688
X18.61820 Y36.02228
X18.59280 Y36.02228
X18.59280 Y36.04768
X18.54200 Y36.04768
X18.54200 Y36.07308
X18.49120 Y36.07308
X18.49120 Y36.09848
X18.46580 Y36.09848
X18.46580 Y36.12388
X18.41500 Y36.12388
X18.41500 Y36.14928
X18.36420 Y36.14928
X18.36420 Y36.17468
X18.33880 Y36.17468
X18.33880 Y36.22548
X18.31340 Y36.22548
X18.31340 Y36.25088
X18.28800 Y36.25088
X18.28800 Y36.27628
X18.26260 Y36.27628
X18.26260 Y36.30168
X18.23720 Y36.30168
X18.23720 Y36.35248
X18.21180 Y36.35248
X18.21180 Y36.40328
X18.18640 Y36.40328
X18.18640 Y36.42868
X18.16100 Y36.42868
X18.16100 Y36.50488
X18.13560 Y36.50488
X18.13560 Y36.58108
X18.11020 Y36.58108
X18.11020 Y36.73348
X18.08480 Y36.73348
X18.08480 Y37.01288
X18.11020 Y37.01288
X18.11020 Y37.16528
X18.13560 Y37.16528
X18.13560 Y37.24148
X18.16100 Y37.24148
X18.16100 Y37.31768
X18.18640 Y37.31768
X18.18640 Y37.34308
X18.21180 Y37.34308
X18.21180 Y37.39388
X18.23720 Y37.39388
X18.23720 Y37.44468
X18.26260 Y37.44468
X18.26260 Y37.47008
X18.28800 Y37.47008
X18.28800 Y37.49548
X18.31340 Y37.49548
X18.31340 Y37.52088
X18.33880 Y37.52088
X18.33880 Y37.57168
X18.36420 Y37.57168
X18.36420 Y37.59708
X18.41500 Y37.59708
X18.41500 Y37.62248
X18.46580 Y37.62248
X18.46580 Y37.64788
X18.49120 Y37.64788
X18.49120 Y37.67328
X18.54200 Y37.67328
X18.54200 Y37.69868
X18.59280 Y37.69868
X18.59280 Y37.72408
X18.61820 Y37.72408
X18.61820 Y37.74948
X18.66900 Y37.74948
X18.66900 Y37.77488
X18.79600 Y37.77488
X18.79600 Y37.80028
X18.94840 Y37.80028
X18.94840 Y37.82568
X19.12620 Y37.82568
X19.12620 Y37.80028
X19.27860 Y37.80028
X19.27860 Y37.77488
X19.40560 Y37.77488
X19.40560 Y37.74948
X19.45640 Y37.74948
X19.45640 Y37.72408
X19.48180 Y37.72408
X19.48180 Y37.69868
X19.53260 Y37.69868
X19.53260 Y37.67328
X19.58340 Y37.67328
X19.58340 Y37.64788
X19.60880 Y37.64788
X19.60880 Y37.62248
X19.65960 Y37.62248
X19.65960 Y37.59708
X19.71040 Y37.59708
X19.71040 Y37.57168
X19.73580 Y37.57168
X19.73580 Y37.52088
X19.76120 Y37.52088
X19.76120 Y37.49548
X19.78660 Y37.49548
X19.78660 Y37.47008
X19.81200 Y37.47008
X19.81200 Y37.44468
X19.83740 Y37.44468
X19.83740 Y37.39388
X19.86280 Y37.39388
X19.86280 Y37.36848
X23.62200 Y37.36848
X23.62200 Y41.02608
X23.41880 Y41.02608
X23.41880 Y43.33748
X24.81580 Y43.33748
X24.81580 Y43.31208
G04 P0 ( dwell for no time -- G64 should not smooth over this point )
G00 Z3.00000 ( retract )

G00 X3.88620 Y42.88028 ( rapid move to begin. )
G01 Z-0.10000
G04 P0 ( dwell for no time -- G64 should not smooth over this point )
X3.88620 Y42.88028
X4.03860 Y42.88028
X4.03860 Y42.85488
X4.16560 Y42.85488
X4.16560 Y42.82948
X4.21640 Y42.82948
X4.21640 Y42.80408
X4.24180 Y42.80408
X4.24180 Y42.77868
X4.29260 Y42.77868
X4.29260 Y42.75328
X4.34340 Y42.75328
X4.34340 Y42.72788
X4.36880 Y42.72788
X4.36880 Y42.70248
X4.41960 Y42.70248
X4.41960 Y42.67708
X4.47040 Y42.67708
X4.47040 Y42.65168
X4.49580 Y42.65168
X4.49580 Y42.60088
X4.52120 Y42.60088
X4.52120 Y42.57548
X4.54660 Y42.57548
X4.54660 Y42.55008
X4.57200 Y42.55008
X4.57200 Y42.52468
X4.59740 Y42.52468
X4.59740 Y42.47388
X4.62280 Y42.47388
X4.62280 Y42.42308
X4.64820 Y42.42308
X4.64820 Y42.39768
X4.67360 Y42.39768
X4.67360 Y42.32148
X4.69900 Y42.32148
X4.69900 Y42.24528
X4.72440 Y42.24528
X4.72440 Y42.09288
X4.74980 Y42.09288
X4.74980 Y41.81348
X4.72440 Y41.81348
X4.72440 Y41.66108
X4.69900 Y41.66108
X4.69900 Y41.58488
X4.67360 Y41.58488
X4.67360 Y41.50868
X4.64820 Y41.50868
X4.64820 Y41.48328
X4.62280 Y41.48328
X4.62280 Y41.43248
X4.59740 Y41.43248
X4.59740 Y41.38168
X4.57200 Y41.38168
X4.57200 Y41.35628
X4.54660 Y41.35628
X4.54660 Y41.33088
X4.52120 Y41.33088
X4.52120 Y41.30548
X4.49580 Y41.30548
X4.49580 Y41.25468
X4.47040 Y41.25468
X4.47040 Y41.22928
X4.41960 Y41.22928
X4.41960 Y41.20388
X4.36880 Y41.20388
X4.36880 Y41.17848
X4.34340 Y41.17848
X4.34340 Y41.15308
X4.29260 Y41.15308
X4.29260 Y41.12768
X4.24180 Y41.12768
X4.24180 Y41.10228
X4.21640 Y41.10228
X4.21640 Y41.07688
X4.16560 Y41.07688
X4.16560 Y41.05148
X4.03860 Y41.05148
X4.03860 Y41.02608
X3.88620 Y41.02608
X3.88620 Y41.00068
X3.70840 Y41.00068
X3.70840 Y41.02608
X3.55600 Y41.02608
X3.55600 Y41.05148
X3.42900 Y41.05148
X3.42900 Y41.07688
X3.37820 Y41.07688
X3.37820 Y41.10228
X3.35280 Y41.10228
X3.35280 Y41.12768
X3.30200 Y41.12768
X3.30200 Y41.15308
X3.25120 Y41.15308
X3.25120 Y41.17848
X3.22580 Y41.17848
X3.22580 Y41.20388
X3.17500 Y41.20388
X3.17500 Y41.22928
X3.12420 Y41.22928
X3.12420 Y41.25468
X3.09880 Y41.25468
X3.09880 Y41.30548
X3.07340 Y41.30548
X3.07340 Y41.33088
X3.04800 Y41.33088
X3.04800 Y41.35628
X3.02260 Y41.35628
X3.02260 Y41.38168
X2.99720 Y41.38168
X2.99720 Y41.43248
X2.97180 Y41.43248
X2.97180 Y41.48328
X2.94640 Y41.48328
X2.94640 Y41.50868
X2.92100 Y41.50868
X2.92100 Y41.58488
X2.89560 Y41.58488
X2.89560 Y41.66108
X2.87020 Y41.66108
X2.87020 Y41.81348
X2.84480 Y41.81348
X2.84480 Y42.09288
X2.87020 Y42.09288
X2.87020 Y42.24528
X2.89560 Y42.24528
X2.89560 Y42.32148
X2.92100 Y42.32148
X2.92100 Y42.39768
X2.94640 Y42.39768
X2.94640 Y42.42308
X2.97180 Y42.42308
X2.97180 Y42.47388
X2.99720 Y42.47388
X2.99720 Y42.52468
X3.02260 Y42.52468
X3.02260 Y42.55008
X3.04800 Y42.55008
X3.04800 Y42.57548
X3.07340 Y42.57548
X3.07340 Y42.60088
X3.09880 Y42.60088
X3.09880 Y42.65168
X3.12420 Y42.65168
X3.12420 Y42.67708
X3.17500 Y42.67708
X3.17500 Y42.70248
X3.22580 Y42.70248
X3.22580 Y42.72788
X3.25120 Y42.72788
X3.25120 Y42.75328
X3.30200 Y42.75328
X3.30200 Y42.77868
X3.35280 Y42.77868
X3.35280 Y42.80408
X3.37820 Y42.80408
X3.37820 Y42.82948
X3.42900 Y42.82948
X3.42900 Y42.85488
X3.55600 Y42.85488
X3.55600 Y42.88028
X3.70840 Y42.88028
X3.70840 Y42.90568
X3.88620 Y42.90568
X3.88620 Y42.88028
G04 P0 ( dwell for no time -- G64 should not smooth over this point )
G00 Z3.00000 ( retract )

G00 X19.12620 Y42.88028 ( rapid move to begin. )
G01 Z-0.10000
G04 P0 ( dwell for no time -- G64 should not smooth over this point )
X19.12620 Y42.88028
X19.27860 Y42.88028
X19.27860 Y42.85488
X19.40560 Y42.85488
X19.40560 Y42.82948
X19.45640 Y42.82948
X19.45640 Y42.80408
X19.48180 Y42.80408
X19.48180 Y42.77868
X19.53260 Y42.77868
X19.53260 Y42.75328
X19.58340 Y42.75328
X19.58340 Y42.72788
X19.60880 Y42.72788
X19.60880 Y42.70248
X19.65960 Y42.70248
X19.65960 Y42.67708
X19.71040 Y42.67708
X19.71040 Y42.65168
X19.73580 Y42.65168
X19.73580 Y42.60088
X19.76120 Y42.60088
X19.76120 Y42.57548
X19.78660 Y42.57548
X19.78660 Y42.55008
X19.81200 Y42.55008
X19.81200 Y42.52468
X19.83740 Y42.52468
X19.83740 Y42.47388
X19.86280 Y42.47388
X19.86280 Y42.42308
X19.88820 Y42.42308
X19.88820 Y42.39768
X19.91360 Y42.39768
X19.91360 Y42.32148
X19.93900 Y42.32148
X19.93900 Y42.24528
X19.96440 Y42.24528
X19.96440 Y42.09288
X19.98980 Y42.09288
X19.98980 Y41.81348
X19.96440 Y41.81348
X19.96440 Y41.66108
X19.93900 Y41.66108
X19.93900 Y41.58488
X19.91360 Y41.58488
X19.91360 Y41.50868
X19.88820 Y41.50868
X19.88820 Y41.48328
X19.86280 Y41.48328
X19.86280 Y41.43248
X19.83740 Y41.43248
X19.83740 Y41.38168
X19.81200 Y41.38168
X19.81200 Y41.35628
X19.78660 Y41.35628
X19.78660 Y41.33088
X19.76120 Y41.33088
X19.76120 Y41.30548
X19.73580 Y41.30548
X19.73580 Y41.25468
X19.71040 Y41.25468
X19.71040 Y41.22928
X19.65960 Y41.22928
X19.65960 Y41.20388
X19.60880 Y41.20388
X19.60880 Y41.17848
X19.58340 Y41.17848
X19.58340 Y41.15308
X19.53260 Y41.15308
